; G-Code generated by Simplify3D(R) Version 4.1.2
; Jan 26, 2020 at 1:31:20 PM
; Settings Summary
;   processName,Process2
;   applyToModels,1mmCube(2),1mmCube(4),1mmCube(6),1mmCube(8),1mmCube(10),1mmCube(3)(2),1mmCube(5)(2),1mmCube(7)(2),1mmCube(9)(2),1mmCube(2)(3),1mmCube(4)(3),1mmCube(6)(3),1mmCube(8)(3)
;   profileName,MakerGear M2 90%infill_.9extx_23mms_27G (modified)
;   profileVersion,2020-01-25 18:22:54
;   baseProfile,Default
;   printMaterial,Collagen
;   printQuality,Medium
;   printExtruders,All Extruders
;   extruderName,Extruder 1
;   extruderToolheadNumber,1
;   extruderDiameter,0.21
;   extruderAutoWidth,0
;   extruderWidth,0.21
;   extrusionMultiplier,0.9
;   extruderUseRetract,1
;   extruderRetractionDistance,0.07
;   extruderExtraRestartDistance,0
;   extruderRetractionZLift,0.15
;   extruderRetractionSpeed,60
;   extruderUseCoasting,0
;   extruderCoastingDistance,0.2
;   extruderUseWipe,0
;   extruderWipeDistance,5
;   primaryExtruder,0
;   layerHeight,0.084
;   topSolidLayers,0
;   bottomSolidLayers,0
;   perimeterOutlines,0
;   printPerimetersInsideOut,1
;   startPointOption,2
;   startPointOriginX,0
;   startPointOriginY,0
;   sequentialIslands,0
;   spiralVaseMode,0
;   firstLayerHeightPercentage,100
;   firstLayerWidthPercentage,100
;   firstLayerUnderspeed,1
;   useRaft,0
;   raftExtruder,0
;   raftTopLayers,3
;   raftBaseLayers,2
;   raftOffset,3
;   raftSeparationDistance,0.14
;   raftTopInfill,100
;   aboveRaftSpeedMultiplier,0.3
;   useSkirt,0
;   skirtExtruder,0
;   skirtLayers,1
;   skirtOutlines,2
;   skirtOffset,4
;   usePrimePillar,0
;   primePillarExtruder,999
;   primePillarWidth,12
;   primePillarLocation,7
;   primePillarSpeedMultiplier,1
;   useOozeShield,0
;   oozeShieldExtruder,999
;   oozeShieldOffset,2
;   oozeShieldOutlines,1
;   oozeShieldSidewallShape,1
;   oozeShieldSidewallAngle,30
;   oozeShieldSpeedMultiplier,1
;   infillExtruder,0
;   internalInfillPattern,Rectilinear
;   externalInfillPattern,Rectilinear
;   infillPercentage,90
;   outlineOverlapPercentage,15
;   infillExtrusionWidthPercentage,100
;   minInfillLength,0
;   infillLayerInterval,1
;   internalInfillAngles,45,-45
;   overlapInternalInfillAngles,0
;   externalInfillAngles,45,-45
;   generateSupport,0
;   supportExtruder,0
;   supportInfillPercentage,30
;   supportExtraInflation,0
;   supportBaseLayers,0
;   denseSupportExtruder,0
;   denseSupportLayers,0
;   denseSupportInfillPercentage,70
;   supportLayerInterval,1
;   supportHorizontalPartOffset,0.3
;   supportUpperSeparationLayers,1
;   supportLowerSeparationLayers,1
;   supportType,0
;   supportGridSpacing,4
;   maxOverhangAngle,45
;   supportAngles,0
;   temperatureName,Right Extruder,Left Extruder,Heated Bed
;   temperatureNumber,1,0,2
;   temperatureSetpointCount,1,1,1
;   temperatureSetpointLayers,1,1,1
;   temperatureSetpointTemperatures,190,0,60
;   temperatureStabilizeAtStartup,1,0,1
;   temperatureHeatedBed,0,0,1
;   fanLayers,1,2
;   fanSpeeds,0,100
;   blipFanToFullPower,0
;   adjustSpeedForCooling,0
;   minSpeedLayerTime,15
;   minCoolingSpeedSlowdown,20
;   increaseFanForCooling,0
;   minFanLayerTime,45
;   maxCoolingFanSpeed,100
;   increaseFanForBridging,0
;   bridgingFanSpeed,100
;   use5D,1
;   relativeEdistances,1
;   allowEaxisZeroing,1
;   independentExtruderAxes,0
;   includeM10123,0
;   stickySupport,0
;   applyToolheadOffsets,0
;   gcodeXoffset,0
;   gcodeYoffset,0
;   gcodeZoffset,0
;   overrideMachineDefinition,0
;   machineTypeOverride,0
;   strokeXoverride,100
;   strokeYoverride,100
;   strokeZoverride,100
;   originOffsetXoverride,0
;   originOffsetYoverride,0
;   originOffsetZoverride,0
;   homeXdirOverride,-1
;   homeYdirOverride,-1
;   homeZdirOverride,-1
;   flipXoverride,1
;   flipYoverride,-1
;   flipZoverride,1
;   toolheadOffsets,0,0|0,0|0,0|0,0|0,0|0,0
;   overrideFirmwareConfiguration,0
;   firmwareTypeOverride,RepRap (Marlin/Repetier/Sprinter)
;   GPXconfigOverride,r2
;   baudRateOverride,115200
;   overridePrinterModels,0
;   printerModelsOverride
;   startingGcode,
;   layerChangeGcode,
;   retractionGcode,
;   toolChangeGcode,M302 P1,G91 ,G1 Z30 F900,T1,G90 ,G0 X0 Y0 ,G91,G1 Z-10,G90 
;   endingGcode,G92 Z0,G1 Z30 F500,G92 Z0
;   exportFileFormat,gcode
;   celebration,0
;   celebrationSong,Random Song
;   postProcessing,
;   defaultSpeed,1380
;   outlineUnderspeed,0.8
;   solidInfillUnderspeed,1
;   supportUnderspeed,0.8
;   rapidXYspeed,1400
;   rapidZspeed,1400
;   minBridgingArea,50
;   bridgingExtraInflation,0
;   bridgingExtrusionMultiplier,1
;   bridgingSpeedMultiplier,1
;   useFixedBridgingAngle,0
;   fixedBridgingAngle,0
;   applyBridgingToPerimeters,0
;   filamentDiameters,7.285|7.285|7.28|7.28|7.28|7.28
;   filamentPricesPerKg,46|46|46|46|46|46
;   filamentDensities,1.25|1.25|1.25|1.25|1.25|1.25
;   useMinPrintHeight,0
;   minPrintHeight,0
;   useMaxPrintHeight,0
;   maxPrintHeight,0
;   useDiaphragm,0
;   diaphragmLayerInterval,20
;   robustSlicing,1
;   mergeAllIntoSolid,0
;   onlyRetractWhenCrossingOutline,1
;   retractBetweenLayers,0
;   useRetractionMinTravel,0
;   retractionMinTravel,3
;   retractWhileWiping,0
;   onlyWipeOutlines,0
;   avoidCrossingOutline,0
;   maxMovementDetourFactor,3
;   toolChangeRetractionDistance,0.1
;   toolChangeExtraRestartDistance,0
;   toolChangeRetractionSpeed,60
;   externalThinWallType,0
;   internalThinWallType,0
;   thinWallAllowedOverlapPercentage,10
;   singleExtrusionMinLength,0
;   singleExtrusionMinPrintingWidthPercentage,50
;   singleExtrusionMaxPrintingWidthPercentage,200
;   singleExtrusionEndpointExtension,0.2
;   horizontalSizeCompensation,0
G90
M83
M106 S0
M140 S60
M190 S60
M104 S0 T0
M104 S190 T1
M109 S190 T1
; process Process2
; layer 1, Z = 0.084
M302 P1
G91 
G1 Z30 F900
T1
G90 
G0 X0 Y0 
G91
G1 Z-10
G90 
T1
G1 X0.000 Y0.000 Z0.000 E-0.0700 F60
; feature infill
; tool H0.084 W0.210
G1 X0.000 Y0.000 Z0.150 F1400
G1 X2.124 Y2.783 Z0.150 F1400
G1 X2.124 Y2.783 Z0.084 F1400
G1 X2.124 Y2.783 Z0.084 E0.0700 F60
G1 X2.216 Y2.876 Z0.084 E0.0001 F1380
G1 X2.216 Y3.206 Z0.084 E0.0001 F1380
G1 X1.794 Y2.783 Z0.084 E0.0002 F1380
G1 X1.464 Y2.783 Z0.084 E0.0001 F1380
G1 X2.216 Y3.536 Z0.084 E0.0004 F1380
G1 X2.216 Y3.866 Z0.084 E0.0001 F1380
G1 X1.134 Y2.783 Z0.084 E0.0006 F1380
G1 X0.804 Y2.783 Z0.084 E0.0001 F1380
G1 X2.216 Y4.196 Z0.084 E0.0008 F1380
G1 X2.216 Y4.216 Z0.084 E0.0000 F1380
G1 X1.907 Y4.216 Z0.084 E0.0001 F1380
G1 X0.784 Y3.093 Z0.084 E0.0006 F1380
G1 X0.784 Y3.423 Z0.084 E0.0001 F1380
G1 X1.577 Y4.216 Z0.084 E0.0004 F1380
G1 X1.247 Y4.216 Z0.084 E0.0001 F1380
G1 X0.784 Y3.753 Z0.084 E0.0002 F1380
G1 X0.784 Y4.083 Z0.084 E0.0001 F1380
G1 X0.917 Y4.216 Z0.084 E0.0001 F1380
G1 X0.917 Y4.216 Z0.084 E-0.0700 F60
G1 X0.917 Y4.216 Z0.234 F1400
G1 X2.876 Y2.216 Z0.234 F1400
G1 X2.876 Y2.216 Z0.084 F1400
G1 X2.876 Y2.216 Z0.084 E0.0700 F60
G1 X2.784 Y2.124 Z0.084 E0.0001 F1380
G1 X2.784 Y1.794 Z0.084 E0.0001 F1380
G1 X3.206 Y2.216 Z0.084 E0.0002 F1380
G1 X3.536 Y2.216 Z0.084 E0.0001 F1380
G1 X2.784 Y1.464 Z0.084 E0.0004 F1380
G1 X2.784 Y1.134 Z0.084 E0.0001 F1380
G1 X3.866 Y2.216 Z0.084 E0.0006 F1380
G1 X4.196 Y2.216 Z0.084 E0.0001 F1380
G1 X2.784 Y0.804 Z0.084 E0.0008 F1380
G1 X2.784 Y0.783 Z0.084 E0.0000 F1380
G1 X3.093 Y0.783 Z0.084 E0.0001 F1380
G1 X4.216 Y1.907 Z0.084 E0.0006 F1380
G1 X4.216 Y1.577 Z0.084 E0.0001 F1380
G1 X3.423 Y0.783 Z0.084 E0.0004 F1380
G1 X3.753 Y0.783 Z0.084 E0.0001 F1380
G1 X4.216 Y1.247 Z0.084 E0.0002 F1380
G1 X4.216 Y0.917 Z0.084 E0.0001 F1380
G1 X4.083 Y0.783 Z0.084 E0.0001 F1380
G1 X4.083 Y0.783 Z0.084 E-0.0700 F60
G1 X4.083 Y0.783 Z0.234 F1400
G1 X6.083 Y2.783 Z0.234 F1400
G1 X6.083 Y2.783 Z0.084 F1400
G1 X6.083 Y2.783 Z0.084 E0.0700 F60
G1 X6.216 Y2.917 Z0.084 E0.0001 F1380
G1 X6.216 Y3.247 Z0.084 E0.0001 F1380
G1 X5.753 Y2.783 Z0.084 E0.0002 F1380
G1 X5.423 Y2.783 Z0.084 E0.0001 F1380
G1 X6.216 Y3.577 Z0.084 E0.0004 F1380
G1 X6.216 Y3.907 Z0.084 E0.0001 F1380
G1 X5.093 Y2.783 Z0.084 E0.0006 F1380
G1 X4.784 Y2.783 Z0.084 E0.0001 F1380
G1 X4.784 Y2.804 Z0.084 E0.0000 F1380
G1 X6.196 Y4.216 Z0.084 E0.0008 F1380
G1 X5.866 Y4.216 Z0.084 E0.0001 F1380
G1 X4.784 Y3.134 Z0.084 E0.0006 F1380
G1 X4.784 Y3.464 Z0.084 E0.0001 F1380
G1 X5.536 Y4.216 Z0.084 E0.0004 F1380
G1 X5.206 Y4.216 Z0.084 E0.0001 F1380
G1 X4.784 Y3.794 Z0.084 E0.0002 F1380
G1 X4.784 Y4.124 Z0.084 E0.0001 F1380
G1 X4.876 Y4.216 Z0.084 E0.0001 F1380
G1 X4.876 Y4.216 Z0.084 E-0.0700 F60
G1 X4.876 Y4.216 Z0.234 F1400
G1 X4.124 Y4.784 Z0.234 F1400
G1 X4.124 Y4.784 Z0.084 F1400
G1 X4.124 Y4.784 Z0.084 E0.0700 F60
G1 X4.216 Y4.876 Z0.084 E0.0001 F1380
G1 X4.216 Y5.206 Z0.084 E0.0001 F1380
G1 X3.794 Y4.784 Z0.084 E0.0002 F1380
G1 X3.464 Y4.784 Z0.084 E0.0001 F1380
G1 X4.216 Y5.536 Z0.084 E0.0004 F1380
G1 X4.216 Y5.866 Z0.084 E0.0001 F1380
G1 X3.134 Y4.784 Z0.084 E0.0006 F1380
G1 X2.804 Y4.784 Z0.084 E0.0001 F1380
G1 X4.216 Y6.196 Z0.084 E0.0008 F1380
G1 X4.216 Y6.216 Z0.084 E0.0000 F1380
G1 X3.907 Y6.216 Z0.084 E0.0001 F1380
G1 X2.784 Y5.093 Z0.084 E0.0006 F1380
G1 X2.784 Y5.423 Z0.084 E0.0001 F1380
G1 X3.577 Y6.216 Z0.084 E0.0004 F1380
G1 X3.247 Y6.216 Z0.084 E0.0001 F1380
G1 X2.784 Y5.753 Z0.084 E0.0002 F1380
G1 X2.784 Y6.083 Z0.084 E0.0001 F1380
G1 X2.917 Y6.216 Z0.084 E0.0001 F1380
G1 X2.917 Y6.216 Z0.084 E-0.1000 F60
; process Process1
M302 P1
G91 
G1 Z30 F900
T0
G90 
G0 X0 Y0 
G91
G1 Z-10
G90 
T0
G1 X2.917 Y6.216 Z0.234 F1400
G1 X2.144 Y4.784 Z0.234 F1400
G1 X2.144 Y4.784 Z0.084 F1400
G1 X2.216 Y4.856 Z0.084 E0.0000 F1380
G1 X2.216 Y5.186 Z0.084 E0.0001 F1380
G1 X1.814 Y4.784 Z0.084 E0.0002 F1380
G1 X1.484 Y4.784 Z0.084 E0.0001 F1380
G1 X2.216 Y5.516 Z0.084 E0.0004 F1380
G1 X2.216 Y5.846 Z0.084 E0.0001 F1380
G1 X1.154 Y4.784 Z0.084 E0.0006 F1380
G1 X0.824 Y4.784 Z0.084 E0.0001 F1380
G1 X2.216 Y6.176 Z0.084 E0.0008 F1380
G1 X2.216 Y6.216 Z0.084 E0.0000 F1380
G1 X1.927 Y6.216 Z0.084 E0.0001 F1380
G1 X0.784 Y5.073 Z0.084 E0.0006 F1380
G1 X0.784 Y5.403 Z0.084 E0.0001 F1380
G1 X1.597 Y6.216 Z0.084 E0.0004 F1380
G1 X1.267 Y6.216 Z0.084 E0.0001 F1380
G1 X0.784 Y5.733 Z0.084 E0.0003 F1380
G1 X0.784 Y6.063 Z0.084 E0.0001 F1380
G1 X0.937 Y6.216 Z0.084 E0.0001 F1380
G1 X0.937 Y6.216 Z0.084 E-0.0700 F60
G1 X0.937 Y6.216 Z0.234 F1400
G1 X2.897 Y4.216 Z0.234 F1400
G1 X2.897 Y4.216 Z0.084 F1400
G1 X2.897 Y4.216 Z0.084 E0.0700 F60
G1 X2.784 Y4.103 Z0.084 E0.0001 F1380
G1 X2.784 Y3.773 Z0.084 E0.0001 F1380
G1 X3.227 Y4.216 Z0.084 E0.0002 F1380
G1 X3.557 Y4.216 Z0.084 E0.0001 F1380
G1 X2.784 Y3.443 Z0.084 E0.0004 F1380
G1 X2.784 Y3.113 Z0.084 E0.0001 F1380
G1 X3.887 Y4.216 Z0.084 E0.0006 F1380
G1 X4.216 Y4.216 Z0.084 E0.0001 F1380
G1 X2.784 Y2.783 Z0.084 E0.0008 F1380
G1 X3.113 Y2.783 Z0.084 E0.0001 F1380
G1 X4.216 Y3.887 Z0.084 E0.0006 F1380
G1 X4.216 Y3.557 Z0.084 E0.0001 F1380
G1 X3.443 Y2.783 Z0.084 E0.0004 F1380
G1 X3.773 Y2.783 Z0.084 E0.0001 F1380
G1 X4.216 Y3.227 Z0.084 E0.0002 F1380
G1 X4.216 Y2.897 Z0.084 E0.0001 F1380
G1 X4.103 Y2.783 Z0.084 E0.0001 F1380
G1 X4.103 Y2.783 Z0.084 E-0.0700 F60
G1 X4.103 Y2.783 Z0.234 F1400
G1 X4.856 Y2.216 Z0.234 F1400
G1 X4.856 Y2.216 Z0.084 F1400
G1 X4.856 Y2.216 Z0.084 E0.0700 F60
G1 X4.784 Y2.144 Z0.084 E0.0000 F1380
G1 X4.784 Y1.814 Z0.084 E0.0001 F1380
G1 X5.186 Y2.216 Z0.084 E0.0002 F1380
G1 X5.516 Y2.216 Z0.084 E0.0001 F1380
G1 X4.784 Y1.484 Z0.084 E0.0004 F1380
G1 X4.784 Y1.154 Z0.084 E0.0001 F1380
G1 X5.846 Y2.216 Z0.084 E0.0006 F1380
G1 X6.176 Y2.216 Z0.084 E0.0001 F1380
G1 X4.784 Y0.824 Z0.084 E0.0008 F1380
G1 X4.784 Y0.783 Z0.084 E0.0000 F1380
G1 X5.073 Y0.783 Z0.084 E0.0001 F1380
G1 X6.216 Y1.927 Z0.084 E0.0006 F1380
G1 X6.216 Y1.597 Z0.084 E0.0001 F1380
G1 X5.403 Y0.783 Z0.084 E0.0004 F1380
G1 X5.733 Y0.783 Z0.084 E0.0001 F1380
G1 X6.216 Y1.267 Z0.084 E0.0003 F1380
G1 X6.216 Y0.937 Z0.084 E0.0001 F1380
G1 X6.063 Y0.783 Z0.084 E0.0001 F1380
G1 X6.063 Y0.783 Z0.084 E-0.0700 F60
G1 X6.063 Y0.783 Z0.234 F1400
G1 X2.103 Y0.783 Z0.234 F1400
G1 X2.103 Y0.783 Z0.084 F1400
G1 X2.103 Y0.783 Z0.084 E0.0700 F60
G1 X2.216 Y0.897 Z0.084 E0.0001 F1380
G1 X2.216 Y1.227 Z0.084 E0.0001 F1380
G1 X1.773 Y0.783 Z0.084 E0.0002 F1380
G1 X1.443 Y0.783 Z0.084 E0.0001 F1380
G1 X2.216 Y1.557 Z0.084 E0.0004 F1380
G1 X2.216 Y1.887 Z0.084 E0.0001 F1380
G1 X1.113 Y0.783 Z0.084 E0.0006 F1380
G1 X0.784 Y0.783 Z0.084 E0.0001 F1380
G1 X2.216 Y2.216 Z0.084 E0.0008 F1380
G1 X1.887 Y2.216 Z0.084 E0.0001 F1380
G1 X0.783 Y1.113 Z0.084 E0.0006 F1380
G1 X0.783 Y1.443 Z0.084 E0.0001 F1380
G1 X1.557 Y2.216 Z0.084 E0.0004 F1380
G1 X1.227 Y2.216 Z0.084 E0.0001 F1380
G1 X0.783 Y1.773 Z0.084 E0.0002 F1380
G1 X0.783 Y2.103 Z0.084 E0.0001 F1380
G1 X0.897 Y2.216 Z0.084 E0.0001 F1380
G1 X0.897 Y2.216 Z0.084 E-0.0700 F60
G1 X0.897 Y2.216 Z0.234 F1400
G1 X4.897 Y6.216 Z0.234 F1400
G1 X4.897 Y6.216 Z0.084 F1400
G1 X4.897 Y6.216 Z0.084 E0.0700 F60
G1 X4.784 Y6.103 Z0.084 E0.0001 F1380
G1 X4.784 Y5.773 Z0.084 E0.0001 F1380
G1 X5.227 Y6.216 Z0.084 E0.0002 F1380
G1 X5.557 Y6.216 Z0.084 E0.0001 F1380
G1 X4.784 Y5.443 Z0.084 E0.0004 F1380
G1 X4.784 Y5.113 Z0.084 E0.0001 F1380
G1 X5.887 Y6.216 Z0.084 E0.0006 F1380
G1 X6.216 Y6.216 Z0.084 E0.0001 F1380
G1 X4.784 Y4.784 Z0.084 E0.0008 F1380
G1 X5.113 Y4.784 Z0.084 E0.0001 F1380
G1 X6.216 Y5.887 Z0.084 E0.0006 F1380
G1 X6.216 Y5.557 Z0.084 E0.0001 F1380
G1 X5.443 Y4.784 Z0.084 E0.0004 F1380
G1 X5.773 Y4.784 Z0.084 E0.0001 F1380
G1 X6.216 Y5.227 Z0.084 E0.0002 F1380
G1 X6.216 Y4.897 Z0.084 E0.0001 F1380
G1 X6.103 Y4.784 Z0.084 E0.0001 F1380
; layer 2, Z = 0.168
M106 S255
G1 X6.103 Y4.784 Z0.168 F1400
G1 X6.216 Y6.063 Z0.168 F1400
G1 X6.063 Y6.216 Z0.168 E0.0001 F1380
G1 X5.733 Y6.216 Z0.168 E0.0001 F1380
G1 X6.216 Y5.733 Z0.168 E0.0003 F1380
G1 X6.216 Y5.403 Z0.168 E0.0001 F1380
G1 X5.403 Y6.216 Z0.168 E0.0004 F1380
G1 X5.073 Y6.216 Z0.168 E0.0001 F1380
G1 X6.216 Y5.073 Z0.168 E0.0006 F1380
G1 X6.216 Y4.784 Z0.168 E0.0001 F1380
G1 X6.176 Y4.784 Z0.168 E0.0000 F1380
G1 X4.784 Y6.176 Z0.168 E0.0008 F1380
G1 X4.784 Y5.846 Z0.168 E0.0001 F1380
G1 X5.846 Y4.784 Z0.168 E0.0006 F1380
G1 X5.516 Y4.784 Z0.168 E0.0001 F1380
G1 X4.784 Y5.516 Z0.168 E0.0004 F1380
G1 X4.784 Y5.186 Z0.168 E0.0001 F1380
G1 X5.186 Y4.784 Z0.168 E0.0002 F1380
G1 X4.856 Y4.784 Z0.168 E0.0001 F1380
G1 X4.784 Y4.856 Z0.168 E0.0000 F1380
G1 X4.784 Y4.856 Z0.168 E-0.0700 F60
G1 X4.784 Y4.856 Z0.318 F1400
G1 X4.216 Y4.103 Z0.318 F1400
G1 X4.216 Y4.103 Z0.168 F1400
G1 X4.216 Y4.103 Z0.168 E0.0700 F60
G1 X4.103 Y4.216 Z0.168 E0.0001 F1380
G1 X3.773 Y4.216 Z0.168 E0.0001 F1380
G1 X4.216 Y3.773 Z0.168 E0.0002 F1380
G1 X4.216 Y3.443 Z0.168 E0.0001 F1380
G1 X3.443 Y4.216 Z0.168 E0.0004 F1380
G1 X3.114 Y4.216 Z0.168 E0.0001 F1380
G1 X4.216 Y3.114 Z0.168 E0.0006 F1380
G1 X4.216 Y2.784 Z0.168 E0.0001 F1380
G1 X2.784 Y4.216 Z0.168 E0.0008 F1380
G1 X2.784 Y3.887 Z0.168 E0.0001 F1380
G1 X3.887 Y2.783 Z0.168 E0.0006 F1380
G1 X3.557 Y2.783 Z0.168 E0.0001 F1380
G1 X2.784 Y3.557 Z0.168 E0.0004 F1380
G1 X2.784 Y3.227 Z0.168 E0.0001 F1380
G1 X3.227 Y2.783 Z0.168 E0.0002 F1380
G1 X2.897 Y2.783 Z0.168 E0.0001 F1380
G1 X2.784 Y2.897 Z0.168 E0.0001 F1380
G1 X2.784 Y2.897 Z0.168 E-0.0700 F60
G1 X2.784 Y2.897 Z0.318 F1400
G1 X2.216 Y2.144 Z0.318 F1400
G1 X2.216 Y2.144 Z0.168 F1400
G1 X2.216 Y2.144 Z0.168 E0.0700 F60
G1 X2.144 Y2.216 Z0.168 E0.0000 F1380
G1 X1.814 Y2.216 Z0.168 E0.0001 F1380
G1 X2.216 Y1.814 Z0.168 E0.0002 F1380
G1 X2.216 Y1.484 Z0.168 E0.0001 F1380
G1 X1.484 Y2.216 Z0.168 E0.0004 F1380
G1 X1.154 Y2.216 Z0.168 E0.0001 F1380
G1 X2.216 Y1.154 Z0.168 E0.0006 F1380
G1 X2.216 Y0.824 Z0.168 E0.0001 F1380
G1 X0.824 Y2.216 Z0.168 E0.0008 F1380
G1 X0.783 Y2.216 Z0.168 E0.0000 F1380
G1 X0.783 Y1.927 Z0.168 E0.0001 F1380
G1 X1.927 Y0.783 Z0.168 E0.0006 F1380
G1 X1.597 Y0.783 Z0.168 E0.0001 F1380
G1 X0.783 Y1.597 Z0.168 E0.0004 F1380
G1 X0.783 Y1.267 Z0.168 E0.0001 F1380
G1 X1.267 Y0.783 Z0.168 E0.0003 F1380
G1 X0.937 Y0.783 Z0.168 E0.0001 F1380
G1 X0.783 Y0.937 Z0.168 E0.0001 F1380
G1 X0.783 Y0.937 Z0.168 E-0.0700 F60
G1 X0.783 Y0.937 Z0.318 F1400
G1 X4.784 Y0.897 Z0.318 F1400
G1 X4.784 Y0.897 Z0.168 F1400
G1 X4.784 Y0.897 Z0.168 E0.0700 F60
