; G-Code generated by Simplify3D(R) Version 4.1.2
; Jan 25, 2020 at 6:24:08 PM
; Settings Summary
;   processName,Process2
;   applyToModels,1mmCube(2),1mmCube(4),1mmCube(6),1mmCube(8)
;   profileName,MakerGear M2 90%infill_.9extx_23mms_27G (modified)
;   profileVersion,2020-01-25 18:22:54
;   baseProfile,Default
;   printMaterial,Collagen
;   printQuality,Medium
;   printExtruders,All Extruders
;   extruderName,Extruder 1
;   extruderToolheadNumber,1
;   extruderDiameter,0.21
;   extruderAutoWidth,0
;   extruderWidth,0.21
;   extrusionMultiplier,0.9
;   extruderUseRetract,1
;   extruderRetractionDistance,0.07
;   extruderExtraRestartDistance,0
;   extruderRetractionZLift,0.15
;   extruderRetractionSpeed,60
;   extruderUseCoasting,0
;   extruderCoastingDistance,0.2
;   extruderUseWipe,0
;   extruderWipeDistance,5
;   primaryExtruder,0
;   layerHeight,0.084
;   topSolidLayers,0
;   bottomSolidLayers,0
;   perimeterOutlines,0
;   printPerimetersInsideOut,1
;   startPointOption,2
;   startPointOriginX,0
;   startPointOriginY,0
;   sequentialIslands,0
;   spiralVaseMode,0
;   firstLayerHeightPercentage,100
;   firstLayerWidthPercentage,100
;   firstLayerUnderspeed,1
;   useRaft,0
;   raftExtruder,0
;   raftTopLayers,3
;   raftBaseLayers,2
;   raftOffset,3
;   raftSeparationDistance,0.14
;   raftTopInfill,100
;   aboveRaftSpeedMultiplier,0.3
;   useSkirt,0
;   skirtExtruder,0
;   skirtLayers,1
;   skirtOutlines,2
;   skirtOffset,4
;   usePrimePillar,0
;   primePillarExtruder,999
;   primePillarWidth,12
;   primePillarLocation,7
;   primePillarSpeedMultiplier,1
;   useOozeShield,0
;   oozeShieldExtruder,999
;   oozeShieldOffset,2
;   oozeShieldOutlines,1
;   oozeShieldSidewallShape,1
;   oozeShieldSidewallAngle,30
;   oozeShieldSpeedMultiplier,1
;   infillExtruder,0
;   internalInfillPattern,Rectilinear
;   externalInfillPattern,Rectilinear
;   infillPercentage,90
;   outlineOverlapPercentage,15
;   infillExtrusionWidthPercentage,100
;   minInfillLength,0
;   infillLayerInterval,1
;   internalInfillAngles,45,-45
;   overlapInternalInfillAngles,0
;   externalInfillAngles,45,-45
;   generateSupport,0
;   supportExtruder,0
;   supportInfillPercentage,30
;   supportExtraInflation,0
;   supportBaseLayers,0
;   denseSupportExtruder,0
;   denseSupportLayers,0
;   denseSupportInfillPercentage,70
;   supportLayerInterval,1
;   supportHorizontalPartOffset,0.3
;   supportUpperSeparationLayers,1
;   supportLowerSeparationLayers,1
;   supportType,0
;   supportGridSpacing,4
;   maxOverhangAngle,45
;   supportAngles,0
;   temperatureName,Right Extruder,Left Extruder,Heated Bed
;   temperatureNumber,1,0,2
;   temperatureSetpointCount,1,1,1
;   temperatureSetpointLayers,1,1,1
;   temperatureSetpointTemperatures,190,0,60
;   temperatureStabilizeAtStartup,1,0,1
;   temperatureHeatedBed,0,0,1
;   fanLayers,1,2
;   fanSpeeds,0,100
;   blipFanToFullPower,0
;   adjustSpeedForCooling,0
;   minSpeedLayerTime,15
;   minCoolingSpeedSlowdown,20
;   increaseFanForCooling,0
;   minFanLayerTime,45
;   maxCoolingFanSpeed,100
;   increaseFanForBridging,0
;   bridgingFanSpeed,100
;   use5D,1
;   relativeEdistances,1
;   allowEaxisZeroing,1
;   independentExtruderAxes,0
;   includeM10123,0
;   stickySupport,0
;   applyToolheadOffsets,0
;   gcodeXoffset,0
;   gcodeYoffset,0
;   gcodeZoffset,0
;   overrideMachineDefinition,0
;   machineTypeOverride,0
;   strokeXoverride,100
;   strokeYoverride,100
;   strokeZoverride,100
;   originOffsetXoverride,0
;   originOffsetYoverride,0
;   originOffsetZoverride,0
;   homeXdirOverride,-1
;   homeYdirOverride,-1
;   homeZdirOverride,-1
;   flipXoverride,1
;   flipYoverride,-1
;   flipZoverride,1
;   toolheadOffsets,0,0|0,0|0,0|0,0|0,0|0,0
;   overrideFirmwareConfiguration,0
;   firmwareTypeOverride,RepRap (Marlin/Repetier/Sprinter)
;   GPXconfigOverride,r2
;   baudRateOverride,115200
;   overridePrinterModels,0
;   printerModelsOverride
;   startingGcode,
;   layerChangeGcode,
;   retractionGcode,
;   toolChangeGcode,M302 P1,G91 ,G1 Z15 F900,T0,G90 ,G0 X0 Y0 ,G91,G1 Z-10,G90 
;   endingGcode,
;   exportFileFormat,gcode
;   celebration,0
;   celebrationSong,Random Song
;   postProcessing,
;   defaultSpeed,1380
;   outlineUnderspeed,0.8
;   solidInfillUnderspeed,1
;   supportUnderspeed,0.8
;   rapidXYspeed,1400
;   rapidZspeed,1400
;   minBridgingArea,50
;   bridgingExtraInflation,0
;   bridgingExtrusionMultiplier,1
;   bridgingSpeedMultiplier,1
;   useFixedBridgingAngle,0
;   fixedBridgingAngle,0
;   applyBridgingToPerimeters,0
;   filamentDiameters,7.285|7.285|7.28|7.28|7.28|7.28
;   filamentPricesPerKg,46|46|46|46|46|46
;   filamentDensities,1.25|1.25|1.25|1.25|1.25|1.25
;   useMinPrintHeight,0
;   minPrintHeight,0
;   useMaxPrintHeight,0
;   maxPrintHeight,0
;   useDiaphragm,0
;   diaphragmLayerInterval,20
;   robustSlicing,1
;   mergeAllIntoSolid,0
;   onlyRetractWhenCrossingOutline,1
;   retractBetweenLayers,0
;   useRetractionMinTravel,0
;   retractionMinTravel,3
;   retractWhileWiping,0
;   onlyWipeOutlines,0
;   avoidCrossingOutline,0
;   maxMovementDetourFactor,3
;   toolChangeRetractionDistance,0.1
;   toolChangeExtraRestartDistance,0
;   toolChangeRetractionSpeed,60
;   externalThinWallType,0
;   internalThinWallType,0
;   thinWallAllowedOverlapPercentage,10
;   singleExtrusionMinLength,0
;   singleExtrusionMinPrintingWidthPercentage,50
;   singleExtrusionMaxPrintingWidthPercentage,200
;   singleExtrusionEndpointExtension,0.2
;   horizontalSizeCompensation,0
G90
M83
M106 S0
M140 S60
M190 S60
M104 S0 T0
M104 S190 T1
M109 S190 T1
; process Process2
; layer 1, Z = 0.084
M302 P1
G91 
G1 Z15 F900
T0
G90 
G0 X0 Y0 
G91
G1 Z-10
G90 
T1
G1 X0.000 Y0.000 Z0.000 E-0.0700 F60
; feature infill
; tool H0.084 W0.210
G1 X0.000 Y0.000 Z0.150 F1400
G1 X1.624 Y2.284 Z0.150 F1400
G1 X1.624 Y2.284 Z0.084 F1400
G1 X1.624 Y2.284 Z0.084 E0.0700 F60
G1 X1.716 Y2.376 Z0.084 E0.0001 F1380
G1 X1.716 Y2.706 Z0.084 E0.0001 F1380
G1 X1.294 Y2.284 Z0.084 E0.0002 F1380
G1 X0.964 Y2.284 Z0.084 E0.0001 F1380
G1 X1.716 Y3.036 Z0.084 E0.0004 F1380
G1 X1.716 Y3.366 Z0.084 E0.0001 F1380
G1 X0.634 Y2.284 Z0.084 E0.0006 F1380
G1 X0.304 Y2.284 Z0.084 E0.0001 F1380
G1 X1.716 Y3.696 Z0.084 E0.0008 F1380
G1 X1.716 Y4.026 Z0.084 E0.0001 F1380
G1 X-0.026 Y2.284 Z0.084 E0.0009 F1380
G1 X-0.356 Y2.284 Z0.084 E0.0001 F1380
G1 X1.716 Y4.356 Z0.084 E0.0011 F1380
G1 X1.716 Y4.686 Z0.084 E0.0001 F1380
G1 X-0.686 Y2.284 Z0.084 E0.0013 F1380
G1 X-0.717 Y2.284 Z0.084 E0.0000 F1380
G1 X-0.717 Y2.583 Z0.084 E0.0001 F1380
G1 X1.417 Y4.716 Z0.084 E0.0011 F1380
G1 X1.087 Y4.716 Z0.084 E0.0001 F1380
G1 X-0.717 Y2.913 Z0.084 E0.0010 F1380
G1 X-0.717 Y3.243 Z0.084 E0.0001 F1380
G1 X0.757 Y4.716 Z0.084 E0.0008 F1380
G1 X0.427 Y4.716 Z0.084 E0.0001 F1380
G1 X-0.717 Y3.573 Z0.084 E0.0006 F1380
G1 X-0.717 Y3.903 Z0.084 E0.0001 F1380
G1 X0.097 Y4.716 Z0.084 E0.0004 F1380
G1 X-0.233 Y4.716 Z0.084 E0.0001 F1380
G1 X-0.717 Y4.233 Z0.084 E0.0003 F1380
G1 X-0.717 Y4.563 Z0.084 E0.0001 F1380
G1 X-0.563 Y4.716 Z0.084 E0.0001 F1380
G1 X-0.563 Y4.716 Z0.084 E-0.0700 F60
G1 X-0.563 Y4.716 Z0.234 F1400
G1 X2.437 Y7.716 Z0.234 F1400
G1 X2.437 Y7.716 Z0.084 F1400
G1 X2.437 Y7.716 Z0.084 E0.0700 F60
G1 X2.284 Y7.563 Z0.084 E0.0001 F1380
G1 X2.284 Y7.233 Z0.084 E0.0001 F1380
G1 X2.767 Y7.716 Z0.084 E0.0003 F1380
G1 X3.097 Y7.716 Z0.084 E0.0001 F1380
G1 X2.284 Y6.903 Z0.084 E0.0004 F1380
G1 X2.284 Y6.573 Z0.084 E0.0001 F1380
G1 X3.427 Y7.716 Z0.084 E0.0006 F1380
G1 X3.757 Y7.716 Z0.084 E0.0001 F1380
G1 X2.284 Y6.243 Z0.084 E0.0008 F1380
G1 X2.284 Y5.913 Z0.084 E0.0001 F1380
G1 X4.087 Y7.716 Z0.084 E0.0010 F1380
G1 X4.417 Y7.716 Z0.084 E0.0001 F1380
G1 X2.284 Y5.583 Z0.084 E0.0011 F1380
G1 X2.284 Y5.284 Z0.084 E0.0001 F1380
G1 X2.314 Y5.284 Z0.084 E0.0000 F1380
G1 X4.716 Y7.686 Z0.084 E0.0013 F1380
G1 X4.716 Y7.356 Z0.084 E0.0001 F1380
G1 X2.644 Y5.284 Z0.084 E0.0011 F1380
G1 X2.974 Y5.284 Z0.084 E0.0001 F1380
G1 X4.716 Y7.026 Z0.084 E0.0009 F1380
G1 X4.716 Y6.696 Z0.084 E0.0001 F1380
G1 X3.304 Y5.284 Z0.084 E0.0008 F1380
G1 X3.634 Y5.284 Z0.084 E0.0001 F1380
G1 X4.716 Y6.366 Z0.084 E0.0006 F1380
G1 X4.716 Y6.036 Z0.084 E0.0001 F1380
G1 X3.964 Y5.284 Z0.084 E0.0004 F1380
G1 X4.294 Y5.284 Z0.084 E0.0001 F1380
G1 X4.716 Y5.706 Z0.084 E0.0002 F1380
G1 X4.716 Y5.376 Z0.084 E0.0001 F1380
G1 X4.624 Y5.284 Z0.084 E0.0001 F1380
G1 X4.624 Y5.284 Z0.084 E-0.0700 F60
G1 X4.624 Y5.284 Z0.234 F1400
G1 X5.376 Y4.716 Z0.234 F1400
G1 X5.376 Y4.716 Z0.084 F1400
G1 X5.376 Y4.716 Z0.084 E0.0700 F60
G1 X5.284 Y4.624 Z0.084 E0.0001 F1380
G1 X5.284 Y4.294 Z0.084 E0.0001 F1380
G1 X5.706 Y4.716 Z0.084 E0.0002 F1380
G1 X6.036 Y4.716 Z0.084 E0.0001 F1380
G1 X5.284 Y3.964 Z0.084 E0.0004 F1380
G1 X5.284 Y3.634 Z0.084 E0.0001 F1380
G1 X6.366 Y4.716 Z0.084 E0.0006 F1380
G1 X6.696 Y4.716 Z0.084 E0.0001 F1380
G1 X5.284 Y3.304 Z0.084 E0.0008 F1380
G1 X5.284 Y2.974 Z0.084 E0.0001 F1380
G1 X7.026 Y4.716 Z0.084 E0.0009 F1380
G1 X7.356 Y4.716 Z0.084 E0.0001 F1380
G1 X5.284 Y2.644 Z0.084 E0.0011 F1380
G1 X5.284 Y2.314 Z0.084 E0.0001 F1380
G1 X7.686 Y4.716 Z0.084 E0.0013 F1380
G1 X7.716 Y4.716 Z0.084 E0.0000 F1380
G1 X7.716 Y4.417 Z0.084 E0.0001 F1380
G1 X5.583 Y2.284 Z0.084 E0.0011 F1380
G1 X5.913 Y2.284 Z0.084 E0.0001 F1380
G1 X7.716 Y4.087 Z0.084 E0.0010 F1380
G1 X7.716 Y3.757 Z0.084 E0.0001 F1380
G1 X6.243 Y2.284 Z0.084 E0.0008 F1380
G1 X6.573 Y2.284 Z0.084 E0.0001 F1380
G1 X7.716 Y3.427 Z0.084 E0.0006 F1380
G1 X7.716 Y3.097 Z0.084 E0.0001 F1380
G1 X6.903 Y2.284 Z0.084 E0.0004 F1380
G1 X7.233 Y2.284 Z0.084 E0.0001 F1380
G1 X7.716 Y2.767 Z0.084 E0.0003 F1380
G1 X7.716 Y2.437 Z0.084 E0.0001 F1380
G1 X7.563 Y2.284 Z0.084 E0.0001 F1380
G1 X7.563 Y2.284 Z0.084 E-0.0700 F60
G1 X7.563 Y2.284 Z0.234 F1400
G1 X4.563 Y-0.717 Z0.234 F1400
G1 X4.563 Y-0.717 Z0.084 F1400
G1 X4.563 Y-0.717 Z0.084 E0.0700 F60
G1 X4.716 Y-0.563 Z0.084 E0.0001 F1380
G1 X4.716 Y-0.233 Z0.084 E0.0001 F1380
G1 X4.233 Y-0.717 Z0.084 E0.0003 F1380
G1 X3.903 Y-0.717 Z0.084 E0.0001 F1380
G1 X4.716 Y0.097 Z0.084 E0.0004 F1380
G1 X4.716 Y0.427 Z0.084 E0.0001 F1380
G1 X3.573 Y-0.717 Z0.084 E0.0006 F1380
G1 X3.243 Y-0.717 Z0.084 E0.0001 F1380
G1 X4.716 Y0.757 Z0.084 E0.0008 F1380
G1 X4.716 Y1.087 Z0.084 E0.0001 F1380
G1 X2.913 Y-0.717 Z0.084 E0.0010 F1380
G1 X2.583 Y-0.717 Z0.084 E0.0001 F1380
G1 X4.716 Y1.417 Z0.084 E0.0011 F1380
G1 X4.716 Y1.716 Z0.084 E0.0001 F1380
G1 X4.686 Y1.716 Z0.084 E0.0000 F1380
G1 X2.284 Y-0.686 Z0.084 E0.0013 F1380
G1 X2.284 Y-0.356 Z0.084 E0.0001 F1380
G1 X4.356 Y1.716 Z0.084 E0.0011 F1380
G1 X4.026 Y1.716 Z0.084 E0.0001 F1380
G1 X2.284 Y-0.026 Z0.084 E0.0009 F1380
G1 X2.284 Y0.304 Z0.084 E0.0001 F1380
G1 X3.696 Y1.716 Z0.084 E0.0008 F1380
G1 X3.366 Y1.716 Z0.084 E0.0001 F1380
G1 X2.284 Y0.634 Z0.084 E0.0006 F1380
G1 X2.284 Y0.964 Z0.084 E0.0001 F1380
G1 X3.036 Y1.716 Z0.084 E0.0004 F1380
G1 X2.706 Y1.716 Z0.084 E0.0001 F1380
G1 X2.284 Y1.294 Z0.084 E0.0002 F1380
G1 X2.284 Y1.624 Z0.084 E0.0001 F1380
G1 X2.376 Y1.716 Z0.084 E0.0001 F1380
G1 X2.376 Y1.716 Z0.084 E-0.1000 F60
; process Process1
M302 P1
G91 
G1 Z15 F900
T0
G90 
G0 X0 Y0 
G91
G1 Z-10
G90 
T0
G1 X2.376 Y1.716 Z0.234 F1400
G1 X4.593 Y2.284 Z0.234 F1400
G1 X4.593 Y2.284 Z0.084 F1400
G1 X4.716 Y2.407 Z0.084 E0.0001 F1380
G1 X4.716 Y2.737 Z0.084 E0.0001 F1380
G1 X4.263 Y2.284 Z0.084 E0.0002 F1380
G1 X3.933 Y2.284 Z0.084 E0.0001 F1380
G1 X4.716 Y3.067 Z0.084 E0.0004 F1380
G1 X4.716 Y3.397 Z0.084 E0.0001 F1380
G1 X3.603 Y2.284 Z0.084 E0.0006 F1380
G1 X3.273 Y2.284 Z0.084 E0.0001 F1380
G1 X4.716 Y3.727 Z0.084 E0.0008 F1380
G1 X4.716 Y4.057 Z0.084 E0.0001 F1380
G1 X2.943 Y2.284 Z0.084 E0.0010 F1380
G1 X2.613 Y2.284 Z0.084 E0.0001 F1380
G1 X4.716 Y4.387 Z0.084 E0.0011 F1380
G1 X4.716 Y4.716 Z0.084 E0.0001 F1380
G1 X2.284 Y2.284 Z0.084 E0.0013 F1380
G1 X2.284 Y2.613 Z0.084 E0.0001 F1380
G1 X4.387 Y4.716 Z0.084 E0.0011 F1380
G1 X4.057 Y4.716 Z0.084 E0.0001 F1380
G1 X2.284 Y2.943 Z0.084 E0.0010 F1380
G1 X2.284 Y3.273 Z0.084 E0.0001 F1380
G1 X3.727 Y4.716 Z0.084 E0.0008 F1380
G1 X3.397 Y4.716 Z0.084 E0.0001 F1380
G1 X2.284 Y3.603 Z0.084 E0.0006 F1380
G1 X2.284 Y3.933 Z0.084 E0.0001 F1380
G1 X3.067 Y4.716 Z0.084 E0.0004 F1380
G1 X2.737 Y4.716 Z0.084 E0.0001 F1380
G1 X2.284 Y4.263 Z0.084 E0.0002 F1380
G1 X2.284 Y4.593 Z0.084 E0.0001 F1380
G1 X2.407 Y4.716 Z0.084 E0.0001 F1380
G1 X2.407 Y4.716 Z0.084 E-0.0700 F60
G1 X2.407 Y4.716 Z0.234 F1400
G1 X1.654 Y5.284 Z0.234 F1400
G1 X1.654 Y5.284 Z0.084 F1400
G1 X1.654 Y5.284 Z0.084 E0.0700 F60
G1 X1.716 Y5.346 Z0.084 E0.0000 F1380
G1 X1.716 Y5.676 Z0.084 E0.0001 F1380
G1 X1.324 Y5.284 Z0.084 E0.0002 F1380
G1 X0.994 Y5.284 Z0.084 E0.0001 F1380
G1 X1.716 Y6.006 Z0.084 E0.0004 F1380
G1 X1.716 Y6.336 Z0.084 E0.0001 F1380
G1 X0.664 Y5.284 Z0.084 E0.0006 F1380
G1 X0.334 Y5.284 Z0.084 E0.0001 F1380
G1 X1.716 Y6.666 Z0.084 E0.0007 F1380
G1 X1.716 Y6.996 Z0.084 E0.0001 F1380
G1 X0.004 Y5.284 Z0.084 E0.0009 F1380
G1 X-0.326 Y5.284 Z0.084 E0.0001 F1380
G1 X1.716 Y7.326 Z0.084 E0.0011 F1380
G1 X1.716 Y7.656 Z0.084 E0.0001 F1380
G1 X-0.656 Y5.284 Z0.084 E0.0013 F1380
G1 X-0.717 Y5.284 Z0.084 E0.0000 F1380
G1 X-0.717 Y5.553 Z0.084 E0.0001 F1380
G1 X1.447 Y7.716 Z0.084 E0.0012 F1380
G1 X1.117 Y7.716 Z0.084 E0.0001 F1380
G1 X-0.717 Y5.883 Z0.084 E0.0010 F1380
G1 X-0.717 Y6.213 Z0.084 E0.0001 F1380
G1 X0.787 Y7.716 Z0.084 E0.0008 F1380
G1 X0.457 Y7.716 Z0.084 E0.0001 F1380
G1 X-0.717 Y6.543 Z0.084 E0.0006 F1380
G1 X-0.717 Y6.873 Z0.084 E0.0001 F1380
G1 X0.127 Y7.716 Z0.084 E0.0005 F1380
G1 X-0.203 Y7.716 Z0.084 E0.0001 F1380
G1 X-0.717 Y7.203 Z0.084 E0.0003 F1380
G1 X-0.717 Y7.533 Z0.084 E0.0001 F1380
G1 X-0.533 Y7.716 Z0.084 E0.0001 F1380
G1 X-0.533 Y7.716 Z0.084 E-0.0700 F60
G1 X-0.533 Y7.716 Z0.234 F1400
G1 X5.407 Y7.716 Z0.234 F1400
G1 X5.407 Y7.716 Z0.084 F1400
G1 X5.407 Y7.716 Z0.084 E0.0700 F60
G1 X5.284 Y7.593 Z0.084 E0.0001 F1380
G1 X5.284 Y7.263 Z0.084 E0.0001 F1380
G1 X5.737 Y7.716 Z0.084 E0.0002 F1380
G1 X6.067 Y7.716 Z0.084 E0.0001 F1380
G1 X5.284 Y6.933 Z0.084 E0.0004 F1380
G1 X5.284 Y6.603 Z0.084 E0.0001 F1380
G1 X6.397 Y7.716 Z0.084 E0.0006 F1380
G1 X6.727 Y7.716 Z0.084 E0.0001 F1380
G1 X5.284 Y6.273 Z0.084 E0.0008 F1380
G1 X5.284 Y5.943 Z0.084 E0.0001 F1380
G1 X7.057 Y7.716 Z0.084 E0.0010 F1380
G1 X7.387 Y7.716 Z0.084 E0.0001 F1380
G1 X5.284 Y5.613 Z0.084 E0.0011 F1380
G1 X5.284 Y5.284 Z0.084 E0.0001 F1380
G1 X7.716 Y7.716 Z0.084 E0.0013 F1380
G1 X7.716 Y7.387 Z0.084 E0.0001 F1380
G1 X5.613 Y5.284 Z0.084 E0.0011 F1380
G1 X5.943 Y5.284 Z0.084 E0.0001 F1380
G1 X7.716 Y7.057 Z0.084 E0.0010 F1380
G1 X7.716 Y6.727 Z0.084 E0.0001 F1380
G1 X6.273 Y5.284 Z0.084 E0.0008 F1380
G1 X6.603 Y5.284 Z0.084 E0.0001 F1380
G1 X7.716 Y6.397 Z0.084 E0.0006 F1380
G1 X7.716 Y6.067 Z0.084 E0.0001 F1380
G1 X6.933 Y5.284 Z0.084 E0.0004 F1380
G1 X7.263 Y5.284 Z0.084 E0.0001 F1380
G1 X7.716 Y5.737 Z0.084 E0.0002 F1380
G1 X7.716 Y5.407 Z0.084 E0.0001 F1380
G1 X7.593 Y5.284 Z0.084 E0.0001 F1380
G1 X7.593 Y5.284 Z0.084 E-0.0700 F60
G1 X7.593 Y5.284 Z0.234 F1400
G1 X5.346 Y1.716 Z0.234 F1400
G1 X5.346 Y1.716 Z0.084 F1400
G1 X5.346 Y1.716 Z0.084 E0.0700 F60
G1 X5.284 Y1.654 Z0.084 E0.0000 F1380
G1 X5.284 Y1.324 Z0.084 E0.0001 F1380
G1 X5.676 Y1.716 Z0.084 E0.0002 F1380
G1 X6.006 Y1.716 Z0.084 E0.0001 F1380
G1 X5.284 Y0.994 Z0.084 E0.0004 F1380
G1 X5.284 Y0.664 Z0.084 E0.0001 F1380
G1 X6.336 Y1.716 Z0.084 E0.0006 F1380
G1 X6.666 Y1.716 Z0.084 E0.0001 F1380
G1 X5.284 Y0.334 Z0.084 E0.0007 F1380
G1 X5.284 Y0.004 Z0.084 E0.0001 F1380
G1 X6.996 Y1.716 Z0.084 E0.0009 F1380
G1 X7.326 Y1.716 Z0.084 E0.0001 F1380
G1 X5.284 Y-0.326 Z0.084 E0.0011 F1380
G1 X5.284 Y-0.656 Z0.084 E0.0001 F1380
G1 X7.656 Y1.716 Z0.084 E0.0013 F1380
G1 X7.716 Y1.716 Z0.084 E0.0000 F1380
G1 X7.716 Y1.447 Z0.084 E0.0001 F1380
G1 X5.553 Y-0.717 Z0.084 E0.0012 F1380
G1 X5.883 Y-0.717 Z0.084 E0.0001 F1380
G1 X7.716 Y1.117 Z0.084 E0.0010 F1380
G1 X7.716 Y0.787 Z0.084 E0.0001 F1380
G1 X6.213 Y-0.717 Z0.084 E0.0008 F1380
G1 X6.543 Y-0.717 Z0.084 E0.0001 F1380
G1 X7.716 Y0.457 Z0.084 E0.0006 F1380
G1 X7.716 Y0.127 Z0.084 E0.0001 F1380
G1 X6.873 Y-0.717 Z0.084 E0.0005 F1380
