; generated by Slic3r 1.3.1-dev on 2020-01-23 at 10:53:40

; external perimeters extrusion width = 0.23mm (0.41mm^3/s)
; perimeters extrusion width = 0.29mm (0.53mm^3/s)
; infill extrusion width = 0.26mm (0.47mm^3/s)
; solid infill extrusion width = 0.29mm (0.93mm^3/s)
; top infill extrusion width = 0.29mm (0.93mm^3/s)

T0
G92 X0 Y0 Z0 E0
G1 E0.09
G92 E0
T0
M302 P1
; Filament gcode

; Filament gcode

G21 ; set units to millimeters
G90 ; use absolute coordinates
M83 ; use relative distances for extrusion
G1 Z0.084 F2400.000
G1 X2.576 Y2.906 F2400.000
G1 F1380
G1 X2.250 Y3.166 E0.00010
G1 X1.913 Y3.380 E0.00009
G1 X1.555 Y3.559 E0.00009
G1 X1.181 Y3.700 E0.00009
G1 X0.795 Y3.802 E0.00009
G1 X0.399 Y3.864 E0.00009
G1 X-0.000 Y3.884 E0.00009
G1 X-0.399 Y3.864 E0.00009
G1 X-0.795 Y3.802 E0.00009
G1 X-1.181 Y3.700 E0.00009
G1 X-1.556 Y3.559 E0.00009
G1 X-1.913 Y3.380 E0.00009
G1 X-2.251 Y3.166 E0.00009
G1 X-2.564 Y2.918 E0.00009
G1 X-2.851 Y2.639 E0.00009
G1 X-3.107 Y2.331 E0.00009
G1 X-3.330 Y2.000 E0.00009
G1 X-3.518 Y1.647 E0.00009
G1 X-3.669 Y1.276 E0.00009
G1 X-3.780 Y0.892 E0.00009
G1 X-3.852 Y0.499 E0.00009
G1 X-3.883 Y0.100 E0.00009
G1 X-3.873 Y-0.300 E0.00009
G1 X-3.821 Y-0.696 E0.00009
G1 X-3.730 Y-1.086 E0.00009
G1 X-3.598 Y-1.463 E0.00009
G1 X-3.429 Y-1.826 E0.00009
G1 X-3.223 Y-2.168 E0.00009
G1 X-2.983 Y-2.488 E0.00009
G1 X-2.711 Y-2.782 E0.00009
G1 X-2.411 Y-3.046 E0.00009
G1 X-2.085 Y-3.278 E0.00009
G1 X-1.737 Y-3.474 E0.00009
G1 X-1.370 Y-3.635 E0.00009
G1 X-0.989 Y-3.756 E0.00009
G1 X-0.598 Y-3.838 E0.00009
G1 X-0.200 Y-3.879 E0.00009
G1 X0.200 Y-3.879 E0.00009
G1 X0.598 Y-3.838 E0.00009
G1 X0.989 Y-3.756 E0.00009
G1 X1.370 Y-3.635 E0.00009
G1 X1.737 Y-3.474 E0.00009
G1 X2.085 Y-3.278 E0.00009
G1 X2.411 Y-3.046 E0.00009
G1 X2.711 Y-2.782 E0.00009
G1 X2.983 Y-2.488 E0.00009
G1 X3.223 Y-2.168 E0.00009
G1 X3.429 Y-1.826 E0.00009
G1 X3.598 Y-1.463 E0.00009
G1 X3.730 Y-1.086 E0.00009
G1 X3.821 Y-0.696 E0.00009
G1 X3.873 Y-0.300 E0.00009
G1 X3.883 Y0.100 E0.00009
G1 X3.852 Y0.499 E0.00009
G1 X3.780 Y0.892 E0.00009
G1 X3.669 Y1.276 E0.00009
G1 X3.518 Y1.647 E0.00009
G1 X3.330 Y2.000 E0.00009
G1 X3.107 Y2.331 E0.00009
G1 X2.851 Y2.639 E0.00009
G1 X2.599 Y2.884 E0.00008
G1 X1.858 Y3.136 F2400.000
G1 F1380
G1 X3.148 Y1.846 E0.00049
G1 X3.324 Y1.515 E0.00010
G1 X3.475 Y1.135 E0.00011
G1 X1.137 Y3.473 E0.00090
G1 X0.620 Y3.605 E0.00014
G1 X3.604 Y0.622 E0.00114
G1 X3.657 Y0.185 E0.00012
G1 X0.185 Y3.656 E0.00133
G1 X-0.201 Y3.658 E0.00010
G1 X3.659 Y-0.202 E0.00148
G1 X3.625 Y-0.552 E0.00010
G1 X-0.551 Y3.625 E0.00160
G1 X-0.874 Y3.563 E0.00009
G1 X3.563 Y-0.873 E0.00170
G1 X3.478 Y-1.173 E0.00008
G1 X-1.175 Y3.480 E0.00178
G1 X-1.454 Y3.374 E0.00008
G1 X3.374 Y-1.453 E0.00185
G1 X3.251 Y-1.715 E0.00008
G1 X-1.712 Y3.249 E0.00190
G1 X-1.956 Y3.109 E0.00008
G1 X3.109 Y-1.957 E0.00194
G1 X2.953 Y-2.185 E0.00007
G1 X-2.186 Y2.955 E0.00197
G1 X-2.401 Y2.785 E0.00007
G1 X2.784 Y-2.400 E0.00199
G1 X2.600 Y-2.600 E0.00007
G1 X-2.598 Y2.598 E0.00199
G1 X-2.783 Y2.399 E0.00007
G1 X2.399 Y-2.783 E0.00199
G1 X2.185 Y-2.953 E0.00007
G1 X-2.955 Y2.187 E0.00197
G1 X-3.110 Y1.958 E0.00008
G1 X1.959 Y-3.111 E0.00194
G1 X1.713 Y-3.250 E0.00008
G1 X-3.249 Y1.712 E0.00190
G1 X-3.372 Y1.452 E0.00008
G1 X1.451 Y-3.372 E0.00185
G1 X1.173 Y-3.478 E0.00008
G1 X-3.479 Y1.174 E0.00178
G1 X-3.566 Y0.877 E0.00008
G1 X0.875 Y-3.564 E0.00170
G1 X0.554 Y-3.627 E0.00009
G1 X-3.626 Y0.553 E0.00160
G1 X-3.660 Y0.202 E0.00010
G1 X0.205 Y-3.662 E0.00148
G1 X-0.181 Y-3.660 E0.00010
G1 X-3.658 Y-0.183 E0.00133
G1 X-3.609 Y-0.616 E0.00012
G1 X-0.620 Y-3.605 E0.00115
G1 X-0.899 Y-3.547 E0.00008
G1 X-1.139 Y-3.471 E0.00007
G1 X-3.470 Y-1.140 E0.00089
G1 X-3.399 Y-1.344 E0.00006
G1 X-3.240 Y-1.683 E0.00010
G1 X-3.134 Y-1.860 E0.00006
G1 X-1.856 Y-3.138 E0.00049
G1 Z0.168 F2400.000
G1 X2.564 Y2.918 F2400.000
G1 F1380
G1 X2.251 Y3.166 E0.00009
G1 X1.913 Y3.380 E0.00009
G1 X1.555 Y3.559 E0.00009
G1 X1.181 Y3.700 E0.00009
G1 X0.795 Y3.802 E0.00009
G1 X0.399 Y3.864 E0.00009
G1 X-0.000 Y3.884 E0.00009
G1 X-0.399 Y3.864 E0.00009
G1 X-0.795 Y3.802 E0.00009
G1 X-1.181 Y3.700 E0.00009
G1 X-1.556 Y3.559 E0.00009
G1 X-1.913 Y3.380 E0.00009
G1 X-2.251 Y3.166 E0.00009
G1 X-2.564 Y2.918 E0.00009
G1 X-2.851 Y2.639 E0.00009
G1 X-3.107 Y2.331 E0.00009
G1 X-3.330 Y2.000 E0.00009
G1 X-3.518 Y1.647 E0.00009
G1 X-3.669 Y1.276 E0.00009
G1 X-3.780 Y0.892 E0.00009
G1 X-3.852 Y0.499 E0.00009
G1 X-3.883 Y0.100 E0.00009
G1 X-3.873 Y-0.300 E0.00009
G1 X-3.821 Y-0.696 E0.00009
G1 X-3.730 Y-1.086 E0.00009
G1 X-3.598 Y-1.463 E0.00009
G1 X-3.429 Y-1.826 E0.00009
G1 X-3.223 Y-2.168 E0.00009
G1 X-2.983 Y-2.488 E0.00009
G1 X-2.711 Y-2.782 E0.00009
G1 X-2.411 Y-3.046 E0.00009
G1 X-2.085 Y-3.278 E0.00009
G1 X-1.737 Y-3.475 E0.00009
G1 X-1.370 Y-3.635 E0.00009
G1 X-0.989 Y-3.756 E0.00009
G1 X-0.599 Y-3.838 E0.00009
G1 X0.026 Y-3.883 E0.00015
G1 X0.599 Y-3.838 E0.00014
G1 X0.989 Y-3.756 E0.00009
G1 X1.370 Y-3.635 E0.00009
G1 X1.737 Y-3.474 E0.00009
G1 X2.085 Y-3.278 E0.00009
G1 X2.411 Y-3.046 E0.00009
G1 X2.711 Y-2.782 E0.00009
G1 X2.983 Y-2.488 E0.00009
G1 X3.223 Y-2.168 E0.00009
G1 X3.429 Y-1.826 E0.00009
G1 X3.598 Y-1.463 E0.00009
G1 X3.730 Y-1.086 E0.00009
G1 X3.821 Y-0.696 E0.00009
G1 X3.873 Y-0.300 E0.00009
G1 X3.883 Y0.100 E0.00009
G1 X3.852 Y0.499 E0.00009
G1 X3.780 Y0.892 E0.00009
G1 X3.669 Y1.276 E0.00009
G1 X3.518 Y1.647 E0.00009
G1 X3.330 Y2.000 E0.00009
G1 X3.107 Y2.331 E0.00009
G1 X2.851 Y2.639 E0.00009
G1 X2.587 Y2.896 E0.00009
G1 X3.134 Y-1.860 F2400.000
G1 F1380
G1 X1.856 Y-3.138 E0.00049
G1 X1.600 Y-3.283 E0.00008
G1 X1.139 Y-3.471 E0.00013
G1 X3.470 Y-1.140 E0.00089
G1 X3.609 Y-0.616 E0.00015
G1 X0.620 Y-3.605 E0.00115
G1 X0.191 Y-3.650 E0.00012
G1 X3.658 Y-0.183 E0.00133
G1 X3.660 Y0.202 E0.00010
G1 X-0.195 Y-3.652 E0.00148
G1 X-0.552 Y-3.626 E0.00010
G1 X3.626 Y0.553 E0.00160
G1 X3.566 Y0.877 E0.00009
G1 X-0.875 Y-3.564 E0.00170
G1 X-1.173 Y-3.478 E0.00008
G1 X3.479 Y1.174 E0.00178
G1 X3.372 Y1.452 E0.00008
G1 X-1.451 Y-3.372 E0.00185
G1 X-1.713 Y-3.250 E0.00008
G1 X3.249 Y1.712 E0.00190
G1 X3.110 Y1.958 E0.00008
G1 X-1.959 Y-3.111 E0.00194
G1 X-2.185 Y-2.953 E0.00007
G1 X2.955 Y2.187 E0.00197
G1 X2.783 Y2.399 E0.00007
G1 X-2.399 Y-2.783 E0.00199
G1 X-2.600 Y-2.600 E0.00007
G1 X2.598 Y2.598 E0.00199
G1 X2.401 Y2.785 E0.00007
G1 X-2.784 Y-2.400 E0.00199
G1 X-2.953 Y-2.185 E0.00007
G1 X2.186 Y2.955 E0.00197
G1 X1.956 Y3.109 E0.00008
G1 X-3.109 Y-1.957 E0.00194
G1 X-3.251 Y-1.715 E0.00008
G1 X1.712 Y3.249 E0.00190
G1 X1.454 Y3.374 E0.00008
G1 X-3.374 Y-1.453 E0.00185
G1 X-3.478 Y-1.173 E0.00008
G1 X1.175 Y3.480 E0.00178
G1 X0.874 Y3.563 E0.00008
G1 X-3.563 Y-0.873 E0.00170
G1 X-3.625 Y-0.552 E0.00009
G1 X0.551 Y3.625 E0.00160
G1 X0.201 Y3.658 E0.00010
G1 X-3.659 Y-0.202 E0.00148
G1 X-3.657 Y0.185 E0.00010
G1 X-0.185 Y3.656 E0.00133
G1 X-0.620 Y3.605 E0.00012
G1 X-3.604 Y0.622 E0.00114
G1 X-3.570 Y0.808 E0.00005
G1 X-3.475 Y1.135 E0.00009
G1 X-1.137 Y3.473 E0.00090
G1 X-1.430 Y3.363 E0.00008
G1 X-1.858 Y3.136 E0.00013
G1 X-3.148 Y1.846 E0.00049
G1 Z0.252 F2400.000
G1 X2.564 Y2.918 F2400.000
G1 F1380
G1 X2.251 Y3.166 E0.00009
G1 X1.913 Y3.380 E0.00009
G1 X1.555 Y3.559 E0.00009
G1 X1.181 Y3.700 E0.00009
G1 X0.795 Y3.802 E0.00009
G1 X0.399 Y3.864 E0.00009
G1 X-0.000 Y3.884 E0.00009
G1 X-0.399 Y3.864 E0.00009
G1 X-0.795 Y3.802 E0.00009
G1 X-1.181 Y3.700 E0.00009
G1 X-1.556 Y3.559 E0.00009
G1 X-1.913 Y3.380 E0.00009
G1 X-2.251 Y3.166 E0.00009
G1 X-2.564 Y2.918 E0.00009
G1 X-2.789 Y2.698 E0.00007
G1 X-3.107 Y2.331 E0.00011
G1 X-3.330 Y2.000 E0.00009
G1 X-3.518 Y1.647 E0.00009
G1 X-3.669 Y1.276 E0.00009
G1 X-3.780 Y0.892 E0.00009
G1 X-3.852 Y0.499 E0.00009
G1 X-3.883 Y0.100 E0.00009
G1 X-3.873 Y-0.300 E0.00009
G1 X-3.821 Y-0.696 E0.00009
G1 X-3.730 Y-1.086 E0.00009
G1 X-3.598 Y-1.463 E0.00009
G1 X-3.429 Y-1.826 E0.00009
G1 X-3.223 Y-2.168 E0.00009
G1 X-2.983 Y-2.488 E0.00009
G1 X-2.711 Y-2.782 E0.00009
G1 X-2.411 Y-3.046 E0.00009
G1 X-2.085 Y-3.278 E0.00009
G1 X-1.737 Y-3.474 E0.00009
G1 X-1.370 Y-3.635 E0.00009
G1 X-0.989 Y-3.756 E0.00009
G1 X-0.598 Y-3.838 E0.00009
G1 X-0.199 Y-3.879 E0.00009
G1 X0.040 Y-3.883 E0.00006
G1 X0.599 Y-3.838 E0.00013
G1 X0.989 Y-3.756 E0.00009
G1 X1.370 Y-3.635 E0.00009
G1 X1.737 Y-3.475 E0.00009
G1 X2.085 Y-3.278 E0.00009
G1 X2.411 Y-3.046 E0.00009
G1 X2.711 Y-2.782 E0.00009
G1 X2.983 Y-2.488 E0.00009
G1 X3.223 Y-2.168 E0.00009
G1 X3.429 Y-1.826 E0.00009
G1 X3.598 Y-1.463 E0.00009
G1 X3.730 Y-1.086 E0.00009
G1 X3.821 Y-0.696 E0.00009
G1 X3.873 Y-0.300 E0.00009
G1 X3.883 Y0.100 E0.00009
G1 X3.852 Y0.499 E0.00009
G1 X3.780 Y0.892 E0.00009
G1 X3.669 Y1.276 E0.00009
G1 X3.518 Y1.647 E0.00009
G1 X3.330 Y2.000 E0.00009
G1 X3.107 Y2.331 E0.00009
G1 X2.851 Y2.639 E0.00009
G1 X2.587 Y2.896 E0.00009
G1 X1.858 Y3.136 F2400.000
G1 F1380
G1 X3.148 Y1.846 E0.00049
G1 X3.324 Y1.515 E0.00010
G1 X3.475 Y1.135 E0.00011
G1 X1.137 Y3.473 E0.00090
G1 X0.620 Y3.605 E0.00014
G1 X3.604 Y0.622 E0.00114
G1 X3.657 Y0.185 E0.00012
G1 X0.185 Y3.656 E0.00133
G1 X-0.201 Y3.658 E0.00010
G1 X3.659 Y-0.202 E0.00148
G1 X3.625 Y-0.552 E0.00010
G1 X-0.551 Y3.625 E0.00160
G1 X-0.874 Y3.563 E0.00009
G1 X3.563 Y-0.873 E0.00170
G1 X3.478 Y-1.173 E0.00008
G1 X-1.175 Y3.480 E0.00178
G1 X-1.454 Y3.374 E0.00008
G1 X3.374 Y-1.453 E0.00185
G1 X3.251 Y-1.715 E0.00008
G1 X-1.712 Y3.249 E0.00190
G1 X-1.956 Y3.109 E0.00008
G1 X3.109 Y-1.957 E0.00194
G1 X2.953 Y-2.185 E0.00007
G1 X-2.186 Y2.955 E0.00197
G1 X-2.401 Y2.785 E0.00007
G1 X2.784 Y-2.400 E0.00199
G1 X2.600 Y-2.600 E0.00007
G1 X-2.598 Y2.598 E0.00199
G1 X-2.780 Y2.395 E0.00007
G1 X2.399 Y-2.783 E0.00198
G1 X2.185 Y-2.953 E0.00007
G1 X-2.955 Y2.187 E0.00197
G1 X-3.110 Y1.958 E0.00008
G1 X1.959 Y-3.111 E0.00194
G1 X1.713 Y-3.250 E0.00008
G1 X-3.249 Y1.712 E0.00190
G1 X-3.372 Y1.452 E0.00008
G1 X1.451 Y-3.372 E0.00185
G1 X1.173 Y-3.478 E0.00008
G1 X-3.479 Y1.174 E0.00178
G1 X-3.566 Y0.877 E0.00008
G1 X0.875 Y-3.564 E0.00170
G1 X0.553 Y-3.626 E0.00009
G1 X-3.626 Y0.553 E0.00160
G1 X-3.660 Y0.202 E0.00010
G1 X0.198 Y-3.655 E0.00148
G1 X-0.181 Y-3.660 E0.00010
G1 X-3.658 Y-0.183 E0.00133
G1 X-3.609 Y-0.616 E0.00012
G1 X-0.620 Y-3.605 E0.00115
G1 X-0.899 Y-3.547 E0.00008
G1 X-1.139 Y-3.471 E0.00007
G1 X-3.470 Y-1.140 E0.00089
G1 X-3.399 Y-1.344 E0.00006
G1 X-3.240 Y-1.683 E0.00010
G1 X-3.134 Y-1.860 E0.00006
G1 X-1.856 Y-3.138 E0.00049
G1 Z0.336 F2400.000
G1 X2.564 Y2.918 F2400.000
G1 F1380
G1 X2.251 Y3.166 E0.00009
G1 X1.913 Y3.380 E0.00009
G1 X1.555 Y3.559 E0.00009
G1 X1.181 Y3.700 E0.00009
G1 X0.795 Y3.802 E0.00009
G1 X0.399 Y3.864 E0.00009
G1 X-0.000 Y3.884 E0.00009
G1 X-0.399 Y3.864 E0.00009
G1 X-0.795 Y3.802 E0.00009
G1 X-1.181 Y3.700 E0.00009
G1 X-1.556 Y3.559 E0.00009
G1 X-1.913 Y3.380 E0.00009
G1 X-2.251 Y3.166 E0.00009
G1 X-2.564 Y2.918 E0.00009
G1 X-2.851 Y2.639 E0.00009
G1 X-3.107 Y2.331 E0.00009
G1 X-3.330 Y2.000 E0.00009
G1 X-3.518 Y1.647 E0.00009
G1 X-3.624 Y1.387 E0.00007
G1 X-3.781 Y0.891 E0.00012
G1 X-3.852 Y0.499 E0.00009
G1 X-3.883 Y0.100 E0.00009
G1 X-3.873 Y-0.300 E0.00009
G1 X-3.821 Y-0.696 E0.00009
G1 X-3.730 Y-1.086 E0.00009
G1 X-3.598 Y-1.463 E0.00009
G1 X-3.429 Y-1.826 E0.00009
G1 X-3.223 Y-2.168 E0.00009
G1 X-2.983 Y-2.488 E0.00009
G1 X-2.711 Y-2.782 E0.00009
G1 X-2.411 Y-3.046 E0.00009
G1 X-2.085 Y-3.278 E0.00009
G1 X-1.737 Y-3.475 E0.00009
G1 X-1.370 Y-3.635 E0.00009
G1 X-0.989 Y-3.756 E0.00009
G1 X-0.598 Y-3.838 E0.00009
G1 X-0.199 Y-3.879 E0.00009
G1 X0.057 Y-3.883 E0.00006
G1 X0.599 Y-3.838 E0.00013
G1 X0.989 Y-3.756 E0.00009
G1 X1.370 Y-3.635 E0.00009
G1 X1.737 Y-3.475 E0.00009
G1 X2.085 Y-3.278 E0.00009
G1 X2.411 Y-3.046 E0.00009
G1 X2.711 Y-2.782 E0.00009
G1 X2.983 Y-2.488 E0.00009
G1 X3.223 Y-2.168 E0.00009
G1 X3.429 Y-1.826 E0.00009
G1 X3.598 Y-1.463 E0.00009
G1 X3.730 Y-1.086 E0.00009
G1 X3.821 Y-0.696 E0.00009
G1 X3.873 Y-0.300 E0.00009
G1 X3.883 Y0.100 E0.00009
G1 X3.852 Y0.499 E0.00009
G1 X3.780 Y0.892 E0.00009
G1 X3.669 Y1.276 E0.00009
G1 X3.518 Y1.647 E0.00009
G1 X3.330 Y2.000 E0.00009
G1 X3.107 Y2.331 E0.00009
G1 X2.851 Y2.639 E0.00009
G1 X2.587 Y2.896 E0.00009
G1 X3.134 Y-1.860 F2400.000
G1 F1380
G1 X1.856 Y-3.138 E0.00049
G1 X1.600 Y-3.283 E0.00008
G1 X1.139 Y-3.471 E0.00013
G1 X3.470 Y-1.140 E0.00089
G1 X3.609 Y-0.616 E0.00015
G1 X0.620 Y-3.605 E0.00115
G1 X0.190 Y-3.652 E0.00012
G1 X3.658 Y-0.183 E0.00133
G1 X3.660 Y0.202 E0.00010
G1 X-0.205 Y-3.663 E0.00148
G1 X-0.554 Y-3.627 E0.00009
G1 X3.626 Y0.553 E0.00160
G1 X3.566 Y0.877 E0.00009
G1 X-0.875 Y-3.564 E0.00170
G1 X-1.173 Y-3.478 E0.00008
G1 X3.479 Y1.174 E0.00178
G1 X3.372 Y1.452 E0.00008
G1 X-1.451 Y-3.372 E0.00185
G1 X-1.713 Y-3.250 E0.00008
G1 X3.249 Y1.712 E0.00190
G1 X3.110 Y1.958 E0.00008
G1 X-1.959 Y-3.111 E0.00194
G1 X-2.185 Y-2.953 E0.00007
G1 X2.955 Y2.187 E0.00197
G1 X2.783 Y2.399 E0.00007
G1 X-2.399 Y-2.783 E0.00199
G1 X-2.600 Y-2.600 E0.00007
G1 X2.598 Y2.598 E0.00199
G1 X2.401 Y2.785 E0.00007
G1 X-2.784 Y-2.400 E0.00199
G1 X-2.953 Y-2.185 E0.00007
G1 X2.186 Y2.955 E0.00197
G1 X1.956 Y3.109 E0.00008
G1 X-3.109 Y-1.957 E0.00194
G1 X-3.251 Y-1.715 E0.00008
G1 X1.712 Y3.249 E0.00190
G1 X1.454 Y3.374 E0.00008
G1 X-3.374 Y-1.453 E0.00185
G1 X-3.478 Y-1.173 E0.00008
G1 X1.175 Y3.480 E0.00178
G1 X0.874 Y3.563 E0.00008
G1 X-3.563 Y-0.873 E0.00170
G1 X-3.625 Y-0.552 E0.00009
G1 X0.551 Y3.625 E0.00160
G1 X0.201 Y3.658 E0.00010
G1 X-3.659 Y-0.202 E0.00148
G1 X-3.657 Y0.185 E0.00010
G1 X-0.185 Y3.656 E0.00133
G1 X-0.620 Y3.605 E0.00012
G1 X-3.604 Y0.622 E0.00114
G1 X-3.571 Y0.804 E0.00005
G1 X-3.462 Y1.148 E0.00010
G1 X-1.137 Y3.473 E0.00089
G1 X-1.430 Y3.363 E0.00008
G1 X-1.858 Y3.136 E0.00013
G1 X-3.148 Y1.846 E0.00049
G1 Z0.420 F2400.000
G1 X2.564 Y2.918 F2400.000
G1 F1380
G1 X2.251 Y3.166 E0.00009
G1 X1.913 Y3.380 E0.00009
G1 X1.555 Y3.559 E0.00009
G1 X1.181 Y3.700 E0.00009
G1 X0.795 Y3.802 E0.00009
G1 X0.399 Y3.864 E0.00009
G1 X-0.000 Y3.884 E0.00009
G1 X-0.399 Y3.864 E0.00009
G1 X-0.795 Y3.802 E0.00009
G1 X-1.181 Y3.700 E0.00009
G1 X-1.556 Y3.559 E0.00009
G1 X-1.913 Y3.380 E0.00009
G1 X-2.251 Y3.166 E0.00009
G1 X-2.564 Y2.918 E0.00009
G1 X-2.851 Y2.639 E0.00009
G1 X-3.107 Y2.331 E0.00009
G1 X-3.330 Y2.000 E0.00009
G1 X-3.518 Y1.647 E0.00009
G1 X-3.669 Y1.276 E0.00009
G1 X-3.780 Y0.892 E0.00009
G1 X-3.852 Y0.499 E0.00009
G1 X-3.883 Y0.100 E0.00009
G1 X-3.873 Y-0.300 E0.00009
G1 X-3.821 Y-0.696 E0.00009
G1 X-3.730 Y-1.086 E0.00009
G1 X-3.598 Y-1.463 E0.00009
G1 X-3.429 Y-1.826 E0.00009
G1 X-3.223 Y-2.168 E0.00009
G1 X-2.983 Y-2.488 E0.00009
G1 X-2.711 Y-2.782 E0.00009
G1 X-2.411 Y-3.046 E0.00009
G1 X-2.085 Y-3.278 E0.00009
G1 X-1.737 Y-3.474 E0.00009
G1 X-1.370 Y-3.635 E0.00009
G1 X-0.989 Y-3.756 E0.00009
G1 X-0.598 Y-3.838 E0.00009
G1 X-0.199 Y-3.879 E0.00009
G1 X0.074 Y-3.882 E0.00006
G1 X0.599 Y-3.838 E0.00012
G1 X0.989 Y-3.756 E0.00009
G1 X1.370 Y-3.635 E0.00009
G1 X1.737 Y-3.474 E0.00009
G1 X2.085 Y-3.278 E0.00009
G1 X2.411 Y-3.046 E0.00009
G1 X2.711 Y-2.782 E0.00009
G1 X2.983 Y-2.488 E0.00009
G1 X3.223 Y-2.168 E0.00009
G1 X3.429 Y-1.826 E0.00009
G1 X3.598 Y-1.463 E0.00009
G1 X3.730 Y-1.086 E0.00009
G1 X3.821 Y-0.696 E0.00009
G1 X3.873 Y-0.300 E0.00009
G1 X3.883 Y0.100 E0.00009
G1 X3.852 Y0.499 E0.00009
G1 X3.780 Y0.892 E0.00009
G1 X3.669 Y1.276 E0.00009
G1 X3.518 Y1.647 E0.00009
G1 X3.330 Y2.000 E0.00009
G1 X3.107 Y2.331 E0.00009
G1 X2.851 Y2.639 E0.00009
G1 X2.587 Y2.896 E0.00009
G1 X1.858 Y3.136 F2400.000
G1 F1380
G1 X3.148 Y1.846 E0.00049
G1 X3.324 Y1.515 E0.00010
G1 X3.475 Y1.135 E0.00011
G1 X1.137 Y3.473 E0.00090
G1 X0.620 Y3.605 E0.00014
G1 X3.604 Y0.622 E0.00114
G1 X3.657 Y0.185 E0.00012
G1 X0.185 Y3.656 E0.00133
G1 X-0.201 Y3.658 E0.00010
G1 X3.659 Y-0.202 E0.00148
G1 X3.625 Y-0.552 E0.00010
G1 X-0.551 Y3.625 E0.00160
G1 X-0.874 Y3.563 E0.00009
G1 X3.563 Y-0.873 E0.00170
G1 X3.478 Y-1.173 E0.00008
G1 X-1.175 Y3.480 E0.00178
G1 X-1.454 Y3.374 E0.00008
G1 X3.374 Y-1.453 E0.00185
G1 X3.251 Y-1.715 E0.00008
G1 X-1.712 Y3.249 E0.00190
G1 X-1.956 Y3.109 E0.00008
G1 X3.109 Y-1.957 E0.00194
G1 X2.953 Y-2.185 E0.00007
G1 X-2.186 Y2.955 E0.00197
G1 X-2.401 Y2.785 E0.00007
G1 X2.784 Y-2.400 E0.00199
