; generated by Slic3r 1.3.1-dev on 2020-01-25 at 17:23:41

; external perimeters extrusion width = 0.23mm (0.41mm^3/s)
; perimeters extrusion width = 0.29mm (0.53mm^3/s)
; infill extrusion width = 0.26mm (0.47mm^3/s)
; solid infill extrusion width = 0.29mm (0.93mm^3/s)
; top infill extrusion width = 0.29mm (0.93mm^3/s)

; external perimeters extrusion width = 0.23mm (0.41mm^3/s)
; perimeters extrusion width = 0.29mm (0.53mm^3/s)
; infill extrusion width = 0.26mm (0.47mm^3/s)
; solid infill extrusion width = 0.29mm (0.93mm^3/s)
; top infill extrusion width = 0.29mm (0.93mm^3/s)

T0
G92 X0 Y0 Z0 E0
G1 E0.09
G92 E0
T0
M302 P1
; Filament gcode

; Filament gcode

G21 ; set units to millimeters
G90 ; use absolute coordinates
M83 ; use relative distances for extrusion
T0
G1 Z0.084 F2400.000
G1 X-0.634 Y0.545 F2400.000
G1 F1380
G1 X-0.596 Y0.284 E0.00010
G1 X-0.661 Y0.054 E0.00009
G1 X-0.736 Y-0.060 E0.00005
G1 X-1.134 Y-0.371 E0.00020
G1 X-1.679 Y-0.669 E0.00024
G1 X-1.886 Y-0.854 E0.00011
G1 X-1.693 Y-0.858 E0.00007
G1 X-1.346 Y-0.927 E0.00014
G1 X-1.262 Y-0.922 E0.00003
G1 X-1.130 Y-0.869 E0.00006
G1 X-1.006 Y-1.027 E0.00008
G1 X-1.008 Y-1.440 E0.00016
G1 X-1.137 Y-1.625 E0.00009
G1 X-1.232 Y-1.691 E0.00004
G1 X-2.061 Y-2.083 E0.00035
G1 X-2.203 Y-2.292 E0.00010
G1 X-1.903 Y-2.233 E0.00012
G1 X-1.670 Y-2.129 E0.00010
G1 X-1.541 Y-2.041 E0.00006
G1 X-1.434 Y-2.018 E0.00004
G1 X-1.254 Y-2.046 E0.00007
G1 X-1.103 Y-2.158 E0.00007
G1 X-1.024 Y-2.322 E0.00007
G1 X-1.014 Y-2.448 E0.00005
G1 X-1.164 Y-2.687 E0.00011
G1 X-1.363 Y-2.857 E0.00010
G1 X-1.597 Y-2.955 E0.00010
G1 X-2.051 Y-3.067 E0.00018
G1 X-1.916 Y-3.187 E0.00007
G1 X-1.823 Y-3.318 E0.00006
G1 X-1.798 Y-3.423 E0.00004
G1 X-1.824 Y-3.600 E0.00007
G1 X-1.937 Y-3.746 E0.00007
G1 X-2.252 Y-3.882 E0.00013
G1 X-2.341 Y-3.943 E0.00004
G1 X-2.498 Y-4.112 E0.00009
G1 X-2.676 Y-4.484 E0.00016
G1 X-2.723 Y-4.652 E0.00007
G1 X-2.642 Y-4.702 E0.00004
G1 X-2.487 Y-4.566 E0.00008
G1 X-2.300 Y-4.446 E0.00009
G1 X-1.915 Y-4.265 E0.00016
G1 X-1.692 Y-4.194 E0.00009
G1 X-1.388 Y-4.208 E0.00012
G1 X-1.128 Y-4.147 E0.00010
G1 X-0.894 Y-4.016 E0.00010
G1 X-0.654 Y-3.780 E0.00013
G1 X-0.547 Y-3.745 E0.00004
G1 X-0.401 Y-3.786 E0.00006
G1 X-0.315 Y-3.911 E0.00006
G1 X-0.315 Y-6.142 E0.00086
G1 X-0.355 Y-6.417 E0.00011
G1 X-0.404 Y-6.559 E0.00006
G1 X-0.542 Y-6.803 E0.00011
G1 X-0.640 Y-6.920 E0.00006
G1 X-0.916 Y-7.134 E0.00013
G1 X-1.028 Y-7.252 E0.00006
G1 X-1.125 Y-7.379 E0.00006
G1 X-1.352 Y-7.788 E0.00018
G1 X-1.445 Y-7.906 E0.00006
G1 X1.422 Y-7.924 E0.00111
G1 X1.247 Y-7.725 E0.00010
G1 X1.142 Y-7.639 E0.00005
G1 X0.895 Y-7.489 E0.00011
G1 X0.733 Y-7.420 E0.00007
G1 X0.606 Y-7.270 E0.00008
G1 X0.433 Y-6.975 E0.00013
G1 X0.335 Y-6.646 E0.00013
G1 X0.317 Y-6.473 E0.00007
G1 X0.280 Y-5.288 E0.00046
G1 X0.286 Y-4.683 E0.00023
G1 X0.315 Y-4.556 E0.00005
G1 X0.414 Y-4.438 E0.00006
G1 X0.612 Y-4.384 E0.00008
G1 X0.750 Y-4.431 E0.00006
G1 X0.907 Y-4.558 E0.00008
G1 X1.085 Y-4.619 E0.00007
G1 X1.283 Y-4.624 E0.00008
G1 X1.524 Y-4.588 E0.00009
G1 X1.796 Y-4.631 E0.00011
G1 X1.930 Y-4.688 E0.00006
G1 X2.775 Y-5.217 E0.00039
G1 X2.710 Y-4.892 E0.00013
G1 X2.580 Y-4.598 E0.00012
G1 X2.363 Y-4.309 E0.00014
G1 X2.194 Y-4.196 E0.00008
G1 X2.070 Y-4.148 E0.00005
G1 X1.948 Y-4.006 E0.00007
G1 X1.905 Y-3.832 E0.00007
G1 X1.917 Y-3.732 E0.00004
G1 X1.955 Y-3.632 E0.00004
G1 X2.020 Y-3.571 E0.00003
G1 X2.103 Y-3.428 E0.00006
G1 X1.452 Y-3.286 E0.00026
G1 X1.230 Y-3.108 E0.00011
G1 X1.137 Y-2.994 E0.00006
G1 X0.995 Y-2.722 E0.00012
G1 X1.056 Y-2.542 E0.00007
G1 X1.117 Y-2.468 E0.00004
G1 X1.195 Y-2.412 E0.00004
G1 X1.353 Y-2.372 E0.00006
G1 X1.448 Y-2.384 E0.00004
G1 X1.861 Y-2.547 E0.00017
G1 X2.046 Y-2.595 E0.00007
G1 X2.094 Y-2.508 E0.00004
G1 X1.951 Y-2.374 E0.00008
G1 X1.602 Y-2.203 E0.00015
G1 X1.292 Y-2.080 E0.00013
G1 X1.116 Y-1.937 E0.00009
G1 X1.012 Y-1.736 E0.00009
G1 X0.991 Y-1.609 E0.00005
G1 X1.024 Y-1.376 E0.00009
G1 X1.104 Y-1.278 E0.00005
G1 X1.300 Y-1.250 E0.00008
G1 X1.496 Y-1.431 E0.00010
G1 X1.627 Y-1.491 E0.00006
G1 X2.111 Y-1.528 E0.00019
G1 X2.017 Y-1.356 E0.00008
G1 X1.845 Y-1.144 E0.00011
G1 X1.633 Y-0.982 E0.00010
G1 X1.371 Y-0.867 E0.00011
G1 X1.078 Y-0.694 E0.00013
G1 X0.822 Y-0.463 E0.00013
G1 X0.604 Y-0.168 E0.00014
G1 X0.595 Y-0.041 E0.00005
G1 X0.643 Y0.069 E0.00005
G1 X0.736 Y0.146 E0.00005
G1 X0.854 Y0.172 E0.00005
G1 X0.959 Y0.144 E0.00004
G1 X1.139 Y0.041 E0.00008
G1 X1.314 Y0.002 E0.00007
G1 X1.650 Y0.053 E0.00013
G1 X1.396 Y0.200 E0.00011
G1 X1.137 Y0.310 E0.00011
G1 X0.905 Y0.493 E0.00011
G1 X0.744 Y0.738 E0.00011
G1 X0.684 Y0.906 E0.00007
G1 X0.706 Y1.006 E0.00004
G1 X0.749 Y1.088 E0.00004
G1 X0.873 Y1.193 E0.00006
G1 X1.039 Y1.224 E0.00007
G1 X2.039 Y0.881 E0.00041
G1 X2.205 Y0.785 E0.00007
G1 X2.102 Y1.145 E0.00014
G1 X1.956 Y1.388 E0.00011
G1 X1.753 Y1.585 E0.00011
G1 X1.332 Y1.817 E0.00019
G1 X1.041 Y2.043 E0.00014
G1 X0.807 Y2.328 E0.00014
G1 X0.712 Y2.494 E0.00007
G1 X0.622 Y2.726 E0.00010
G1 X0.652 Y2.851 E0.00005
G1 X0.740 Y2.948 E0.00005
G1 X0.904 Y2.980 E0.00006
G1 X1.112 Y2.887 E0.00009
G1 X1.475 Y2.784 E0.00015
G1 X1.849 Y2.750 E0.00014
G1 X2.008 Y2.758 E0.00006
G1 X1.841 Y2.943 E0.00010
G1 X1.503 Y3.231 E0.00017
G1 X1.122 Y3.452 E0.00017
G1 X0.673 Y3.615 E0.00018
G1 X0.538 Y3.750 E0.00007
G1 X0.538 Y3.964 E0.00008
G1 X0.685 Y4.112 E0.00008
G1 X1.028 Y4.140 E0.00013
G1 X1.042 Y4.241 E0.00004
G1 X0.670 Y4.384 E0.00015
G1 X0.532 Y4.527 E0.00008
G1 X0.478 Y4.714 E0.00008
G1 X0.488 Y4.829 E0.00004
G1 X0.592 Y5.044 E0.00009
G1 X0.608 Y5.044 E0.00001
G1 X0.628 Y5.149 E0.00004
G1 X0.483 Y5.205 E0.00006
G1 X0.375 Y5.314 E0.00006
G1 X0.389 Y5.510 E0.00008
G1 X0.557 Y5.675 E0.00009
G1 X0.281 Y5.862 E0.00013
G1 X0.125 Y6.081 E0.00010
G1 X0.142 Y6.288 E0.00008
G1 X0.231 Y6.359 E0.00004
G1 X0.030 Y6.578 E0.00012
G1 X0.060 Y6.586 E0.00001
G1 X0.047 Y6.671 E0.00003
G1 X0.101 Y6.837 E0.00007
G1 X-0.015 Y6.951 E0.00006
G1 X-0.083 Y6.824 E0.00006
G1 X-0.186 Y6.734 E0.00005
G1 X-0.087 Y6.660 E0.00005
G1 X-0.047 Y6.560 E0.00004
G1 X-0.071 Y6.421 E0.00005
G1 X-0.382 Y6.139 E0.00016
G1 X-0.196 Y5.951 E0.00010
G1 X-0.187 Y5.768 E0.00007
G1 X-0.295 Y5.635 E0.00007
G1 X-0.551 Y5.549 E0.00010
G1 X-0.624 Y5.507 E0.00003
G1 X-0.755 Y5.386 E0.00007
G1 X-0.570 Y5.304 E0.00008
G1 X-0.477 Y5.109 E0.00008
G1 X-0.532 Y4.894 E0.00009
G1 X-0.653 Y4.772 E0.00007
G1 X-0.732 Y4.732 E0.00003
G1 X-0.699 Y4.629 E0.00004
G1 X-0.632 Y4.638 E0.00003
G1 X-0.477 Y4.568 E0.00007
G1 X-0.378 Y4.434 E0.00006
G1 X-0.357 Y4.277 E0.00006
G1 X-0.383 Y4.174 E0.00004
G1 X-0.539 Y4.010 E0.00009
G1 X-0.962 Y3.779 E0.00019
G1 X-1.583 Y3.396 E0.00028
G1 X-1.958 Y3.120 E0.00018
G1 X-1.780 Y3.089 E0.00007
G1 X-1.546 Y3.095 E0.00009
G1 X-1.246 Y3.170 E0.00012
G1 X-0.993 Y3.355 E0.00012
G1 X-0.829 Y3.340 E0.00006
G1 X-0.720 Y3.228 E0.00006
G1 X-0.685 Y3.018 E0.00008
G1 X-0.717 Y2.823 E0.00008
G1 X-0.894 Y2.524 E0.00013
G1 X-1.012 Y2.389 E0.00007
G1 X-1.278 Y2.180 E0.00013
G1 X-1.697 Y1.976 E0.00018
G1 X-1.804 Y1.898 E0.00005
G1 X-1.996 Y1.689 E0.00011
G1 X-2.065 Y1.577 E0.00005
G1 X-2.163 Y1.314 E0.00011
G1 X-2.184 Y1.127 E0.00007
G1 X-1.996 Y1.242 E0.00009
G1 X-1.732 Y1.312 E0.00011
G1 X-1.487 Y1.305 E0.00009
G1 X-1.375 Y1.323 E0.00004
G1 X-1.148 Y1.417 E0.00010
G1 X-1.014 Y1.512 E0.00006
G1 X-0.847 Y1.511 E0.00006
G1 X-0.736 Y1.431 E0.00005
G1 X-0.682 Y1.276 E0.00006
G1 X-0.730 Y1.088 E0.00007
G1 X-0.858 Y0.866 E0.00010
G1 X-1.020 Y0.724 E0.00008
G1 X-0.970 Y0.634 E0.00004
G1 X-0.863 Y0.666 E0.00004
G1 X-0.737 Y0.639 E0.00005
G1 X-0.657 Y0.566 E0.00004
G1 X2.322 Y-2.723 F2400.000
G1 F1380
G1 X2.070 Y-2.551 E0.00006
G1 X2.263 Y-1.769 F2400.000
G1 F1380
G1 X2.086 Y-1.526 E0.00004
G1 X1.914 Y-0.043 F2400.000
G1 F1380
G1 X1.871 Y-0.066 E0.00001
G1 X1.686 Y-0.057 E0.00002
G1 X2.237 Y2.615 F2400.000
G1 F1380
G1 X2.182 Y2.604 E0.00001
G1 X2.005 Y2.657 E0.00002
G1 X1.447 Y4.048 F2400.000
G1 F1380
G1 X1.025 Y4.124 E0.00011
G1 X1.001 Y4.939 F2400.000
G1 F1380
G1 X0.860 Y5.016 E0.00004
G1 X0.620 Y5.109 E0.00007
G1 X-0.723 Y4.702 F2400.000
G1 F1380
G1 X-1.293 Y4.433 E0.00030
G1 X0.072 Y7.027 F2400.000
G1 F1380
G1 X-0.024 Y7.202 E0.00003
G1 X-0.025 Y7.424 E0.00004
G1 E-0.07500 F60.00000
G1 Z0.234 F2400.000
G1 X-0.979 Y0.650 F2400.000
G1 Z0.084 F2400.000
G1 E0.07500 F60.00000
G1 F1380
G1 X-1.379 Y0.501 E0.00026
G1 X-1.766 Y0.404 E0.00024
G1 X-1.850 Y1.423 F2400.000
G1 F1380
G1 X-1.998 Y1.406 E0.00001
G1 X-1.583 Y3.229 F2400.000
G1 F1380
G1 X-1.565 Y3.235 E0.00000
G1 F1380
G1 X-1.325 Y3.339 E0.00004
G1 X-1.056 Y3.521 E0.00005
G1 X-0.901 Y3.587 E0.00003
G1 X0.877 Y3.270 F2400.000
G1 F1380
G1 X1.689 Y2.912 E0.00038
G1 X0.947 Y0.299 F2400.000
G1 F1380
G1 X0.789 Y0.348 E0.00002
G1 X1.175 Y-0.997 F2400.000
G1 F1380
G1 X1.383 Y-1.074 E0.00006
G1 X1.681 Y-1.284 E0.00011
G1 X1.855 Y-1.350 E0.00005
G1 X1.585 Y-1.099 F2400.000
G1 F1380
G1 X1.153 Y-1.023 E0.00012
G1 X1.329 Y-2.239 F2400.000
G1 F1380
G1 X1.279 Y-2.236 E0.00000
G1 X1.213 Y-2.267 E0.00000
G1 X2.048 Y-4.274 F2400.000
G1 F1380
G1 X2.245 Y-4.449 E0.00005
G1 X2.328 Y-4.548 E0.00002
G1 F1380
G1 X2.349 Y-4.675 E0.00004
G1 X2.075 Y-4.635 E0.00009
G1 X1.954 Y-4.548 F2400.000
G1 F1380
G1 X2.503 Y-4.728 E0.00003
G1 X1.722 Y-4.027 F2400.000
G1 F1380
G1 X1.685 Y-3.874 E0.00007
G1 X1.726 Y-3.647 E0.00010
G1 X1.633 Y-3.554 E0.00006
G1 X0.121 Y-4.346 F2400.000
G1 F1380
G1 X0.061 Y-4.417 E0.00004
G1 X0.047 Y-4.483 E0.00003
G1 X-0.098 Y-4.482 E0.00006
G1 X-0.098 Y-4.127 E0.00016
G1 X0.176 Y-4.402 E0.00017
G1 X0.304 Y-4.251 E0.00009
G1 X0.386 Y-4.228 E0.00004
G1 X-0.239 Y-3.602 E0.00039
G1 X-1.388 Y-3.990 F2400.000
G1 F1380
G1 X-1.556 Y-3.803 E0.00011
G1 X-1.657 Y-3.721 E0.00006
G1 X-1.619 Y-3.671 E0.00003
G1 X-1.581 Y-3.413 E0.00012
G1 X-1.100 Y-3.894 E0.00030
G1 X-1.014 Y-3.847 E0.00004
G1 X-0.888 Y-3.722 E0.00008
G1 X-1.479 Y-3.131 E0.00037
G1 X-1.261 Y-3.040 E0.00010
G1 X-1.220 Y-3.005 E0.00002
G1 X-0.663 Y-3.563 E0.00035
G1 X-0.525 Y-3.518 E0.00006
G1 X-0.247 Y-3.595 E0.00013
G1 X-1.013 Y-2.829 E0.00048
G1 X-0.862 Y-2.595 E0.00012
G1 X0.725 Y-4.183 E0.00100
G1 X0.897 Y-4.242 E0.00008
G1 X1.055 Y-4.368 E0.00009
G1 X1.156 Y-4.403 E0.00005
G1 X1.328 Y-4.402 E0.00008
G1 X-0.809 Y-2.264 E0.00134
G1 X-0.936 Y-1.970 E0.00014
G1 X-1.099 Y-1.850 E0.00009
G1 X-0.990 Y-1.774 E0.00006
G1 X-0.959 Y-1.730 E0.00002
G1 X1.703 Y-4.392 E0.00167
G1 X1.734 Y-4.397 E0.00001
G1 X1.696 Y-4.361 E0.00002
G1 X1.817 Y-4.225 E0.00008
G1 X1.751 Y-4.148 E0.00004
G1 X1.722 Y-4.027 E0.00006
G1 X-0.801 Y-1.504 E0.00158
G1 X-0.789 Y-1.131 E0.00017
G1 X0.781 Y-2.702 E0.00098
G1 X0.887 Y-2.423 E0.00013
G1 X-1.005 Y-0.531 E0.00119
G1 X-0.790 Y-0.363 E0.00012
G1 X0.929 Y-2.081 E0.00108
G1 X0.805 Y-1.841 E0.00012
G1 X0.771 Y-1.639 E0.00009
G1 X0.784 Y-1.552 E0.00004
G1 X-0.576 Y-0.192 E0.00085
G1 X-0.464 Y-0.022 E0.00009
G1 X-0.442 Y0.057 E0.00004
G1 X0.864 Y-1.248 E0.00082
G1 X0.902 Y-1.200 E0.00003
G1 X0.951 Y-0.951 E0.00011
G1 X-0.388 Y0.388 E0.00084
G1 X-0.432 Y0.695 E0.00014
G1 X-0.620 Y0.865 E0.00011
G1 X-0.569 Y0.953 E0.00005
G1 X0.386 Y-0.002 E0.00060
G1 X0.470 Y0.193 E0.00009
G1 X0.528 Y0.241 E0.00003
G1 X-0.473 Y1.242 E0.00063
G1 X-1.524 Y1.524 F2400.000
G1 F1380
G1 X-1.655 Y1.655 E0.00008
G1 X-1.666 Y1.744 E0.00004
G1 X-1.471 Y1.855 E0.00010
G1 X-1.228 Y1.613 E0.00015
G1 X-1.064 Y1.729 E0.00009
G1 X-0.960 Y1.729 E0.00005
G1 X-1.213 Y1.981 E0.00016
G1 X-0.992 Y2.144 E0.00012
G1 X0.550 Y0.602 E0.00097
G1 X0.458 Y0.863 E0.00012
G1 X0.497 Y1.040 E0.00008
G1 X-0.792 Y2.329 E0.00081
G1 X-0.635 Y2.556 E0.00012
G1 X0.648 Y1.273 E0.00080
G1 X0.792 Y1.394 E0.00008
G1 X0.892 Y1.413 E0.00005
G1 X-0.504 Y2.809 E0.00088
G1 X-0.465 Y3.046 E0.00011
G1 X-0.487 Y3.176 E0.00006
G1 X1.322 Y1.367 E0.00113
G1 X1.791 Y1.206 E0.00022
G1 X1.634 Y1.359 E0.00010
G1 X1.224 Y1.585 E0.00021
G1 X0.897 Y1.839 E0.00018
G1 X0.633 Y2.161 E0.00018
G1 X0.518 Y2.361 E0.00010
G1 X0.395 Y2.678 E0.00015
G1 X-0.644 Y3.717 E0.00065
G1 X-0.400 Y3.858 E0.00012
G1 X0.484 Y2.973 E0.00055
G1 X0.569 Y3.065 E0.00006
G1 X0.629 Y3.213 E0.00007
G1 X-0.213 Y4.055 E0.00053
G1 X-0.190 Y4.080 E0.00002
G1 X-0.136 Y4.290 E0.00010
G1 X-0.147 Y4.373 E0.00004
G1 X0.321 Y3.905 E0.00029
G1 X0.321 Y4.037 E0.00006
G1 X0.446 Y4.163 E0.00008
G1 X-0.308 Y4.918 E0.00047
G1 X-0.246 Y5.162 E0.00011
G1 X-0.317 Y5.311 E0.00007
G1 X0.264 Y4.730 E0.00036
G1 X0.275 Y4.867 E0.00006
G1 X0.340 Y5.002 E0.00007
G1 X0.151 Y5.194 E0.00012
G1 X0.153 Y5.225 E0.00001
G1 X-0.132 Y5.510 E0.00018
G1 X-0.065 Y5.779 F2400.000
G1 F1380
G1 X0.013 Y5.885 E0.00004
G1 X0.235 Y5.730 E0.00007
G1 X0.233 Y5.728 F2400.000
G1 F1380
G1 X-0.072 Y5.920 E0.00002
G1 X0.075 Y5.773 F2400.000
G1 F1380
G1 X-0.121 Y6.203 E0.00006
G1 E-0.07500 F60.00000
G1 Z0.234 F2400.000
G1 X-2.041 Y-3.924 F2400.000
G1 Z0.084 F2400.000
G1 E0.07500 F60.00000
G1 F1380
G1 X-2.493 Y-4.403 E0.00011
G1 X-2.390 Y-4.176 F2400.000
G1 F1380
G1 X-2.324 Y-4.157 E0.00002
G1 F1380
G1 X-2.258 Y-4.138 E0.00003
G1 F1380
G1 X-2.192 Y-4.119 E0.00005
G1 F1380
G1 X-2.150 Y-4.106 E0.00004
G1 F1380
G1 X-2.141 Y-4.101 E0.00001
G1 F1380
G1 X-2.060 Y-4.111 E0.00004
G1 F1380
G1 X-1.906 Y-4.134 E0.00005
G1 X-1.790 Y-4.082 F2400.000
G1 F1380
G1 X-2.388 Y-4.174 E0.00005
G1 X-0.013 Y-4.754 F2400.000
G1 F1380
G1 X-0.004 Y-6.145 E0.00089
G1 X-0.136 Y-6.394 F2400.000
G1 F1380
G1 X0.117 Y-6.648 E0.00016
G1 X0.120 Y-6.714 E0.00003
G1 X0.235 Y-7.100 E0.00018
G1 X0.304 Y-7.218 E0.00006
G1 X-0.235 Y-6.680 E0.00034
G1 X-0.375 Y-6.924 E0.00012
G1 X0.355 Y-7.654 E0.00046
G1 X0.330 Y-7.629 F2400.000
G1 F1380
G1 X0.402 Y-7.701 E0.00005
G1 X0.015 Y-7.698 E0.00017
G1 X-0.562 Y-7.121 E0.00036
G1 X-0.779 Y-7.288 E0.00012
G1 X-0.371 Y-7.696 E0.00026
G1 X-0.758 Y-7.694 E0.00017
G1 X-0.954 Y-7.497 E0.00012
G1 X-1.032 Y-7.637 E0.00007
G1 X-0.813 Y-7.638 E0.00010
G1 X0.713 Y-7.549 F2400.000
G1 F1380
G1 X1.009 Y-7.799 E0.00008
G1 E-10.00000 F60.00000
G1 Z0.234 F2400.000
M302 P1
G91
G1 Z15 F900
T1
G90
G0 X0 Y0
G91
G1 Z-10
G90
T1
G1 E-0.07500 F60.00000
G1 X-2.062 Y0.294 F2400.000
G1 Z0.084 F2400.000
G1 E0.07500 F60.00000
G1 F1380
G1 X-1.628 Y0.706 E0.00023
G1 X-1.177 Y0.893 E0.00019
G1 X-1.039 Y1.014 E0.00007
G1 X-0.960 Y1.151 E0.00006
G1 X-1.021 Y1.220 E0.00004
G1 X-1.312 Y1.100 E0.00012
G1 X-1.471 Y1.074 E0.00006
G1 X-1.739 Y1.076 E0.00010
G1 X-1.845 Y1.050 E0.00004
G1 X-2.059 Y0.937 E0.00009
G1 X-2.225 Y0.775 E0.00009
G1 X-2.446 Y0.856 E0.00009
G1 X-2.385 Y1.384 E0.00021
G1 X-2.325 Y1.568 E0.00007
G1 X-2.241 Y1.737 E0.00007
G1 X-2.132 Y1.893 E0.00007
G1 X-2.003 Y2.031 E0.00007
G1 X-1.852 Y2.152 E0.00007
G1 X-1.402 Y2.377 E0.00019
G1 X-1.172 Y2.558 E0.00011
G1 X-1.082 Y2.660 E0.00005
G1 X-0.937 Y2.906 E0.00011
G1 X-0.922 Y2.972 E0.00003
G1 X-0.937 Y3.109 E0.00005
G1 X-1.146 Y2.957 E0.00010
G1 X-1.515 Y2.865 E0.00015
G1 X-1.798 Y2.858 E0.00011
G1 X-1.909 Y2.877 E0.00004
G1 X-2.192 Y2.788 E0.00011
G1 X-2.333 Y2.873 E0.00006
G1 X-2.364 Y3.066 E0.00008
G1 X-2.017 Y3.363 E0.00018
G1 X-1.713 Y3.586 E0.00015
G1 X-1.398 Y3.793 E0.00015
G1 X-0.750 Y4.148 E0.00029
G1 X-0.598 Y4.284 E0.00008
G1 X-0.615 Y4.377 E0.00004
G1 X-0.667 Y4.400 E0.00002
G1 X-0.804 Y4.381 E0.00005
G1 X-0.965 Y4.310 E0.00007
G1 X-1.694 Y4.326 E0.00028
G1 X-1.324 Y4.691 E0.00020
G1 X-0.790 Y4.961 E0.00023
G1 X-0.740 Y5.012 E0.00003
G1 X-0.711 Y5.127 E0.00005
G1 X-0.784 Y5.150 E0.00003
G1 X-0.913 Y5.129 E0.00005
G1 X-1.314 Y5.171 E0.00016
G1 X-0.828 Y5.645 E0.00026
G1 X-0.598 Y5.777 E0.00010
G1 X-0.621 Y5.870 E0.00004
G1 X-0.750 Y5.875 E0.00005
G1 X-0.822 Y6.100 E0.00009
G1 X-0.440 Y6.386 E0.00018
G1 X-0.293 Y6.528 E0.00008
G1 X-0.492 Y6.687 E0.00010
G1 X-0.423 Y6.911 E0.00009
G1 X-0.316 Y6.913 E0.00004
G1 X-0.248 Y7.010 E0.00005
G1 X-0.159 Y7.408 E0.00016
G1 X0.109 Y7.412 E0.00010
G1 X0.210 Y7.043 E0.00015
G1 X0.242 Y7.018 E0.00002
G1 X0.590 Y6.947 E0.00014
G1 X0.330 Y6.721 E0.00013
G1 X0.258 Y6.619 E0.00005
G1 X0.763 Y6.522 E0.00020
G1 X0.346 Y6.156 E0.00021
G1 X0.443 Y6.031 E0.00006
G1 X0.686 Y5.867 E0.00011
G1 X0.840 Y5.702 E0.00009
G1 X0.796 Y5.530 E0.00007
G1 X0.593 Y5.410 E0.00009
G1 X0.771 Y5.341 E0.00007
G1 X0.899 Y5.257 E0.00006
G1 X1.010 Y5.158 E0.00006
G1 X1.385 Y4.708 E0.00023
