; generated by Slic3r 1.2.9 on 2019-10-17 at 18:14:57

; external perimeters extrusion width = 0.30mm
; perimeters extrusion width = 0.31mm
; infill extrusion width = 0.31mm
; solid infill extrusion width = 0.31mm
; top infill extrusion width = 0.31mm

M104 S200 ; set temperature
G28 ; home all axes
M109 S200 ; wait for temperature to be reached
G21 ; set units to millimeters
G90 ; use absolute coordinates
M82 ; use absolute distances for extrusion
G92 E0
G1 Z0.300 F1200.000
G1 X-3.025 Y2.464 F1200.000
G1 X-2.445 Y3.044 E0.15199 F1200.000
G1 X-1.532 Y3.614 F1200.000
G1 X-3.617 Y1.529 E0.69815 F1200.000
G1 X-3.802 Y1.001 F1200.000
G1 X-0.998 Y3.805 E1.43277 F1200.000
G1 X-0.562 Y3.898 E1.51537
G1 X-3.902 Y0.558 E2.39043
G1 X-3.937 Y0.180 E2.46086
G1 X-0.173 Y3.944 E3.44733
G1 X0.170 Y3.944 E3.51076
G1 X-3.948 Y-0.174 E4.58961
G1 X-3.919 Y-0.489 E4.64819
G1 X0.494 Y3.925 E5.80465
G1 X0.789 Y3.877 E5.85999
G1 X-3.878 Y-0.790 E7.08279
G1 X-3.811 Y-1.066 E7.13538
G1 X1.070 Y3.815 E8.41415
G1 X1.328 Y3.730 E8.46452
G1 X-3.730 Y-1.328 E9.78983
G1 X-3.636 Y-1.577 E9.83919
G1 X1.580 Y3.639 E11.20614
G1 X1.814 Y3.530 E11.25391
G1 X-3.525 Y-1.809 E12.65277
G1 X-3.407 Y-2.035 E12.69990
G1 X2.031 Y3.404 E14.12504
G1 X2.244 Y3.274 E14.17126
G1 X-3.270 Y-2.240 E15.61611
G1 X-3.130 Y-2.443 E15.66182
G1 X2.440 Y3.127 E17.12142
G1 X2.623 Y2.967 E17.16645
G1 X-2.966 Y-2.623 E18.63103
G1 X-2.795 Y-2.794 E18.67597
G1 X2.794 Y2.795 E20.14055
G1 X2.966 Y2.624 E20.18548
G1 X-2.623 Y-2.966 E21.65006
G1 X-2.440 Y-3.125 E21.69511
G1 X3.127 Y2.442 E23.15396
G1 X3.272 Y2.244 E23.19945
G1 X-2.244 Y-3.272 E24.64479
G1 X-2.032 Y-3.403 E24.69096
G1 X3.405 Y2.033 E26.11556
G1 X3.527 Y1.813 E26.16228
G1 X-1.812 Y-3.526 E27.56134
G1 X-1.578 Y-3.635 E27.60920
G1 X3.634 Y1.577 E28.97490
G1 X3.734 Y1.334 E29.02362
G1 X-1.333 Y-3.733 E30.35138
G1 X-1.067 Y-3.810 E30.40272
G1 X3.811 Y1.068 E31.68080
G1 X3.878 Y0.792 E31.73337
G1 X-0.794 Y-3.880 E32.95752
G1 X-0.492 Y-3.921 E33.01400
G1 X3.923 Y0.494 E34.17076
G1 X3.951 Y0.179 E34.22943
G1 X-0.175 Y-3.947 E35.31054
G1 X0.176 Y-3.939 E35.37560
G1 X3.941 Y-0.174 E36.36220
G1 X3.898 Y-0.560 E36.43416
G1 X0.561 Y-3.897 E37.30855
G1 X0.992 Y-3.810 E37.38995
G1 X3.803 Y-0.998 E38.12661
G1 X3.612 Y-1.532 F1200.000
G1 X1.524 Y-3.620 E38.67372 F1200.000
G1 X2.420 Y-3.067 F1200.000
G1 X3.081 Y-2.406 E38.84684 F1200.000
G92 E0
G1 Z0.800 F1200.000
G1 X3.622 Y1.491 F1200.000
G1 X1.480 Y3.633 E0.59772 F1393.894
G1 X0.933 Y3.816 F1200.000
G1 X3.815 Y0.934 E1.40187 F1393.894
G1 X3.905 Y0.478 E1.49366
G1 X0.477 Y3.907 E2.45039
G1 X0.073 Y3.945 E2.53033
G1 X3.946 Y0.071 E3.61105
G1 X3.936 Y-0.284 E3.68116
G1 X-0.282 Y3.934 E4.85815
G1 X-0.617 Y3.904 E4.92452
G1 X3.901 Y-0.614 E6.18512
G1 X3.847 Y-0.924 E6.24736
G1 X-0.922 Y3.844 E7.57788
G1 X-1.208 Y3.765 E7.63648
G1 X3.768 Y-1.211 E9.02485
G1 X3.668 Y-1.476 E9.08086
G1 X-1.483 Y3.675 E10.51829
G1 X-1.736 Y3.562 E10.57282
G1 X3.558 Y-1.731 E12.04985
G1 X3.436 Y-1.975 E12.10357
G1 X-1.973 Y3.434 E13.61289
G1 X-2.200 Y3.296 E13.66531
G1 X3.298 Y-2.203 E15.19946
G1 X3.146 Y-2.416 E15.25113
G1 X-2.414 Y3.145 E16.80266
G1 X-2.610 Y2.975 E16.85374
G1 X2.974 Y-2.609 E18.41176
G1 X2.791 Y-2.791 E18.46272
G1 X-2.792 Y2.792 E20.02073
G1 X-2.975 Y2.610 E20.07169
G1 X2.609 Y-2.974 E21.62971
G1 X2.413 Y-3.143 E21.68080
G1 X-3.144 Y2.413 E23.23130
G1 X-3.297 Y2.202 E23.28291
G1 X2.204 Y-3.300 E24.81798
G1 X1.973 Y-3.434 E24.87070
G1 X-3.434 Y1.973 E26.37942
G1 X-3.561 Y1.735 E26.43270
G1 X1.738 Y-3.564 E27.91107
G1 X1.480 Y-3.672 E27.96611
G1 X-3.672 Y1.480 E29.40370
G1 X-3.769 Y1.213 E29.45989
G1 X1.211 Y-3.768 E30.84973
G1 X0.927 Y-3.849 E30.90810
G1 X-3.842 Y0.920 E32.23881
G1 X-3.904 Y0.617 E32.29989
G1 X0.614 Y-3.901 E33.56058
G1 X0.284 Y-3.936 E33.62611
G1 X-3.933 Y0.281 E34.80272
G1 X-3.943 Y-0.074 E34.87285
G1 X-0.076 Y-3.941 E35.95176
G1 X-0.479 Y-3.904 E36.03147
G1 X-3.904 Y-0.479 E36.98718
G1 X-3.817 Y-0.931 E37.07801
G1 X-0.926 Y-3.822 E37.88482
G1 X-1.492 Y-3.621 F1200.000
G1 X-3.630 Y-1.484 E38.48134 F1393.894
G1 X-3.021 Y-2.457 F1200.000
G1 X-2.449 Y-3.029 E38.64087 F1393.894
G1 X3.072 Y2.407 F1200.000
G1 X2.422 Y3.057 E38.82217 F1393.894
G92 E0
G1 Z1.300 F1200.000
G1 X-1.484 Y3.630 F1200.000
G1 X-3.627 Y1.486 E0.59796 F1394.231
G1 X-3.819 Y0.929 F1200.000
G1 X-0.926 Y3.822 E1.40505 F1394.231
G1 X-0.471 Y3.912 E1.49647
G1 X-3.907 Y0.475 E2.45513
G1 X-3.939 Y0.079 E2.53362
G1 X-0.076 Y3.942 E3.61127
G1 X0.282 Y3.934 E3.68184
G1 X-3.940 Y-0.287 E4.85948
G1 X-3.900 Y-0.613 E4.92424
G1 X0.616 Y3.904 E6.18422
G1 X0.922 Y3.844 E6.24559
G1 X-3.847 Y-0.925 E7.57579
G1 X-3.765 Y-1.207 E7.63389
G1 X1.211 Y3.768 E9.02189
G1 X1.480 Y3.672 E9.07822
G1 X-3.672 Y-1.480 E10.51549
G1 X-3.560 Y-1.733 E10.57004
G1 X1.736 Y3.562 E12.04724
G1 X1.974 Y3.435 E12.10047
G1 X-3.435 Y-1.973 E13.60914
G1 X-3.299 Y-2.202 E13.66170
G1 X2.204 Y3.300 E15.19671
G1 X2.416 Y3.147 E15.24830
G1 X-3.147 Y-2.416 E16.80021
G1 X-2.975 Y-2.609 E16.85123
G1 X2.610 Y2.976 E18.40923
G1 X2.792 Y2.793 E18.46016
G1 X-2.793 Y-2.792 E20.01816
G1 X-2.610 Y-2.975 E20.06909
G1 X2.975 Y2.610 E21.62708
G1 X3.147 Y2.417 E21.67810
G1 X-2.413 Y-3.143 E23.22916
G1 X-2.201 Y-3.295 E23.28077
G1 X3.295 Y2.201 E24.81396
G1 X3.438 Y1.978 E24.86612
G1 X-1.975 Y-3.435 E26.37606
G1 X-1.734 Y-3.559 E26.42957
G1 X3.564 Y1.739 E27.90753
G1 X3.670 Y1.480 E27.96274
G1 X-1.484 Y-3.674 E29.40070
G1 X-1.210 Y-3.765 E29.45774
G1 X3.767 Y1.212 E30.84605
G1 X3.846 Y0.926 E30.90461
G1 X-0.926 Y-3.847 E32.23594
G1 X-0.615 Y-3.900 E32.29834
G1 X3.901 Y0.615 E33.55794
G1 X3.940 Y0.289 E33.62273
G1 X-0.287 Y-3.938 E34.80191
G1 X0.072 Y-3.944 E34.87269
G1 X3.939 Y-0.076 E35.95169
G1 X3.906 Y-0.475 E36.03062
G1 X0.475 Y-3.906 E36.98784
G1 X0.929 Y-3.817 E37.07922
G1 X3.815 Y-0.931 E37.88440
G1 X3.630 Y-1.481 F1200.000
G1 X1.493 Y-3.618 E38.48039 F1394.231
G1 X2.412 Y-3.064 F1200.000
G1 X3.078 Y-2.398 E38.66628 F1394.231
G92 E0
G1 X-2.436 Y3.042 F1200.000
G1 X-3.037 Y2.441 E0.16756 F1394.231
G92 E0

; filament used = 116.5mm (0.1cm3)

; avoid_crossing_perimeters = 1
; bed_shape = 44.7535x4.70378,44.0166x9.35603,42.7975x13.9058,41.1095x18.3031,38.9711x22.5,36.4058x26.4503,33.4415x30.1109,30.1109x33.4415,26.4503x36.4058,22.5x38.9711,18.3031x41.1095,13.9058x42.7975,9.35603x44.0166,4.70378x44.7535,0x45,-4.70378x44.7535,-9.35603x44.0166,-13.9058x42.7975,-18.3031x41.1095,-22.5x38.9711,-26.4503x36.4058,-30.1109x33.4415,-33.4415x30.1109,-36.4058x26.4503,-38.9711x22.5,-41.1095x18.3031,-42.7975x13.9058,-44.0166x9.35603,-44.7535x4.70378,-45x0,-44.7535x-4.70378,-44.0166x-9.35603,-42.7975x-13.9058,-41.1095x-18.3031,-38.9711x-22.5,-36.4058x-26.4503,-33.4415x-30.1109,-30.1109x-33.4415,-26.4503x-36.4058,-22.5x-38.9711,-18.3031x-41.1095,-13.9058x-42.7975,-9.35603x-44.0166,-4.70378x-44.7535,0x-45,4.70378x-44.7535,9.35603x-44.0166,13.9058x-42.7975,18.3031x-41.1095,22.5x-38.9711,26.4503x-36.4058,30.1109x-33.4415,33.4415x-30.1109,36.4058x-26.4503,38.9711x-22.5,41.1095x-18.3031,42.7975x-13.9058,44.0166x-9.35603,44.7535x-4.70378,45x0
; bed_temperature = 0
; before_layer_gcode = 
; bridge_acceleration = 0
; bridge_fan_speed = 100
; brim_width = 0
; complete_objects = 0
; cooling = 0
; default_acceleration = 0
; disable_fan_first_layers = 1
; duplicate_distance = 6
; end_gcode = 
; extruder_clearance_height = 20
; extruder_clearance_radius = 20
; extruder_offset = 0x0
; extrusion_axis = E
; extrusion_multiplier = 2
; fan_always_on = 0
; fan_below_layer_time = 60
; filament_colour = #FFFFFF
; filament_diameter = 1
; first_layer_acceleration = 0
; first_layer_bed_temperature = 0
; first_layer_extrusion_width = 100%
; first_layer_speed = 20
; first_layer_temperature = 200
; gcode_arcs = 0
; gcode_comments = 0
; gcode_flavor = reprap
; infill_acceleration = 0
; infill_first = 0
; layer_gcode = 
; max_fan_speed = 100
; max_print_speed = 20
; max_volumetric_speed = 1.8
; min_fan_speed = 35
; min_print_speed = 10
; min_skirt_length = 0
; notes = 
; nozzle_diameter = 0.3
; only_retract_when_crossing_perimeters = 1
; ooze_prevention = 0
; output_filename_format = [input_filename_base].gcode
; perimeter_acceleration = 0
; post_process = 
; pressure_advance = 0
; resolution = 0
; retract_before_travel = 2
; retract_layer_change = 1
; retract_length = 0
; retract_length_toolchange = 0
; retract_lift = 0
; retract_restart_extra = 0
; retract_restart_extra_toolchange = 0
; retract_speed = 30
; skirt_distance = 6
; skirt_height = 0
; skirts = 0
; slowdown_below_layer_time = 30
; spiral_vase = 0
; standby_temperature_delta = -5
; start_gcode = G28 ; home all axes
; temperature = 200
; threads = 2
; toolchange_gcode = 
; travel_speed = 20
; use_firmware_retraction = 0
; use_relative_e_distances = 0
; use_volumetric_e = 0
; vibration_limit = 0
; wipe = 0
; z_offset = 0
; dont_support_bridges = 1
; extrusion_width = 0
; first_layer_height = 0.3
; infill_only_where_needed = 0
; interface_shells = 0
; layer_height = 0.3
; raft_layers = 0
; seam_position = random
; support_material = 0
; support_material_angle = 0
; support_material_contact_distance = 0.2
; support_material_enforce_layers = 0
; support_material_extruder = 1
; support_material_extrusion_width = 0
; support_material_interface_extruder = 1
; support_material_interface_layers = 0
; support_material_interface_spacing = 0
; support_material_interface_speed = 100%
; support_material_pattern = rectilinear
; support_material_spacing = 2.5
; support_material_speed = 60
; support_material_threshold = 0
; xy_size_compensation = 0
; bottom_solid_layers = 0
; bridge_flow_ratio = 1
; bridge_speed = 20
; external_fill_pattern = rectilinear
; external_perimeter_extrusion_width = 0
; external_perimeter_speed = 15
; external_perimeters_first = 0
; extra_perimeters = 1
; fill_angle = 45
; fill_density = 100%
; fill_pattern = rectilinear
; gap_fill_speed = 15
; infill_every_layers = 1
; infill_extruder = 1
; infill_extrusion_width = 0
; infill_overlap = 50%
; infill_speed = 20
; overhangs = 1
; perimeter_extruder = 1
; perimeter_extrusion_width = 0
; perimeter_speed = 15
; perimeters = 0
; small_perimeter_speed = 15
; solid_infill_below_area = 70
; solid_infill_every_layers = 0
; solid_infill_extruder = 1
; solid_infill_extrusion_width = 0
; solid_infill_speed = 60
; thin_walls = 1
; top_infill_extrusion_width = 0
; top_solid_infill_speed = 50
; top_solid_layers = 0
