; generated by Slic3r 1.2.9 on 2019-10-17 at 17:49:00

; external perimeters extrusion width = 0.30mm
; perimeters extrusion width = 0.31mm
; infill extrusion width = 0.31mm
; solid infill extrusion width = 0.31mm
; top infill extrusion width = 0.31mm

M104 S200 ; set temperature
G28 ; home all axes
M109 S200 ; wait for temperature to be reached
G21 ; set units to millimeters
G90 ; use absolute coordinates
M82 ; use absolute distances for extrusion
G92 E0
G1 Z0.300 F900.000
G1 X-3.025 Y2.464 F900.000
G1 X-2.445 Y3.044 E0.15198 F900.000
G1 X-1.535 Y3.611 F900.000
G1 X-3.612 Y1.534 E0.69625 F900.000
G1 X-3.802 Y1.001 F900.000
G1 X-0.998 Y3.805 E1.43087 F900.000
G1 X-0.562 Y3.898 E1.51347
G1 X-3.902 Y0.558 E2.38852
G1 X-3.937 Y0.180 E2.45895
G1 X-0.173 Y3.944 E3.44542
G1 X0.170 Y3.944 E3.50885
G1 X-3.948 Y-0.174 E4.58770
G1 X-3.919 Y-0.489 E4.64628
G1 X0.494 Y3.925 E5.80271
G1 X0.788 Y3.876 E5.85796
G1 X-3.878 Y-0.790 E7.08057
G1 X-3.811 Y-1.066 E7.13315
G1 X1.066 Y3.811 E8.41104
G1 X1.332 Y3.734 E8.46228
G1 X-3.732 Y-1.330 E9.78903
G1 X-3.635 Y-1.576 E9.83807
G1 X1.581 Y3.640 E11.20476
G1 X1.811 Y3.526 E11.25222
G1 X-3.528 Y-1.812 E12.65117
G1 X-3.403 Y-2.030 E12.69773
G1 X2.034 Y3.407 E14.12236
G1 X2.244 Y3.274 E14.16843
G1 X-3.275 Y-2.245 E15.61456
G1 X-3.130 Y-2.443 E15.66005
G1 X2.440 Y3.127 E17.11965
G1 X2.623 Y2.967 E17.16468
G1 X-2.966 Y-2.623 E18.62926
G1 X-2.795 Y-2.794 E18.67419
G1 X2.794 Y2.795 E20.13877
G1 X2.966 Y2.624 E20.18371
G1 X-2.623 Y-2.966 E21.64828
G1 X-2.440 Y-3.125 E21.69333
G1 X3.127 Y2.442 E23.15217
G1 X3.272 Y2.244 E23.19767
G1 X-2.244 Y-3.272 E24.64300
G1 X-2.032 Y-3.403 E24.68917
G1 X3.405 Y2.033 E26.11377
G1 X3.527 Y1.813 E26.16049
G1 X-1.812 Y-3.526 E27.55955
G1 X-1.578 Y-3.635 E27.60741
G1 X3.634 Y1.577 E28.97311
G1 X3.734 Y1.334 E29.02183
G1 X-1.329 Y-3.729 E30.34863
G1 X-1.071 Y-3.814 E30.39906
G1 X3.811 Y1.068 E31.67810
G1 X3.878 Y0.792 E31.73067
G1 X-0.794 Y-3.880 E32.95482
G1 X-0.492 Y-3.921 E33.01130
G1 X3.923 Y0.494 E34.16807
G1 X3.951 Y0.179 E34.22673
G1 X-0.174 Y-3.946 E35.30759
G1 X0.175 Y-3.940 E35.37235
G1 X3.941 Y-0.174 E36.35911
G1 X3.905 Y-0.553 E36.42970
G1 X0.561 Y-3.897 E37.30586
G1 X0.995 Y-3.806 E37.38805
G1 X3.812 Y-0.989 E38.12616
G1 X3.616 Y-1.528 F900.000
G1 X1.524 Y-3.620 E38.67418 F900.000
G1 X2.420 Y-3.067 F900.000
G1 X3.072 Y-2.415 E38.84494 F900.000
G92 E0
G1 Z0.600 F900.000
G1 X3.621 Y1.493 F900.000
G1 X1.480 Y3.633 E0.59732 F871.184
G1 X0.928 Y3.821 F900.000
G1 X3.815 Y0.934 E1.40293 F871.184
G1 X3.905 Y0.478 E1.49462
G1 X0.477 Y3.906 E2.45121
G1 X0.079 Y3.939 E2.52999
G1 X3.946 Y0.071 E3.60906
G1 X3.936 Y-0.284 E3.67918
G1 X-0.282 Y3.934 E4.85616
G1 X-0.617 Y3.904 E4.92253
G1 X3.907 Y-0.619 E6.18477
G1 X3.844 Y-0.922 E6.24567
G1 X-0.922 Y3.844 E7.57545
G1 X-1.213 Y3.770 E7.63469
G1 X3.770 Y-1.213 E9.02492
G1 X3.671 Y-1.480 E9.08105
G1 X-1.478 Y3.670 E10.51788
G1 X-1.737 Y3.563 E10.57309
G1 X3.565 Y-1.738 E12.05239
G1 X3.434 Y-1.973 E12.10540
G1 X-1.974 Y3.435 E13.61457
G1 X-2.200 Y3.296 E13.66693
G1 X3.299 Y-2.203 E15.20137
G1 X3.146 Y-2.415 E15.25297
G1 X-2.416 Y3.147 E16.80483
G1 X-2.610 Y2.975 E16.85588
G1 X2.974 Y-2.609 E18.41389
G1 X2.791 Y-2.791 E18.46484
G1 X-2.792 Y2.792 E20.02285
G1 X-2.975 Y2.610 E20.07381
G1 X2.609 Y-2.974 E21.63182
G1 X2.413 Y-3.143 E21.68290
G1 X-3.146 Y2.416 E23.23409
G1 X-3.297 Y2.202 E23.28580
G1 X2.204 Y-3.300 E24.82089
G1 X1.973 Y-3.434 E24.87361
G1 X-3.434 Y1.973 E26.38244
G1 X-3.558 Y1.732 E26.43593
G1 X1.736 Y-3.562 E27.91317
G1 X1.479 Y-3.670 E27.96817
G1 X-3.672 Y1.481 E29.40540
G1 X-3.764 Y1.208 E29.46222
G1 X1.210 Y-3.766 E30.85011
G1 X0.927 Y-3.848 E30.90826
G1 X-3.845 Y0.924 E32.23977
G1 X-3.901 Y0.614 E32.30176
G1 X0.614 Y-3.901 E33.56169
G1 X0.286 Y-3.939 E33.62675
G1 X-3.933 Y0.281 E34.80412
G1 X-3.943 Y-0.074 E34.87424
G1 X-0.078 Y-3.939 E35.95270
G1 X-0.479 Y-3.904 E36.03205
G1 X-3.904 Y-0.479 E36.98776
G1 X-3.817 Y-0.931 E37.07859
G1 X-0.935 Y-3.813 E37.88268
G1 X-1.492 Y-3.621 F900.000
G1 X-3.630 Y-1.484 E38.47920 F871.184
G1 X-3.021 Y-2.457 F900.000
G1 X-2.449 Y-3.029 E38.63874 F871.184
G92 E0
G1 X3.072 Y2.407 F900.000
G1 X2.422 Y3.057 E0.18130 F871.184
G92 E0

; filament used = 77.7mm (0.1cm3)

; avoid_crossing_perimeters = 1
; bed_shape = 44.7535x4.70378,44.0166x9.35603,42.7975x13.9058,41.1095x18.3031,38.9711x22.5,36.4058x26.4503,33.4415x30.1109,30.1109x33.4415,26.4503x36.4058,22.5x38.9711,18.3031x41.1095,13.9058x42.7975,9.35603x44.0166,4.70378x44.7535,0x45,-4.70378x44.7535,-9.35603x44.0166,-13.9058x42.7975,-18.3031x41.1095,-22.5x38.9711,-26.4503x36.4058,-30.1109x33.4415,-33.4415x30.1109,-36.4058x26.4503,-38.9711x22.5,-41.1095x18.3031,-42.7975x13.9058,-44.0166x9.35603,-44.7535x4.70378,-45x0,-44.7535x-4.70378,-44.0166x-9.35603,-42.7975x-13.9058,-41.1095x-18.3031,-38.9711x-22.5,-36.4058x-26.4503,-33.4415x-30.1109,-30.1109x-33.4415,-26.4503x-36.4058,-22.5x-38.9711,-18.3031x-41.1095,-13.9058x-42.7975,-9.35603x-44.0166,-4.70378x-44.7535,0x-45,4.70378x-44.7535,9.35603x-44.0166,13.9058x-42.7975,18.3031x-41.1095,22.5x-38.9711,26.4503x-36.4058,30.1109x-33.4415,33.4415x-30.1109,36.4058x-26.4503,38.9711x-22.5,41.1095x-18.3031,42.7975x-13.9058,44.0166x-9.35603,44.7535x-4.70378,45x0
; bed_temperature = 0
; before_layer_gcode = 
; bridge_acceleration = 0
; bridge_fan_speed = 100
; brim_width = 0
; complete_objects = 0
; cooling = 0
; default_acceleration = 0
; disable_fan_first_layers = 1
; duplicate_distance = 6
; end_gcode = 
; extruder_clearance_height = 20
; extruder_clearance_radius = 20
; extruder_offset = 0x0
; extrusion_axis = E
; extrusion_multiplier = 2
; fan_always_on = 0
; fan_below_layer_time = 60
; filament_colour = #FFFFFF
; filament_diameter = 1
; first_layer_acceleration = 0
; first_layer_bed_temperature = 0
; first_layer_extrusion_width = 100%
; first_layer_speed = 15
; first_layer_temperature = 200
; gcode_arcs = 0
; gcode_comments = 0
; gcode_flavor = reprap
; infill_acceleration = 0
; infill_first = 0
; layer_gcode = 
; max_fan_speed = 100
; max_print_speed = 15
; max_volumetric_speed = 1.125
; min_fan_speed = 35
; min_print_speed = 10
; min_skirt_length = 0
; notes = 
; nozzle_diameter = 0.3
; only_retract_when_crossing_perimeters = 1
; ooze_prevention = 0
; output_filename_format = [input_filename_base].gcode
; perimeter_acceleration = 0
; post_process = 
; pressure_advance = 0
; resolution = 0
; retract_before_travel = 2
; retract_layer_change = 1
; retract_length = 0
; retract_length_toolchange = 0
; retract_lift = 0
; retract_restart_extra = 0
; retract_restart_extra_toolchange = 0
; retract_speed = 30
; skirt_distance = 6
; skirt_height = 0
; skirts = 0
; slowdown_below_layer_time = 30
; spiral_vase = 0
; standby_temperature_delta = -5
; start_gcode = G28 ; home all axes
; temperature = 200
; threads = 2
; toolchange_gcode = 
; travel_speed = 15
; use_firmware_retraction = 0
; use_relative_e_distances = 0
; use_volumetric_e = 0
; vibration_limit = 0
; wipe = 0
; z_offset = 0
; dont_support_bridges = 1
; extrusion_width = 0
; first_layer_height = 0.3
; infill_only_where_needed = 0
; interface_shells = 0
; layer_height = 0.3
; raft_layers = 0
; seam_position = random
; support_material = 0
; support_material_angle = 0
; support_material_contact_distance = 0.2
; support_material_enforce_layers = 0
; support_material_extruder = 1
; support_material_extrusion_width = 0
; support_material_interface_extruder = 1
; support_material_interface_layers = 0
; support_material_interface_spacing = 0
; support_material_interface_speed = 100%
; support_material_pattern = rectilinear
; support_material_spacing = 2.5
; support_material_speed = 60
; support_material_threshold = 0
; xy_size_compensation = 0
; bottom_solid_layers = 0
; bridge_flow_ratio = 1
; bridge_speed = 15
; external_fill_pattern = rectilinear
; external_perimeter_extrusion_width = 0
; external_perimeter_speed = 15
; external_perimeters_first = 0
; extra_perimeters = 1
; fill_angle = 45
; fill_density = 100%
; fill_pattern = rectilinear
; gap_fill_speed = 15
; infill_every_layers = 1
; infill_extruder = 1
; infill_extrusion_width = 0
; infill_overlap = 50%
; infill_speed = 15
; overhangs = 1
; perimeter_extruder = 1
; perimeter_extrusion_width = 0
; perimeter_speed = 15
; perimeters = 0
; small_perimeter_speed = 15
; solid_infill_below_area = 70
; solid_infill_every_layers = 0
; solid_infill_extruder = 1
; solid_infill_extrusion_width = 0
; solid_infill_speed = 60
; thin_walls = 1
; top_infill_extrusion_width = 0
; top_solid_infill_speed = 50
; top_solid_layers = 0
