; generated by Slic3r 1.3.1-dev on 2019-09-25 at 17:01:00

; external perimeters extrusion width = 0.33mm (0.48mm^3/s)
; perimeters extrusion width = 0.34mm (0.49mm^3/s)
; infill extrusion width = 0.34mm (0.49mm^3/s)
; solid infill extrusion width = 0.34mm (0.07mm^3/s)
; top infill extrusion width = 0.34mm (0.07mm^3/s)

G28 ; Home all axes 
M109 S200 ; wait for temperature to be reached
G21 ; set units to millimeters
G90 ; use absolute coordinates
M82 ; use absolute distances for extrusion
G1 Z10 F500; move plate down
G1 Z1.0 F500;
G92 E0
; Filament gcode

; Filament gcode

G21 ; set units to millimeters
G90 ; use absolute coordinates
M82 ; use absolute distances for extrusion
G92 E0
G92 E0
G1 Z0.250 F480.000
G1 X-3.058 Y2.302 F480.000
G1 F420
G1 X-3.357 Y1.758 E0.07761
G1 X-3.463 Y1.490 E0.11359
G1 X-3.581 Y1.101 E0.16438
G1 X-3.664 Y0.645 E0.22234
G1 X-3.692 Y0.182 E0.28027
G1 X-3.664 Y-0.282 E0.33844
G1 X-3.630 Y-0.508 E0.36695
G1 X-3.519 Y-0.961 E0.42526
G1 X-3.423 Y-1.232 E0.46121
G1 X-3.256 Y-1.602 E0.51199
G1 X-3.017 Y-2.002 E0.57019
G1 X-2.883 Y-2.187 E0.59870
G1 X-2.576 Y-2.538 E0.65710
G1 X-2.411 Y-2.696 E0.68562
G1 X-2.047 Y-2.986 E0.74378
G1 X-1.653 Y-3.230 E0.80171
G1 X-1.231 Y-3.425 E0.85988
G1 X-1.016 Y-3.502 E0.88839
G1 X-0.566 Y-3.619 E0.94656
G1 X-0.105 Y-3.682 E1.00463
G1 X0.182 Y-3.691 E1.04058
G1 X0.588 Y-3.671 E1.09136
G1 X1.045 Y-3.595 E1.14933
G1 X1.492 Y-3.465 E1.20749
G1 X1.706 Y-3.381 E1.23624
G1 X1.915 Y-3.284 E1.26499
G1 X2.318 Y-3.051 E1.32315
G1 X2.689 Y-2.773 E1.38108
G1 X3.025 Y-2.452 E1.43925
G1 X3.175 Y-2.280 E1.46776
G1 X3.448 Y-1.904 E1.52593
G1 X3.675 Y-1.497 E1.58410
G1 X3.769 Y-1.287 E1.61284
G1 X3.849 Y-1.072 E1.64159
G1 X3.973 Y-0.623 E1.69975
G1 X4.042 Y-0.165 E1.75769
G1 X4.056 Y0.300 E1.81585
G1 X4.043 Y0.528 E1.84436
G1 X3.973 Y0.988 E1.90253
G1 X3.850 Y1.436 E1.96060
G1 X3.745 Y1.704 E1.99655
G1 X3.567 Y2.069 E2.04734
G1 X3.317 Y2.461 E2.10544
G1 X3.139 Y2.686 E2.14139
G1 X2.860 Y2.984 E2.19241
G1 X2.690 Y3.137 E2.22095
G1 X2.316 Y3.417 E2.27935
G1 X2.122 Y3.537 E2.30787
G1 X1.706 Y3.745 E2.36603
G1 X1.268 Y3.902 E2.42420
G1 X1.047 Y3.960 E2.45271
G1 X0.588 Y4.036 E2.51088
G1 X0.123 Y4.057 E2.56904
G1 X-0.105 Y4.047 E2.59756
G1 X-0.566 Y3.984 E2.65572
G1 X-1.016 Y3.867 E2.71389
G1 X-1.233 Y3.789 E2.74263
G1 X-1.444 Y3.699 E2.77138
G1 X-1.854 Y3.479 E2.82955
G1 X-2.233 Y3.212 E2.88748
G1 X-2.577 Y2.902 E2.94541
G1 X-2.883 Y2.551 E3.00358
G1 X-3.034 Y2.340 E3.03603
G92 E0
G1 X-2.399 Y-2.376 F480.000
G1 F420
G1 X-1.909 Y-2.790 E0.08011
G1 X-1.539 Y-3.018 E0.13445
G1 X-1.178 Y-3.186 E0.18420
G1 X-3.184 Y-1.180 E0.53869
G1 X-3.289 Y-0.892 E0.57708
G1 X-3.363 Y-0.589 E0.61604
G1 X-0.586 Y-3.367 E1.10698
G1 X-0.101 Y-3.441 E1.16834
G1 X-3.434 Y-0.107 E1.75761
G1 X-3.444 Y0.313 E1.81021
G1 X0.314 Y-3.445 E2.47460
G1 X0.692 Y-3.411 E2.52197
G1 X-3.412 Y0.693 E3.24744
G1 X-3.349 Y1.041 E3.29165
G1 X1.039 Y-3.347 E4.06738
G1 X1.358 Y-3.254 E4.10882
G1 X-3.253 Y1.356 E4.92394
G1 X-3.140 Y1.655 E4.96379
G1 X1.651 Y-3.136 E5.81075
G1 X1.926 Y-3.001 E5.84914
G1 X-3.001 Y1.927 E6.72019
G1 X-2.843 Y2.180 E6.75750
G1 X2.187 Y-2.850 E7.64670
G1 X2.422 Y-2.674 E7.68341
G1 X-2.676 Y2.424 E8.58465
G1 X-2.485 Y2.644 E8.62108
G1 X2.644 Y-2.485 E9.52766
G1 X2.852 Y-2.286 E9.56358
G1 X-2.278 Y2.849 E10.47084
G1 X-2.059 Y3.041 E10.50726
G1 X3.040 Y-2.058 E11.40870
G1 X3.213 Y-1.820 E11.44550
G1 X-1.818 Y3.211 E12.33487
G1 X-1.560 Y3.364 E12.37236
G1 X3.365 Y-1.561 E13.24309
G1 X3.502 Y-1.287 E13.28139
G1 X-1.288 Y3.503 E14.12818
G1 X-0.993 Y3.619 E14.16784
G1 X3.622 Y-0.995 E14.98355
G1 X3.711 Y-0.673 E15.02533
G1 X-0.672 Y3.709 E15.80004
G1 X-0.326 Y3.775 E15.84400
G1 X3.776 Y-0.327 E16.56909
G1 X3.809 Y0.051 E16.61649
G1 X0.046 Y3.814 E17.28164
G1 X0.470 Y3.801 E17.33458
G1 X3.806 Y0.465 E17.92442
G1 X3.736 Y0.946 E17.98522
G1 X0.949 Y3.733 E18.47790
G1 X1.197 Y3.673 E18.50979
G1 X1.545 Y3.549 E18.55597
G1 X3.551 Y1.542 E18.91060
G1 X3.358 Y1.952 E18.96716
G1 X3.122 Y2.322 E19.02201
G1 X2.957 Y2.530 E19.05521
G1 X2.690 Y2.814 E19.10396
G1 Z0.500 F480.000
G92 E0
G1 X-1.123 Y-3.421 F480.000
G1 F420
G1 X-0.558 Y-3.580 E0.10332
G1 X-0.103 Y-3.642 E0.18407
G1 X0.299 Y-3.649 E0.25485
G1 X0.582 Y-3.632 E0.30480
G1 X1.036 Y-3.556 E0.38575
G1 X1.479 Y-3.427 E0.46688
G1 X1.896 Y-3.249 E0.54671
G1 X2.296 Y-3.018 E0.62784
G1 X2.663 Y-2.743 E0.70853
G1 X2.996 Y-2.424 E0.78966
G1 X3.144 Y-2.255 E0.82915
G1 X3.415 Y-1.882 E0.91028
G1 X3.638 Y-1.481 E0.99097
G1 X3.812 Y-1.057 E1.07167
G1 X3.935 Y-0.613 E1.15279
G1 X3.975 Y-0.389 E1.19273
G1 X4.002 Y-0.164 E1.23266
G1 X4.016 Y0.300 E1.31422
G1 X4.003 Y0.524 E1.35372
G1 X3.934 Y0.980 E1.43484
G1 X3.812 Y1.422 E1.51554
G1 X3.637 Y1.848 E1.59667
G1 X3.534 Y2.048 E1.63616
G1 X3.285 Y2.437 E1.71735
G1 X3.031 Y2.748 E1.78813
G1 X2.833 Y2.955 E1.83851
G1 X2.665 Y3.106 E1.87827
G1 X2.294 Y3.384 E1.95983
G1 X2.103 Y3.502 E1.99933
G1 X1.690 Y3.709 E2.08052
G1 X1.312 Y3.846 E2.15130
G1 X1.038 Y3.921 E2.20125
G1 X0.584 Y3.996 E2.28220
G1 X0.123 Y4.017 E2.36333
G1 X-0.101 Y4.007 E2.40283
G1 X-0.558 Y3.945 E2.48402
G1 X-0.948 Y3.845 E2.55480
G1 X-1.217 Y3.753 E2.60474
G1 X-1.634 Y3.559 E2.68576
G1 X-1.978 Y3.349 E2.75654
G1 X-2.207 Y3.181 E2.80649
G1 X-2.549 Y2.873 E2.88750
G1 X-2.815 Y2.571 E2.95828
G1 X-2.985 Y2.344 E3.00823
G1 X-3.221 Y1.948 E3.08925
G1 X-3.386 Y1.582 E3.16003
G1 X-3.481 Y1.314 E3.20997
G1 X-3.591 Y0.865 E3.29136
G1 X-3.624 Y0.643 E3.33086
G1 X-3.652 Y0.182 E3.41199
G1 X-3.624 Y-0.278 E3.49311
G1 X-3.591 Y-0.500 E3.53267
G1 X-3.496 Y-0.894 E3.60389
G1 X-3.408 Y-1.164 E3.65383
G1 X-3.220 Y-1.586 E3.73522
G1 X-3.110 Y-1.782 E3.77472
G1 X-2.850 Y-2.163 E3.85585
G1 X-2.547 Y-2.511 E3.93698
G1 X-2.385 Y-2.666 E3.97647
G1 X-2.024 Y-2.953 E4.05760
G1 X-1.634 Y-3.194 E4.13829
G1 X-1.166 Y-3.406 E4.22871
G92 E0
G1 X2.793 Y-2.229 F480.000
G1 F420
G1 X2.480 Y-2.528 E0.07797
G1 X2.140 Y-2.783 E0.15447
G1 X1.770 Y-2.997 E0.23141
G1 X1.514 Y-3.106 E0.28156
G1 X3.470 Y-1.150 E0.77944
G1 X3.545 Y-0.966 E0.81530
G1 X3.657 Y-0.561 E0.89088
G1 X0.929 Y-3.289 E1.58526
G1 X0.459 Y-3.358 E1.67085
G1 X3.723 Y-0.093 E2.50179
G1 X3.733 Y0.319 E2.57599
G1 X0.051 Y-3.363 E3.51330
G1 X-0.316 Y-3.329 E3.57973
G1 X3.695 Y0.682 E4.60072
G1 X3.631 Y1.020 E4.66270
G1 X-0.654 Y-3.265 E5.75344
G1 X-0.969 Y-3.178 E5.81229
G1 X3.544 Y1.335 E6.96105
G1 X3.427 Y1.620 E7.01649
G1 X-1.254 Y-3.061 E8.20798
G1 X-1.526 Y-2.931 E8.26223
G1 X3.298 Y1.892 E9.49002
G1 X3.142 Y2.138 E9.54245
G1 X-1.774 Y-2.778 E10.79387
G1 X-2.006 Y-2.608 E10.84564
G1 X2.975 Y2.373 E12.11356
G1 X2.790 Y2.590 E12.16489
G1 X-2.227 Y-2.427 E13.44222
G1 X-2.425 Y-2.223 E13.49337
G1 X2.587 Y2.789 E14.76924
G1 X2.371 Y2.975 E14.82053
G1 X-2.612 Y-2.009 E16.08911
G1 X-2.777 Y-1.772 E16.14107
G1 X2.141 Y3.147 E17.39316
G1 X1.888 Y3.295 E17.44603
G1 X-2.932 Y-1.525 E18.67300
G1 X-3.061 Y-1.252 E18.72734
G1 X1.620 Y3.429 E19.91890
G1 X1.329 Y3.540 E19.97491
G1 X-3.177 Y-0.966 E21.12202
G1 X-3.260 Y-0.647 E21.18126
G1 X1.021 Y3.634 E22.27111
G1 X0.680 Y3.695 E22.33340
G1 X-3.329 Y-0.315 E23.35411
G1 X-3.362 Y0.054 E23.42077
G1 X0.310 Y3.727 E24.35570
G1 X-0.094 Y3.724 E24.42859
G1 X-3.353 Y0.465 E25.25809
G1 X-3.344 Y0.613 E25.28477
G1 X-3.284 Y0.936 E25.34396
G1 X-0.568 Y3.652 E26.03525
G1 X-0.867 Y3.576 E26.09086
G1 X-1.147 Y3.475 E26.14434
G1 X-3.108 Y1.514 E26.64357
G1 X-2.971 Y1.818 E26.70366
G1 X-2.751 Y2.187 E26.78105
G1 X-2.596 Y2.394 E26.82750
G1 X-2.350 Y2.674 E26.89457
G92 E0
; Filament-specific end gcode 
;END gcode for filament

; Filament-specific end gcode 
;END gcode for filament


G92 E0
G28 X0  ; home X axis
M84     ; disable motors

M104 S0 ; set temperature
; filament used = 53.3mm (0.0cm3)
; total filament cost = 0.0

; avoid_crossing_perimeters = 1
; bed_shape = -200x-200,200x-200,200x200,-200x200
; bed_temperature = 0
; before_layer_gcode = 
; between_objects_gcode = 
; bridge_acceleration = 0
; bridge_fan_speed = 100
; brim_connections_width = 0
; brim_width = 0
; complete_objects = 0
; cooling = 0
; default_acceleration = 0
; disable_fan_first_layers = 1
; duplicate_distance = 6
; end_filament_gcode = "; Filament-specific end gcode \n;END gcode for filament\n";"; Filament-specific end gcode \n;END gcode for filament\n"
; end_gcode = \nG92 E0\nG28 X0  ; home X axis\nM84     ; disable motors\n
; extruder_clearance_height = 20
; extruder_clearance_radius = 20
; extruder_offset = 0x0,0x0
; extrusion_axis = E
; extrusion_multiplier = 2,2
; fan_always_on = 0
; fan_below_layer_time = 60
; filament_colour = #FFFFFF
; filament_cost = 0,0
; filament_density = 0
; filament_diameter = 1,1
; filament_max_volumetric_speed = 0
; filament_notes = ;
; first_layer_acceleration = 0
; first_layer_bed_temperature = 0
; first_layer_extrusion_width = 100%
; first_layer_speed = 100%
; first_layer_temperature = 200,200
; gcode_arcs = 0
; gcode_comments = 0
; gcode_flavor = repetier
; has_heatbed = 0
; infill_acceleration = 0
; infill_first = 0
; interior_brim_width = 0
; label_printed_objects = 0
; layer_gcode = 
; max_fan_speed = 100
; max_layer_height = 0.3,0.3
; max_print_speed = 80
; max_volumetric_speed = 60
; min_fan_speed = 35
; min_layer_height = 0.1,0.1
; min_print_speed = 10
; min_skirt_length = 0
; notes = 
; nozzle_diameter = 0.3,0.3
; only_retract_when_crossing_perimeters = 1
; ooze_prevention = 0
; output_filename_format = [input_filename_base].gcode
; perimeter_acceleration = 0
; post_process = 
; pressure_advance = 0
; printer_notes = 
; resolution = 0
; retract_before_travel = 0,0
; retract_layer_change = 0,0
; retract_length = 0,0
; retract_length_toolchange = 0,0
; retract_lift = 0,0
; retract_lift_above = 0,0
; retract_lift_below = 0,0
; retract_restart_extra = 0,0
; retract_restart_extra_toolchange = 0,0
; retract_speed = 1000,1000
; skirt_distance = 6
; skirt_height = 0
; skirts = 0
; slowdown_below_layer_time = 30
; spiral_vase = 0
; standby_temperature_delta = -5
; start_filament_gcode = "; Filament gcode\n";"; Filament gcode\n"
; start_gcode = G28 ; Home all axes \nM109 S200 ; wait for temperature to be reached\nG21 ; set units to millimeters\nG90 ; use absolute coordinates\nM82 ; use absolute distances for extrusion\nG1 Z10 F500; move plate down\nG1 Z1.0 F500;\nG92 E0
; temperature = 200,200
; threads = 8
; toolchange_gcode = 
; travel_speed = 8
; use_firmware_retraction = 0
; use_relative_e_distances = 0
; use_set_and_wait_bed = 0
; use_set_and_wait_extruder = 0
; use_volumetric_e = 0
; vibration_limit = 0
; wipe = 0,0
; z_offset = 0
; z_steps_per_mm = 0
; adaptive_slicing = 0
; adaptive_slicing_quality = 75%
; dont_support_bridges = 1
; extrusion_width = 0
; first_layer_height = 0.25
; infill_only_where_needed = 0
; interface_shells = 0
; layer_height = 0.25
; match_horizontal_surfaces = 0
; raft_layers = 0
; regions_overlap = 0
; seam_position = random
; sequential_print_priority = 0
; support_material = 0
; support_material_angle = 0
; support_material_buildplate_only = 0
; support_material_contact_distance = 0.2
; support_material_enforce_layers = 0
; support_material_extruder = 1
; support_material_extrusion_width = 0
; support_material_interface_extruder = 1
; support_material_interface_extrusion_width = 0
; support_material_interface_layers = 0
; support_material_interface_spacing = 0
; support_material_interface_speed = 1
; support_material_max_layers = 0
; support_material_pattern = rectilinear
; support_material_pillar_size = 2.5
; support_material_pillar_spacing = 10
; support_material_spacing = 2.5
; support_material_speed = 1
; support_material_threshold = 60%
; xy_size_compensation = 0
; bottom_infill_pattern = rectilinear
; bottom_solid_layers = 0
; bridge_flow_ratio = 1
; bridge_speed = 7
; external_perimeter_extrusion_width = 0
; external_perimeter_speed = 7
; external_perimeters_first = 0
; extra_perimeters = 1
; fill_angle = 45
; fill_density = 100%
; fill_gaps = 0
; fill_pattern = rectilinear
; gap_fill_speed = 1
; infill_every_layers = 1
; infill_extruder = 1
; infill_extrusion_width = 0
; infill_overlap = 15
; infill_speed = 7
; min_shell_thickness = 0
; min_top_bottom_shell_thickness = 0
; overhangs = 1
; perimeter_extruder = 1
; perimeter_extrusion_width = 0
; perimeter_speed = 7
; perimeters = 1
; small_perimeter_speed = 7
; solid_infill_below_area = 70
; solid_infill_every_layers = 0
; solid_infill_extruder = 1
; solid_infill_extrusion_width = 0
; solid_infill_speed = 1
; thin_walls = 1
; top_infill_extrusion_width = 0
; top_infill_pattern = rectilinear
; top_solid_infill_speed = 1
; top_solid_layers = 0

