; generated by Slic3r 1.2.9 on 2019-10-17 at 17:39:38

; external perimeters extrusion width = 0.30mm
; perimeters extrusion width = 0.34mm
; infill extrusion width = 0.34mm
; solid infill extrusion width = 0.34mm
; top infill extrusion width = 0.34mm

M104 S200 ; set temperature
G28 ; home all axes
M109 S200 ; wait for temperature to be reached
G21 ; set units to millimeters
G90 ; use absolute coordinates
M82 ; use absolute distances for extrusion
G92 E0
G1 Z0.250 F900.000
G1 X-3.030 Y2.487 F900.000
G1 X-2.467 Y3.050 E0.10142 F900.000
G1 X-1.671 Y3.563 F900.000
G1 X-3.562 Y1.672 E0.44194 F900.000
G1 X-1.186 Y3.765 F900.000
G1 X-3.756 Y1.195 E0.90479 F900.000
G1 X-3.866 Y0.802 E0.95679
G1 X-0.801 Y3.867 E1.50877
G1 X-0.455 Y3.930 E1.55351
G1 X-3.929 Y0.456 E2.17904
G1 X-3.951 Y0.152 E2.21794
G1 X-0.150 Y3.953 E2.90247
G1 X0.136 Y3.956 E2.93889
G1 X-3.958 Y-0.139 E3.67628
G1 X-3.941 Y-0.405 E3.71021
G1 X0.407 Y3.944 E4.49329
G1 X0.655 Y3.909 E4.52519
G1 X-3.910 Y-0.656 E5.34730
G1 X-3.863 Y-0.892 E5.37789
G1 X0.896 Y3.867 E6.23483
G1 X1.123 Y3.811 E6.26458
G1 X-3.807 Y-1.119 E7.15237
G1 X-3.740 Y-1.334 E7.18110
G1 X1.333 Y3.738 E8.09449
G1 X1.541 Y3.663 E8.12266
G1 X-3.661 Y-1.539 E9.05938
G1 X-3.573 Y-1.734 E9.08661
G1 X1.733 Y3.573 E10.04220
G1 X1.922 Y3.479 E10.06905
G1 X-3.478 Y-1.921 E11.04144
G1 X-3.372 Y-2.098 E11.06770
G1 X2.100 Y3.374 E12.05314
G1 X2.271 Y3.262 E12.07914
G1 X-3.265 Y-2.274 E13.07589
G1 X-3.146 Y-2.437 E13.10167
G1 X2.436 Y3.144 E14.10683
G1 X2.588 Y3.013 E14.13236
G1 X-3.013 Y-2.587 E15.14084
G1 X-2.871 Y-2.729 E15.16631
G1 X2.729 Y2.871 E16.17479
G1 X2.871 Y2.730 E16.20025
G1 X-2.730 Y-2.870 E17.20873
G1 X-2.588 Y-3.012 E17.23420
G1 X3.012 Y2.589 E18.24268
G1 X3.142 Y2.436 E18.26823
G1 X-2.438 Y-3.144 E19.27300
G1 X-2.274 Y-3.263 E19.29878
G1 X3.261 Y2.272 E20.29554
G1 X3.375 Y2.103 E20.32147
G1 X-2.099 Y-3.371 E21.30730
G1 X-1.925 Y-3.479 E21.33347
G1 X3.476 Y1.922 E22.30605
G1 X3.577 Y1.740 E22.33255
G1 X-1.734 Y-3.572 E23.28898
G1 X-1.541 Y-3.661 E23.31610
G1 X3.660 Y1.539 E24.25253
G1 X3.742 Y1.338 E24.28014
G1 X-1.338 Y-3.741 E25.19483
G1 X-1.120 Y-3.806 E25.22378
G1 X3.806 Y1.120 E26.11079
G1 X3.867 Y0.898 E26.14007
G1 X-0.895 Y-3.864 E26.99767
G1 X-0.657 Y-3.909 E27.02856
G1 X3.909 Y0.657 E27.85068
G1 X3.946 Y0.411 E27.88233
G1 X-0.408 Y-3.942 E28.66626
G1 X-0.141 Y-3.959 E28.70026
G1 X3.962 Y0.144 E29.43914
G1 X3.953 Y-0.147 E29.47628
G1 X0.148 Y-3.953 E30.16157
G1 X0.456 Y-3.927 E30.20094
G1 X3.926 Y-0.457 E30.82586
G1 X3.873 Y-0.793 E30.86916
G1 X0.795 Y-3.871 E31.42344
G1 X1.188 Y-3.761 E31.47535
G1 X3.765 Y-1.184 E31.93952
G1 X3.564 Y-1.668 F900.000
G1 X1.656 Y-3.576 E32.28312 F900.000
G1 X2.442 Y-3.073 F900.000
G1 X3.088 Y-2.427 E32.39945 F900.000
G92 E0
G1 Z0.500 F900.000
G1 X3.643 Y1.409 F900.000
G1 X1.403 Y3.649 E0.57624 F944.809
G1 X0.808 Y3.840 E0.69004
G1 X3.837 Y0.811 E1.46940
G1 X3.918 Y0.326 E1.55894
G1 X0.326 Y3.918 E2.48320
G1 X-0.098 Y3.937 E2.56026
G1 X3.933 Y-0.094 E3.59729
G1 X3.913 Y-0.478 E3.66727
G1 X-0.476 Y3.911 E4.79645
G1 X-0.824 Y3.855 E4.86062
G1 X3.860 Y-0.829 E6.06577
G1 X3.776 Y-1.149 E6.12602
G1 X-1.149 Y3.776 E7.39335
G1 X-1.454 Y3.677 E7.45170
G1 X3.678 Y-1.455 E8.77222
G1 X3.552 Y-1.733 E8.82777
G1 X-1.735 Y3.554 E10.18818
G1 X-1.998 Y3.413 E10.24247
G1 X3.417 Y-2.002 E11.63564
G1 X3.257 Y-2.247 E11.68879
G1 X-2.245 Y3.256 E13.10451
G1 X-2.482 Y3.088 E13.15725
G1 X3.087 Y-2.481 E14.59010
G1 X2.888 Y-2.686 E14.64210
G1 X-2.687 Y2.889 E16.07636
G1 X-2.889 Y2.687 E16.12835
G1 X2.686 Y-2.888 E17.56261
G1 X2.479 Y-3.085 E17.61461
G1 X-3.087 Y2.481 E19.04679
G1 X-3.253 Y2.243 E19.09959
G1 X2.248 Y-3.259 E20.51512
G1 X1.998 Y-3.412 E20.56859
G1 X-3.414 Y2.000 E21.96100
G1 X-3.552 Y1.734 E22.01553
G1 X1.735 Y-3.554 E23.37594
G1 X1.450 Y-3.672 E23.43218
G1 X-3.673 Y1.451 E24.75028
G1 X-3.778 Y1.151 E24.80804
G1 X1.150 Y-3.776 E26.07571
G1 X0.826 Y-3.857 E26.13632
G1 X-3.855 Y0.824 E27.34081
G1 X-3.912 Y0.477 E27.40475
G1 X0.480 Y-3.915 E28.53484
G1 X0.095 Y-3.934 E28.60501
G1 X-3.935 Y0.096 E29.64186
G1 X-3.911 Y-0.332 E29.71988
G1 X-0.329 Y-3.914 E30.64146
G1 X-0.810 Y-3.838 E30.72992
G1 X-3.838 Y-0.810 E31.50899
G1 X-3.643 Y-1.408 E31.62351
G1 X-1.403 Y-3.649 E32.19985
G1 X-2.432 Y-3.024 F900.000
G1 X-3.016 Y-2.439 E32.35027 F944.809
G92 E0
G1 X2.435 Y3.021 F900.000
G1 X3.070 Y2.386 E0.16344 F944.809
G92 E0

; filament used = 64.9mm (0.1cm3)

; avoid_crossing_perimeters = 1
; bed_shape = 44.7535x4.70378,44.0166x9.35603,42.7975x13.9058,41.1095x18.3031,38.9711x22.5,36.4058x26.4503,33.4415x30.1109,30.1109x33.4415,26.4503x36.4058,22.5x38.9711,18.3031x41.1095,13.9058x42.7975,9.35603x44.0166,4.70378x44.7535,0x45,-4.70378x44.7535,-9.35603x44.0166,-13.9058x42.7975,-18.3031x41.1095,-22.5x38.9711,-26.4503x36.4058,-30.1109x33.4415,-33.4415x30.1109,-36.4058x26.4503,-38.9711x22.5,-41.1095x18.3031,-42.7975x13.9058,-44.0166x9.35603,-44.7535x4.70378,-45x0,-44.7535x-4.70378,-44.0166x-9.35603,-42.7975x-13.9058,-41.1095x-18.3031,-38.9711x-22.5,-36.4058x-26.4503,-33.4415x-30.1109,-30.1109x-33.4415,-26.4503x-36.4058,-22.5x-38.9711,-18.3031x-41.1095,-13.9058x-42.7975,-9.35603x-44.0166,-4.70378x-44.7535,0x-45,4.70378x-44.7535,9.35603x-44.0166,13.9058x-42.7975,18.3031x-41.1095,22.5x-38.9711,26.4503x-36.4058,30.1109x-33.4415,33.4415x-30.1109,36.4058x-26.4503,38.9711x-22.5,41.1095x-18.3031,42.7975x-13.9058,44.0166x-9.35603,44.7535x-4.70378,45x0
; bed_temperature = 0
; before_layer_gcode = 
; bridge_acceleration = 0
; bridge_fan_speed = 100
; brim_width = 0
; complete_objects = 0
; cooling = 0
; default_acceleration = 0
; disable_fan_first_layers = 1
; duplicate_distance = 6
; end_gcode = 
; extruder_clearance_height = 20
; extruder_clearance_radius = 20
; extruder_offset = 0x0
; extrusion_axis = E
; extrusion_multiplier = 2
; fan_always_on = 0
; fan_below_layer_time = 60
; filament_colour = #FFFFFF
; filament_diameter = 1
; first_layer_acceleration = 0
; first_layer_bed_temperature = 0
; first_layer_extrusion_width = 100%
; first_layer_speed = 15
; first_layer_temperature = 200
; gcode_arcs = 0
; gcode_comments = 0
; gcode_flavor = reprap
; infill_acceleration = 0
; infill_first = 0
; layer_gcode = 
; max_fan_speed = 100
; max_print_speed = 15
; max_volumetric_speed = 1.125
; min_fan_speed = 35
; min_print_speed = 10
; min_skirt_length = 0
; notes = 
; nozzle_diameter = 0.3
; only_retract_when_crossing_perimeters = 1
; ooze_prevention = 0
; output_filename_format = [input_filename_base].gcode
; perimeter_acceleration = 0
; post_process = 
; pressure_advance = 0
; resolution = 0
; retract_before_travel = 2
; retract_layer_change = 1
; retract_length = 0
; retract_length_toolchange = 0
; retract_lift = 0
; retract_restart_extra = 0
; retract_restart_extra_toolchange = 0
; retract_speed = 30
; skirt_distance = 6
; skirt_height = 0
; skirts = 0
; slowdown_below_layer_time = 30
; spiral_vase = 0
; standby_temperature_delta = -5
; start_gcode = G28 ; home all axes
; temperature = 200
; threads = 2
; toolchange_gcode = 
; travel_speed = 15
; use_firmware_retraction = 0
; use_relative_e_distances = 0
; use_volumetric_e = 0
; vibration_limit = 0
; wipe = 0
; z_offset = 0
; dont_support_bridges = 1
; extrusion_width = 0
; first_layer_height = 0.25
; infill_only_where_needed = 0
; interface_shells = 0
; layer_height = 0.25
; raft_layers = 0
; seam_position = random
; support_material = 0
; support_material_angle = 0
; support_material_contact_distance = 0.2
; support_material_enforce_layers = 0
; support_material_extruder = 1
; support_material_extrusion_width = 0
; support_material_interface_extruder = 1
; support_material_interface_layers = 0
; support_material_interface_spacing = 0
; support_material_interface_speed = 100%
; support_material_pattern = rectilinear
; support_material_spacing = 2.5
; support_material_speed = 60
; support_material_threshold = 0
; xy_size_compensation = 0
; bottom_solid_layers = 0
; bridge_flow_ratio = 1
; bridge_speed = 15
; external_fill_pattern = rectilinear
; external_perimeter_extrusion_width = 0
; external_perimeter_speed = 15
; external_perimeters_first = 0
; extra_perimeters = 1
; fill_angle = 45
; fill_density = 100%
; fill_pattern = rectilinear
; gap_fill_speed = 15
; infill_every_layers = 1
; infill_extruder = 1
; infill_extrusion_width = 0
; infill_overlap = 50%
; infill_speed = 15
; overhangs = 1
; perimeter_extruder = 1
; perimeter_extrusion_width = 0
; perimeter_speed = 15
; perimeters = 0
; small_perimeter_speed = 15
; solid_infill_below_area = 70
; solid_infill_every_layers = 0
; solid_infill_extruder = 1
; solid_infill_extrusion_width = 0
; solid_infill_speed = 60
; thin_walls = 1
; top_infill_extrusion_width = 0
; top_solid_infill_speed = 50
; top_solid_layers = 0
