; generated by Slic3r 1.2.9 on 2019-10-17 at 17:22:24

; external perimeters extrusion width = 0.30mm
; perimeters extrusion width = 0.34mm
; infill extrusion width = 0.34mm
; solid infill extrusion width = 0.34mm
; top infill extrusion width = 0.34mm

M104 S200 ; set temperature
G28 ; home all axes
M109 S200 ; wait for temperature to be reached
G21 ; set units to millimeters
G90 ; use absolute coordinates
M82 ; use absolute distances for extrusion
G92 E0
G1 Z0.250 F300.000
G1 X-2.661 Y-2.808 F300.000
G1 X-2.231 Y-3.167 E0.07007 F300.000
G1 X-1.835 Y-3.412 E0.12824
G1 X-1.413 Y-3.608 E0.18641
G1 X-1.198 Y-3.685 E0.21492
G1 X-0.748 Y-3.802 E0.27308
G1 X-0.288 Y-3.864 E0.33116
G1 X-0.000 Y-3.874 E0.36710
G1 X0.406 Y-3.854 E0.41789
G1 X0.864 Y-3.777 E0.47600 F300.000
G1 X1.142 Y-3.702 E0.51194
G1 X1.525 Y-3.562 E0.56296
G1 X1.733 Y-3.466 E0.59151
G1 X2.135 Y-3.234 E0.64967
G1 X2.506 Y-2.956 E0.70760
G1 X2.843 Y-2.634 E0.76577
G1 X2.993 Y-2.462 E0.79428
G1 X3.267 Y-2.084 E0.85268
G1 X3.384 Y-1.889 E0.88120
G1 X3.587 Y-1.468 E0.93960
G1 X3.667 Y-1.254 E0.96811
G1 X3.791 Y-0.806 E1.02628
G1 X3.860 Y-0.347 E1.08421
G1 X3.874 Y0.118 E1.14237
G1 X3.860 Y0.345 E1.17089
G1 X3.791 Y0.806 E1.22905
G1 X3.667 Y1.254 E1.28722
G1 X3.586 Y1.469 E1.31596
G1 X3.493 Y1.680 E1.34471
G1 X3.266 Y2.086 E1.40288
G1 X2.994 Y2.461 E1.46081
G1 X2.679 Y2.801 E1.51874
G1 X2.324 Y3.102 E1.57691
G1 X1.940 Y3.355 E1.63437
G1 X1.524 Y3.563 E1.69254
G1 X1.086 Y3.720 E1.75061
G1 X0.807 Y3.789 E1.78656
G1 X0.406 Y3.854 E1.83734
G1 X-0.057 Y3.874 E1.89531
G1 X-0.521 Y3.840 E1.95348
G1 X-0.746 Y3.802 E1.98199
G1 X-1.198 Y3.685 E2.04029
G1 X-1.467 Y3.585 E2.07624
G1 X-1.835 Y3.412 E2.12703
G1 X-2.231 Y3.167 E2.18523
G1 X-2.414 Y3.031 E2.21374
G1 X-2.759 Y2.719 E2.27190
G1 X-3.066 Y2.369 E2.33007
G1 X-3.325 Y1.989 E2.38754
G1 X-3.540 Y1.574 E2.44594
G1 X-3.626 Y1.363 E2.47445
G1 X-3.763 Y0.919 E2.53262
G1 X-3.846 Y0.463 E2.59055
G1 X-3.874 Y-0.001 E2.64862
G1 X-3.862 Y-0.288 E2.68457
G1 X-3.812 Y-0.692 E2.73535
G1 X-3.701 Y-1.143 E2.79346
G1 X-3.605 Y-1.414 E2.82941
G1 X-3.438 Y-1.785 E2.88019
G1 X-3.200 Y-2.184 E2.93839
G1 X-3.066 Y-2.369 E2.96690
G1 X-2.695 Y-2.778 E3.03591
G1 X1.542 Y-3.415 F300.000
G1 X3.405 Y-1.553 E3.37183 F300.000
G1 X3.593 Y-1.081 F300.000
G1 X1.079 Y-3.595 E3.82515 F300.000
G1 X0.700 Y-3.691 E3.87504
G1 X3.694 Y-0.696 E4.41508
G1 X3.745 Y-0.363 E4.45811
G1 X0.360 Y-3.747 E5.06850
G1 X0.061 Y-3.763 E5.10675
G1 X3.762 Y-0.062 E5.77431
G1 X3.765 Y0.224 E5.81078
G1 X-0.222 Y-3.762 E6.52977
G1 X-0.480 Y-3.737 E6.56285
G1 X3.739 Y0.482 E7.32381
G1 X3.702 Y0.728 E7.35557
G1 X-0.729 Y-3.703 E8.15485
G1 X-0.957 Y-3.648 E8.18477
G1 X3.650 Y0.959 E9.01569
G1 X3.588 Y1.181 E9.04507
G1 X-1.182 Y-3.590 E9.90550
G1 X-1.392 Y-3.516 E9.93384
G1 X3.512 Y1.388 E10.81838
G1 X3.430 Y1.589 E10.84608
G1 X-1.586 Y-3.427 E11.75078
G1 X-1.780 Y-3.337 E11.77800
G1 X3.335 Y1.777 E12.70049
G1 X3.234 Y1.959 E12.72706
G1 X-1.957 Y-3.231 E13.66332
G1 X-2.132 Y-3.123 E13.68958
G1 X3.123 Y2.132 E14.63749
G1 X3.004 Y2.296 E14.66336
G1 X-2.299 Y-3.006 E15.61977
G1 X-2.451 Y-2.875 E15.64539
G1 X2.875 Y2.451 E16.60602
G1 X2.734 Y2.593 E16.63157
G1 X-2.592 Y-2.733 E17.59220
G1 X-2.734 Y-2.592 E17.61775
G1 X2.592 Y2.734 E18.57838
G1 X2.450 Y2.876 E18.60393
G1 X-2.876 Y-2.450 E19.56456
G1 X-3.007 Y-2.298 E19.59018
G1 X2.298 Y3.007 E20.54715
G1 X2.130 Y3.122 E20.57315
G1 X-3.126 Y-2.133 E21.52111
G1 X-3.232 Y-1.956 E21.54746
G1 X1.959 Y3.235 E22.48376
G1 X1.776 Y3.335 E22.51040
G1 X-3.338 Y-1.778 E23.43273
G1 X-3.428 Y-1.585 E23.45992
G1 X1.587 Y3.430 E24.36442
G1 X1.387 Y3.513 E24.39208
G1 X-3.515 Y-1.389 E25.27618
G1 X-3.589 Y-1.180 E25.30448
G1 X1.178 Y3.587 E26.16435
G1 X0.959 Y3.652 E26.19345
G1 X-3.648 Y-0.956 E27.02446
G1 X-3.703 Y-0.728 E27.05436
G1 X0.726 Y3.701 E27.85326
G1 X0.482 Y3.741 E27.88477
G1 X-3.737 Y-0.478 E28.64574
G1 X-3.761 Y-0.219 E28.67894
G1 X0.216 Y3.759 E29.39635
G1 X-0.060 Y3.765 E29.43163
G1 X-3.762 Y0.064 E30.09931
G1 X-3.744 Y0.365 E30.13781
G1 X-0.367 Y3.742 E30.74699
G1 X-0.699 Y3.694 E30.78981
G1 X-3.687 Y0.705 E31.32878
G1 X-3.586 Y1.090 E31.37950
G1 X-1.082 Y3.594 E31.83115
G1 X-1.556 Y3.403 F300.000
G1 X-3.405 Y1.554 E32.16457 F300.000
G1 X-2.892 Y2.350 F300.000
G1 X-2.329 Y2.914 E32.26617 F300.000
G1 X2.940 Y-2.300 F300.000
G1 X2.313 Y-2.927 E32.37923 F300.000
G92 E0
G1 Z0.500 F300.000
G1 X3.820 Y0.443 F300.000
G1 X3.767 Y0.800 E0.05661 F300.000
G1 X3.644 Y1.244 E0.12882
G1 X3.469 Y1.672 E0.20139
G1 X3.364 Y1.873 E0.23681
G1 X3.114 Y2.265 E0.30973
G1 X2.976 Y2.443 E0.34515
G1 X2.661 Y2.783 E0.41772
G1 X2.308 Y3.082 E0.49028
G1 X2.123 Y3.212 E0.52575
G1 X1.773 Y3.416 E0.58944
G1 X1.515 Y3.540 E0.63423
G1 X1.134 Y3.678 E0.69777
G1 X0.859 Y3.753 E0.74251
G1 X0.403 Y3.829 E0.81493
G1 X-0.057 Y3.849 E0.88715
G1 X-0.518 Y3.815 E0.95972
G1 X-0.966 Y3.727 E1.03123
G1 X-1.408 Y3.583 E1.10415
G1 X-1.615 Y3.494 E1.13957
G1 X-2.023 Y3.275 E1.21214
G1 X-2.399 Y3.010 E1.28435
G1 X-2.742 Y2.702 E1.35662
G1 X-3.009 Y2.399 E1.41995
G1 X-3.303 Y1.977 E1.50062
G1 X-3.516 Y1.566 E1.57324
G1 X-3.660 Y1.188 E1.63657
G1 X-3.739 Y0.914 E1.68131
G1 X-3.821 Y0.460 E1.75373
G1 X-3.849 Y-0.002 E1.82630
G1 X-3.842 Y-0.228 E1.86172
G1 X-3.787 Y-0.690 E1.93464
G1 X-3.740 Y-0.911 E1.97006
G1 X-3.603 Y-1.353 E2.04263
G1 X-3.416 Y-1.774 E2.11489
G1 X-3.210 Y-2.121 E2.17822
G1 X-3.045 Y-2.354 E2.22296
G1 X-2.740 Y-2.703 E2.29574
G1 X-2.577 Y-2.860 E2.33116
G1 X-2.215 Y-3.148 E2.40373
G1 X-1.823 Y-3.390 E2.47594
G1 X-1.406 Y-3.584 E2.54816
G1 X-0.966 Y-3.727 E2.62073
G1 X-0.745 Y-3.777 E2.65615
G1 X-0.286 Y-3.839 E2.72876
G1 X0.117 Y-3.847 E2.79209
G1 X0.402 Y-3.829 E2.83683
G1 X0.858 Y-3.753 E2.90931 F300.000
G1 X1.246 Y-3.642 E2.97264
G1 X1.721 Y-3.444 E3.05331
G1 X2.122 Y-3.213 E3.12588
G1 X2.490 Y-2.937 E3.19809
G1 X2.825 Y-2.617 E3.27066
G1 X2.973 Y-2.447 E3.30608
G1 X3.246 Y-2.071 E3.37900
G1 X3.362 Y-1.877 E3.41442
G1 X3.564 Y-1.458 E3.48734
G1 X3.643 Y-1.246 E3.52276
G1 X3.767 Y-0.800 E3.59533
G1 X3.835 Y-0.345 E3.66755
G1 X3.849 Y0.117 E3.74011
G1 X3.827 Y0.399 E3.78441
G1 X3.442 Y1.264 F300.000
G1 X1.262 Y3.444 E4.35227 F311.081
G1 X0.679 Y3.617 E4.46431
G1 X3.621 Y0.675 E5.23080
G1 X3.687 Y0.200 E5.31917
G1 X0.205 Y3.682 E6.22628
G1 X-0.211 Y3.689 E6.30293
G1 X3.688 Y-0.210 E7.31864
G1 X3.653 Y-0.584 E7.38782
G1 X-0.588 Y3.656 E8.49238
G1 X-0.929 Y3.589 E8.55655
G1 X3.587 Y-0.928 E9.73302
G1 X3.498 Y-1.248 E9.79421
G1 X-1.242 Y3.493 E11.02900
G1 X-1.540 Y3.381 E11.08752
G1 X3.379 Y-1.537 E12.36862
G1 X3.246 Y-1.814 E12.42507
G1 X-1.809 Y3.241 E13.74163
G1 X-2.065 Y3.088 E13.79657
G1 X3.090 Y-2.067 E15.13922
G1 X2.918 Y-2.304 E15.19317
G1 X-2.305 Y2.919 E16.55352
G1 X-2.515 Y2.719 E16.60682
G1 X2.718 Y-2.514 E17.96989
G1 X2.514 Y-2.718 E18.02318
G1 X-2.719 Y2.515 E19.38624
G1 X-2.918 Y2.305 E19.43955
G1 X2.303 Y-2.916 E20.79950
G1 X2.069 Y-3.092 E20.85333
G1 X-3.091 Y2.068 E22.19724
G1 X-3.241 Y1.809 E22.25234
G1 X1.810 Y-3.242 E23.56806
G1 X1.535 Y-3.376 E23.62441
G1 X-3.381 Y1.540 E24.90493
G1 X-3.494 Y1.244 E24.96332
G1 X1.246 Y-3.496 E26.19794
G1 X0.929 Y-3.589 E26.25871
G1 X-3.590 Y0.931 E27.43586
G1 X-3.653 Y0.585 E27.50062
G1 X0.584 Y-3.653 E28.60445
G1 X0.214 Y-3.691 E28.67310
G1 X-3.687 Y0.209 E29.68910
G1 X-3.684 Y-0.203 E29.76503
G1 X-0.200 Y-3.687 E30.67247
G1 X-0.675 Y-3.621 E30.76077
G1 X-3.619 Y-0.677 E31.52772
G1 X-3.445 Y-1.260 E31.63984
G1 X-1.256 Y-3.449 E32.21006
G1 X-2.270 Y-2.845 F300.000
G1 X-2.842 Y-2.272 E32.35916 F311.081
G92 E0
G1 X2.268 Y2.846 F300.000
G1 X2.891 Y2.224 E0.16218 F311.081
G92 E0

; filament used = 64.9mm (0.1cm3)

; avoid_crossing_perimeters = 1
; bed_shape = 44.7535x4.70378,44.0166x9.35603,42.7975x13.9058,41.1095x18.3031,38.9711x22.5,36.4058x26.4503,33.4415x30.1109,30.1109x33.4415,26.4503x36.4058,22.5x38.9711,18.3031x41.1095,13.9058x42.7975,9.35603x44.0166,4.70378x44.7535,0x45,-4.70378x44.7535,-9.35603x44.0166,-13.9058x42.7975,-18.3031x41.1095,-22.5x38.9711,-26.4503x36.4058,-30.1109x33.4415,-33.4415x30.1109,-36.4058x26.4503,-38.9711x22.5,-41.1095x18.3031,-42.7975x13.9058,-44.0166x9.35603,-44.7535x4.70378,-45x0,-44.7535x-4.70378,-44.0166x-9.35603,-42.7975x-13.9058,-41.1095x-18.3031,-38.9711x-22.5,-36.4058x-26.4503,-33.4415x-30.1109,-30.1109x-33.4415,-26.4503x-36.4058,-22.5x-38.9711,-18.3031x-41.1095,-13.9058x-42.7975,-9.35603x-44.0166,-4.70378x-44.7535,0x-45,4.70378x-44.7535,9.35603x-44.0166,13.9058x-42.7975,18.3031x-41.1095,22.5x-38.9711,26.4503x-36.4058,30.1109x-33.4415,33.4415x-30.1109,36.4058x-26.4503,38.9711x-22.5,41.1095x-18.3031,42.7975x-13.9058,44.0166x-9.35603,44.7535x-4.70378,45x0
; bed_temperature = 0
; before_layer_gcode = 
; bridge_acceleration = 0
; bridge_fan_speed = 100
; brim_width = 0
; complete_objects = 0
; cooling = 0
; default_acceleration = 0
; disable_fan_first_layers = 1
; duplicate_distance = 6
; end_gcode = 
; extruder_clearance_height = 20
; extruder_clearance_radius = 20
; extruder_offset = 0x0
; extrusion_axis = E
; extrusion_multiplier = 2
; fan_always_on = 0
; fan_below_layer_time = 60
; filament_colour = #FFFFFF
; filament_diameter = 1
; first_layer_acceleration = 0
; first_layer_bed_temperature = 0
; first_layer_extrusion_width = 100%
; first_layer_speed = 5
; first_layer_temperature = 200
; gcode_arcs = 0
; gcode_comments = 0
; gcode_flavor = reprap
; infill_acceleration = 0
; infill_first = 0
; layer_gcode = 
; max_fan_speed = 100
; max_print_speed = 5
; max_volumetric_speed = 0.375
; min_fan_speed = 35
; min_print_speed = 10
; min_skirt_length = 0
; notes = 
; nozzle_diameter = 0.3
; only_retract_when_crossing_perimeters = 1
; ooze_prevention = 0
; output_filename_format = [input_filename_base].gcode
; perimeter_acceleration = 0
; post_process = 
; pressure_advance = 0
; resolution = 0
; retract_before_travel = 2
; retract_layer_change = 1
; retract_length = 0
; retract_length_toolchange = 0
; retract_lift = 0
; retract_restart_extra = 0
; retract_restart_extra_toolchange = 0
; retract_speed = 30
; skirt_distance = 6
; skirt_height = 0
; skirts = 0
; slowdown_below_layer_time = 30
; spiral_vase = 0
; standby_temperature_delta = -5
; start_gcode = G28 ; home all axes
; temperature = 200
; threads = 2
; toolchange_gcode = 
; travel_speed = 5
; use_firmware_retraction = 0
; use_relative_e_distances = 0
; use_volumetric_e = 0
; vibration_limit = 0
; wipe = 0
; z_offset = 0
; dont_support_bridges = 1
; extrusion_width = 0
; first_layer_height = 0.25
; infill_only_where_needed = 0
; interface_shells = 0
; layer_height = 0.25
; raft_layers = 0
; seam_position = random
; support_material = 0
; support_material_angle = 0
; support_material_contact_distance = 0.2
; support_material_enforce_layers = 0
; support_material_extruder = 1
; support_material_extrusion_width = 0
; support_material_interface_extruder = 1
; support_material_interface_layers = 0
; support_material_interface_spacing = 0
; support_material_interface_speed = 100%
; support_material_pattern = rectilinear
; support_material_spacing = 2.5
; support_material_speed = 60
; support_material_threshold = 0
; xy_size_compensation = 0
; bottom_solid_layers = 0
; bridge_flow_ratio = 1
; bridge_speed = 5
; external_fill_pattern = rectilinear
; external_perimeter_extrusion_width = 0
; external_perimeter_speed = 5
; external_perimeters_first = 0
; extra_perimeters = 1
; fill_angle = 45
; fill_density = 100%
; fill_pattern = rectilinear
; gap_fill_speed = 5
; infill_every_layers = 1
; infill_extruder = 1
; infill_extrusion_width = 0
; infill_overlap = 15%
; infill_speed = 5
; overhangs = 1
; perimeter_extruder = 1
; perimeter_extrusion_width = 0
; perimeter_speed = 5
; perimeters = 1
; small_perimeter_speed = 5
; solid_infill_below_area = 70
; solid_infill_every_layers = 0
; solid_infill_extruder = 1
; solid_infill_extrusion_width = 0
; solid_infill_speed = 60
; thin_walls = 1
; top_infill_extrusion_width = 0
; top_solid_infill_speed = 50
; top_solid_layers = 0
