; generated by Slic3r 1.2.9 on 2019-10-11 at 14:30:07

; external perimeters extrusion width = 0.30mm
; perimeters extrusion width = 0.34mm
; infill extrusion width = 0.34mm
; solid infill extrusion width = 0.34mm
; top infill extrusion width = 0.34mm

M104 S200 ; set temperature
G28 ; home all axes
M109 S200 ; wait for temperature to be reached
G21 ; set units to millimeters
G90 ; use absolute coordinates
M82 ; use absolute distances for extrusion
G92 E0
G1 Z0.250 F600.000
G1 X3.865 Y0.276 F600.000
G1 X3.791 Y0.806 E0.06681 F600.000
G1 X3.667 Y1.254 E0.12497
G1 X3.586 Y1.469 E0.15372
G1 X3.493 Y1.680 E0.18247
G1 X3.266 Y2.086 E0.24063
G1 X2.994 Y2.461 E0.29857
G1 X2.679 Y2.801 E0.35650
G1 X2.324 Y3.102 E0.41466
G1 X2.136 Y3.234 E0.44341
G1 X1.940 Y3.355 E0.47216
G1 X1.524 Y3.563 E0.53032
G1 X1.086 Y3.720 E0.58839
G1 X0.807 Y3.789 E0.62434
G1 X0.406 Y3.854 E0.67513
G1 X-0.057 Y3.874 E0.73309
G1 X-0.521 Y3.840 E0.79126
G1 X-0.746 Y3.802 E0.81977
G1 X-1.198 Y3.685 E0.87808
G1 X-1.467 Y3.585 E0.91402
G1 X-1.835 Y3.412 E0.96481
G1 X-2.231 Y3.167 E1.02301
G1 X-2.414 Y3.031 E1.05152
G1 X-2.759 Y2.719 E1.10969
G1 X-3.066 Y2.369 E1.16785
G1 X-3.325 Y1.989 E1.22532
G1 X-3.540 Y1.574 E1.28372
G1 X-3.626 Y1.363 E1.31223
G1 X-3.763 Y0.919 E1.37040
G1 X-3.846 Y0.463 E1.42833
G1 X-3.874 Y-0.001 E1.48640
G1 X-3.862 Y-0.288 E1.52235
G1 X-3.812 Y-0.692 E1.57314
G1 X-3.701 Y-1.143 E1.63124
G1 X-3.605 Y-1.414 E1.66719
G1 X-3.438 Y-1.785 E1.71797
G1 X-3.200 Y-2.184 E1.77617
G1 X-3.066 Y-2.369 E1.80468
G1 X-2.759 Y-2.719 E1.86285
G1 X-2.414 Y-3.031 E1.92102
G1 X-2.231 Y-3.167 E1.94953
G1 X-1.835 Y-3.412 E2.00770
G1 X-1.413 Y-3.608 E2.06586
G1 X-1.198 Y-3.685 E2.09437
G1 X-0.748 Y-3.802 E2.15254
G1 X-0.288 Y-3.864 E2.21061
G1 X-0.000 Y-3.874 E2.24656
G1 X0.406 Y-3.854 E2.29734
G1 X0.864 Y-3.777 E2.35545 F600.000
G1 X1.142 Y-3.702 E2.39140
G1 X1.525 Y-3.562 E2.44242
G1 X1.733 Y-3.466 E2.47096
G1 X2.135 Y-3.234 E2.52913
G1 X2.506 Y-2.956 E2.58706
G1 X2.843 Y-2.634 E2.64523
G1 X2.993 Y-2.462 E2.67374
G1 X3.267 Y-2.084 E2.73214
G1 X3.384 Y-1.889 E2.76065
G1 X3.587 Y-1.468 E2.81905
G1 X3.667 Y-1.254 E2.84756
G1 X3.791 Y-0.806 E2.90573
G1 X3.860 Y-0.347 E2.96366
G1 X3.867 Y0.231 E3.03600
G1 X3.593 Y-1.081 F600.000
G1 X1.079 Y-3.595 E3.48931 F600.000
G1 X0.700 Y-3.691 E3.53920
G1 X3.694 Y-0.696 E4.07924
G1 X3.745 Y-0.363 E4.12227
G1 X0.360 Y-3.747 E4.73266
G1 X0.061 Y-3.763 E4.77092
G1 X3.762 Y-0.062 E5.43848
G1 X3.765 Y0.224 E5.47494
G1 X-0.222 Y-3.762 E6.19394
G1 X-0.480 Y-3.737 E6.22702
G1 X3.739 Y0.482 E6.98798
G1 X3.702 Y0.728 E7.01974
G1 X-0.729 Y-3.703 E7.81901
G1 X-0.957 Y-3.648 E7.84894
G1 X3.650 Y0.959 E8.67986
G1 X3.588 Y1.181 E8.70924
G1 X-1.182 Y-3.590 E9.56967
G1 X-1.392 Y-3.516 E9.59801
G1 X3.512 Y1.388 E10.48254
G1 X3.430 Y1.589 E10.51025
G1 X-1.586 Y-3.427 E11.41494
G1 X-1.780 Y-3.337 E11.44216
G1 X3.335 Y1.777 E12.36466
G1 X3.234 Y1.959 E12.39122
G1 X-1.957 Y-3.231 E13.32749
G1 X-2.132 Y-3.123 E13.35374
G1 X3.123 Y2.132 E14.30166
G1 X3.004 Y2.296 E14.32753
G1 X-2.299 Y-3.006 E15.28393
G1 X-2.451 Y-2.875 E15.30955
G1 X2.875 Y2.451 E16.27018
G1 X2.734 Y2.593 E16.29573
G1 X-2.592 Y-2.733 E17.25636
G1 X-2.734 Y-2.592 E17.28192
G1 X2.592 Y2.734 E18.24255
G1 X2.450 Y2.876 E18.26810
G1 X-2.876 Y-2.450 E19.22873
G1 X-3.007 Y-2.298 E19.25435
G1 X2.298 Y3.007 E20.21132
G1 X2.130 Y3.122 E20.23731
G1 X-3.126 Y-2.133 E21.18528
G1 X-3.232 Y-1.956 E21.21163
G1 X1.959 Y3.235 E22.14792
G1 X1.776 Y3.335 E22.17456
G1 X-3.338 Y-1.778 E23.09689
G1 X-3.428 Y-1.585 E23.12409
G1 X1.587 Y3.430 E24.02859
G1 X1.387 Y3.513 E24.05624
G1 X-3.515 Y-1.389 E24.94035
G1 X-3.589 Y-1.180 E24.96865
G1 X1.178 Y3.587 E25.82852
G1 X0.959 Y3.652 E25.85762
G1 X-3.648 Y-0.956 E26.68863
G1 X-3.703 Y-0.728 E26.71853
G1 X0.726 Y3.701 E27.51742
G1 X0.482 Y3.741 E27.54893
G1 X-3.737 Y-0.478 E28.30991
G1 X-3.761 Y-0.219 E28.34311
G1 X0.216 Y3.759 E29.06051
G1 X-0.060 Y3.765 E29.09579
G1 X-3.762 Y0.064 E29.76347
G1 X-3.744 Y0.365 E29.80198
G1 X-0.367 Y3.742 E30.41116
G1 X-0.699 Y3.694 E30.45397
G1 X-3.687 Y0.705 E30.99294
G1 X-3.586 Y1.090 E31.04367
G1 X-1.082 Y3.594 E31.49531
G1 X-1.556 Y3.403 F600.000
G1 X-3.405 Y1.554 E31.82874 F600.000
G1 X-2.892 Y2.350 F600.000
G1 X-2.329 Y2.914 E31.93033 F600.000
G1 X3.405 Y-1.553 F600.000
G1 X1.542 Y-3.415 E32.26625 F600.000
G1 X2.313 Y-2.927 F600.000
G1 X2.940 Y-2.300 E32.37931 F600.000
G92 E0
G1 Z0.500 F600.000
G1 X3.180 Y-2.162 F600.000
G1 X3.362 Y-1.877 E0.05305 F600.000
G1 X3.564 Y-1.458 E0.12597
G1 X3.643 Y-1.246 E0.16139
G1 X3.767 Y-0.800 E0.23396
G1 X3.835 Y-0.345 E0.30618
G1 X3.849 Y0.117 E0.37874
G1 X3.835 Y0.343 E0.41416
G1 X3.767 Y0.800 E0.48673
G1 X3.644 Y1.244 E0.55895
G1 X3.469 Y1.672 E0.63151
G1 X3.364 Y1.873 E0.66693
G1 X3.114 Y2.265 E0.73985
G1 X2.976 Y2.443 E0.77527
G1 X2.661 Y2.783 E0.84784
G1 X2.308 Y3.082 E0.92041
G1 X2.123 Y3.212 E0.95588
G1 X1.773 Y3.416 E1.01956
G1 X1.515 Y3.540 E1.06435
G1 X1.134 Y3.678 E1.12789
G1 X0.859 Y3.753 E1.17263
G1 X0.403 Y3.829 E1.24506
G1 X-0.057 Y3.849 E1.31727
G1 X-0.518 Y3.815 E1.38984
G1 X-0.743 Y3.777 E1.42561
G1 X-0.966 Y3.727 E1.46139
G1 X-1.408 Y3.583 E1.53431
G1 X-1.615 Y3.494 E1.56973
G1 X-2.023 Y3.275 E1.64230
G1 X-2.399 Y3.010 E1.71451
G1 X-2.742 Y2.702 E1.78677
G1 X-3.009 Y2.399 E1.85010
G1 X-3.303 Y1.977 E1.93078
G1 X-3.516 Y1.566 E2.00340
G1 X-3.660 Y1.188 E2.06672
G1 X-3.739 Y0.914 E2.11146
G1 X-3.821 Y0.460 E2.18389
G1 X-3.849 Y-0.002 E2.25646
G1 X-3.842 Y-0.228 E2.29188
G1 X-3.787 Y-0.690 E2.36480
G1 X-3.740 Y-0.911 E2.40022
G1 X-3.603 Y-1.353 E2.47279
G1 X-3.416 Y-1.774 E2.54505
G1 X-3.210 Y-2.121 E2.60838
G1 X-3.045 Y-2.354 E2.65312
G1 X-2.740 Y-2.703 E2.72590
G1 X-2.577 Y-2.860 E2.76132
G1 X-2.215 Y-3.148 E2.83389
G1 X-1.823 Y-3.390 E2.90610
G1 X-1.406 Y-3.584 E2.97832
G1 X-0.966 Y-3.727 E3.05088
G1 X-0.745 Y-3.777 E3.08630
G1 X-0.286 Y-3.839 E3.15892
G1 X0.117 Y-3.847 E3.22225
G1 X0.402 Y-3.829 E3.26699
G1 X0.858 Y-3.753 E3.33947 F600.000
G1 X1.246 Y-3.642 E3.40280
G1 X1.721 Y-3.444 E3.48347
G1 X2.122 Y-3.213 E3.55604
G1 X2.490 Y-2.937 E3.62825
G1 X2.825 Y-2.617 E3.70082
G1 X3.154 Y-2.198 E3.78434
G92 E0
G1 X3.442 Y1.264 F600.000
G1 X1.262 Y3.444 E0.56786 F622.163
G1 X0.679 Y3.617 E0.67990
G1 X3.621 Y0.675 E1.44639
G1 X3.687 Y0.200 E1.53477
G1 X0.205 Y3.682 E2.44187
G1 X-0.211 Y3.689 E2.51853
G1 X3.688 Y-0.210 E3.53423
G1 X3.653 Y-0.584 E3.60341
G1 X-0.588 Y3.656 E4.70797
G1 X-0.929 Y3.589 E4.77214
G1 X3.587 Y-0.928 E5.94861
G1 X3.498 Y-1.248 E6.00981
G1 X-1.242 Y3.493 E7.24459
G1 X-1.540 Y3.381 E7.30311
G1 X3.379 Y-1.537 E8.58421
G1 X3.246 Y-1.814 E8.64066
G1 X-1.809 Y3.241 E9.95722
G1 X-2.065 Y3.088 E10.01216
G1 X3.090 Y-2.067 E11.35481
G1 X2.918 Y-2.304 E11.40876
G1 X-2.305 Y2.919 E12.76911
G1 X-2.515 Y2.719 E12.82241
G1 X2.718 Y-2.514 E14.18548
G1 X2.514 Y-2.718 E14.23877
G1 X-2.719 Y2.515 E15.60184
G1 X-2.918 Y2.305 E15.65514
G1 X2.303 Y-2.916 E17.01509
G1 X2.069 Y-3.092 E17.06892
G1 X-3.091 Y2.068 E18.41283
G1 X-3.241 Y1.809 E18.46794
G1 X1.810 Y-3.242 E19.78365
G1 X1.535 Y-3.376 E19.84001
G1 X-3.381 Y1.540 E21.12052
G1 X-3.494 Y1.244 E21.17892
G1 X1.246 Y-3.496 E22.41353
G1 X0.929 Y-3.589 E22.47430
G1 X-3.590 Y0.931 E23.65145
G1 X-3.653 Y0.585 E23.71621
G1 X0.584 Y-3.653 E24.82004
G1 X0.214 Y-3.691 E24.88869
G1 X-3.687 Y0.209 E25.90470
G1 X-3.684 Y-0.203 E25.98062
G1 X-0.200 Y-3.687 E26.88807
G1 X-0.675 Y-3.621 E26.97636
G1 X-3.619 Y-0.677 E27.74331
G1 X-3.445 Y-1.260 E27.85543
G1 X-1.256 Y-3.449 E28.42565
G1 X-2.270 Y-2.845 F600.000
G1 X-2.842 Y-2.272 E28.57475 F622.163
G92 E0
G1 X2.268 Y2.846 F600.000
G1 X2.891 Y2.224 E0.16218 F622.163
G92 E0

; filament used = 64.9mm (0.1cm3)

; avoid_crossing_perimeters = 1
; bed_shape = 44.7535x4.70378,44.0166x9.35603,42.7975x13.9058,41.1095x18.3031,38.9711x22.5,36.4058x26.4503,33.4415x30.1109,30.1109x33.4415,26.4503x36.4058,22.5x38.9711,18.3031x41.1095,13.9058x42.7975,9.35603x44.0166,4.70378x44.7535,0x45,-4.70378x44.7535,-9.35603x44.0166,-13.9058x42.7975,-18.3031x41.1095,-22.5x38.9711,-26.4503x36.4058,-30.1109x33.4415,-33.4415x30.1109,-36.4058x26.4503,-38.9711x22.5,-41.1095x18.3031,-42.7975x13.9058,-44.0166x9.35603,-44.7535x4.70378,-45x0,-44.7535x-4.70378,-44.0166x-9.35603,-42.7975x-13.9058,-41.1095x-18.3031,-38.9711x-22.5,-36.4058x-26.4503,-33.4415x-30.1109,-30.1109x-33.4415,-26.4503x-36.4058,-22.5x-38.9711,-18.3031x-41.1095,-13.9058x-42.7975,-9.35603x-44.0166,-4.70378x-44.7535,0x-45,4.70378x-44.7535,9.35603x-44.0166,13.9058x-42.7975,18.3031x-41.1095,22.5x-38.9711,26.4503x-36.4058,30.1109x-33.4415,33.4415x-30.1109,36.4058x-26.4503,38.9711x-22.5,41.1095x-18.3031,42.7975x-13.9058,44.0166x-9.35603,44.7535x-4.70378,45x0
; bed_temperature = 0
; before_layer_gcode = 
; bridge_acceleration = 0
; bridge_fan_speed = 100
; brim_width = 0
; complete_objects = 0
; cooling = 0
; default_acceleration = 0
; disable_fan_first_layers = 1
; duplicate_distance = 6
; end_gcode = 
; extruder_clearance_height = 20
; extruder_clearance_radius = 20
; extruder_offset = 0x0
; extrusion_axis = E
; extrusion_multiplier = 2
; fan_always_on = 0
; fan_below_layer_time = 60
; filament_colour = #FFFFFF
; filament_diameter = 1
; first_layer_acceleration = 0
; first_layer_bed_temperature = 0
; first_layer_extrusion_width = 100%
; first_layer_speed = 10
; first_layer_temperature = 200
; gcode_arcs = 0
; gcode_comments = 0
; gcode_flavor = reprap
; infill_acceleration = 0
; infill_first = 0
; layer_gcode = 
; max_fan_speed = 100
; max_print_speed = 10
; max_volumetric_speed = 0.75
; min_fan_speed = 35
; min_print_speed = 10
; min_skirt_length = 0
; notes = 
; nozzle_diameter = 0.3
; only_retract_when_crossing_perimeters = 1
; ooze_prevention = 0
; output_filename_format = [input_filename_base].gcode
; perimeter_acceleration = 0
; post_process = 
; pressure_advance = 0
; resolution = 0
; retract_before_travel = 2
; retract_layer_change = 1
; retract_length = 0
; retract_length_toolchange = 0
; retract_lift = 0
; retract_restart_extra = 0
; retract_restart_extra_toolchange = 0
; retract_speed = 30
; skirt_distance = 6
; skirt_height = 0
; skirts = 0
; slowdown_below_layer_time = 30
; spiral_vase = 0
; standby_temperature_delta = -5
; start_gcode = G28 ; home all axes
; temperature = 200
; threads = 2
; toolchange_gcode = 
; travel_speed = 10
; use_firmware_retraction = 0
; use_relative_e_distances = 0
; use_volumetric_e = 0
; vibration_limit = 0
; wipe = 0
; z_offset = 0
; dont_support_bridges = 1
; extrusion_width = 0
; first_layer_height = 0.25
; infill_only_where_needed = 0
; interface_shells = 0
; layer_height = 0.25
; raft_layers = 0
; seam_position = random
; support_material = 0
; support_material_angle = 0
; support_material_contact_distance = 0.2
; support_material_enforce_layers = 0
; support_material_extruder = 1
; support_material_extrusion_width = 0
; support_material_interface_extruder = 1
; support_material_interface_layers = 0
; support_material_interface_spacing = 0
; support_material_interface_speed = 100%
; support_material_pattern = rectilinear
; support_material_spacing = 2.5
; support_material_speed = 60
; support_material_threshold = 0
; xy_size_compensation = 0
; bottom_solid_layers = 0
; bridge_flow_ratio = 1
; bridge_speed = 10
; external_fill_pattern = rectilinear
; external_perimeter_extrusion_width = 0
; external_perimeter_speed = 10
; external_perimeters_first = 0
; extra_perimeters = 1
; fill_angle = 45
; fill_density = 100%
; fill_pattern = rectilinear
; gap_fill_speed = 10
; infill_every_layers = 1
; infill_extruder = 1
; infill_extrusion_width = 0
; infill_overlap = 15%
; infill_speed = 10
; overhangs = 1
; perimeter_extruder = 1
; perimeter_extrusion_width = 0
; perimeter_speed = 10
; perimeters = 1
; small_perimeter_speed = 10
; solid_infill_below_area = 70
; solid_infill_every_layers = 0
; solid_infill_extruder = 1
; solid_infill_extrusion_width = 0
; solid_infill_speed = 60
; thin_walls = 1
; top_infill_extrusion_width = 0
; top_solid_infill_speed = 50
; top_solid_layers = 0
