; generated by Slic3r 1.2.9 on 2019-10-11 at 14:38:15

; external perimeters extrusion width = 0.30mm
; perimeters extrusion width = 0.34mm
; infill extrusion width = 0.34mm
; solid infill extrusion width = 0.34mm
; top infill extrusion width = 0.34mm

M104 S200 ; set temperature
G28 ; home all axes
M109 S200 ; wait for temperature to be reached
G21 ; set units to millimeters
G90 ; use absolute coordinates
M82 ; use absolute distances for extrusion
G92 E0
G1 Z0.250 F900.000
G1 X-3.421 Y1.803 F900.000
G1 X-3.626 Y1.363 E0.06068 F900.000
G1 X-3.763 Y0.919 E0.11885
G1 X-3.846 Y0.463 E0.17678
G1 X-3.874 Y-0.001 E0.23485
G1 X-3.862 Y-0.288 E0.27080
G1 X-3.812 Y-0.692 E0.32158
G1 X-3.701 Y-1.143 E0.37969
G1 X-3.605 Y-1.414 E0.41564
G1 X-3.438 Y-1.785 E0.46642
G1 X-3.200 Y-2.184 E0.52462
G1 X-3.066 Y-2.369 E0.55313
G1 X-2.759 Y-2.719 E0.61130
G1 X-2.414 Y-3.031 E0.66947
G1 X-2.231 Y-3.167 E0.69798
G1 X-1.835 Y-3.412 E0.75614
G1 X-1.413 Y-3.608 E0.81431
G1 X-1.198 Y-3.685 E0.84282
G1 X-0.748 Y-3.802 E0.90099
G1 X-0.288 Y-3.864 E0.95906
G1 X-0.000 Y-3.874 E0.99501
G1 X0.406 Y-3.854 E1.04579
G1 X0.864 Y-3.777 E1.10390 F900.000
G1 X1.142 Y-3.702 E1.13985
G1 X1.525 Y-3.562 E1.19087
G1 X1.733 Y-3.466 E1.21941
G1 X2.135 Y-3.234 E1.27758
G1 X2.506 Y-2.956 E1.33551
G1 X2.843 Y-2.634 E1.39368
G1 X2.993 Y-2.462 E1.42219
G1 X3.267 Y-2.084 E1.48059
G1 X3.384 Y-1.889 E1.50910
G1 X3.587 Y-1.468 E1.56750
G1 X3.667 Y-1.254 E1.59601
G1 X3.791 Y-0.806 E1.65418
G1 X3.860 Y-0.347 E1.71211
G1 X3.874 Y0.118 E1.77028
G1 X3.860 Y0.345 E1.79879
G1 X3.791 Y0.806 E1.85696
G1 X3.667 Y1.254 E1.91512
G1 X3.493 Y1.680 E1.97259
G1 X3.266 Y2.086 E2.03076
G1 X2.994 Y2.461 E2.08869
G1 X2.679 Y2.801 E2.14662
G1 X2.324 Y3.102 E2.20479
G1 X1.940 Y3.355 E2.26225
G1 X1.524 Y3.563 E2.32042
G1 X1.086 Y3.720 E2.37849
G1 X0.807 Y3.789 E2.41444
G1 X0.406 Y3.854 E2.46522
G1 X-0.057 Y3.874 E2.52319
G1 X-0.521 Y3.840 E2.58135
G1 X-0.746 Y3.802 E2.60987
G1 X-1.198 Y3.685 E2.66817
G1 X-1.467 Y3.585 E2.70412
G1 X-1.835 Y3.412 E2.75490
G1 X-2.231 Y3.167 E2.81310
G1 X-2.414 Y3.031 E2.84162
G1 X-2.759 Y2.719 E2.89978
G1 X-3.066 Y2.369 E2.95795
G1 X-3.325 Y1.989 E3.01542
G1 X-3.400 Y1.843 E3.03596
G1 X-3.405 Y1.554 F900.000
G1 X-1.556 Y3.403 E3.36938 F900.000
G1 X-1.082 Y3.594 F900.000
G1 X-3.586 Y1.090 E3.82103 F900.000
G1 X-3.687 Y0.705 E3.87176
G1 X-0.699 Y3.694 E4.41073
G1 X-0.367 Y3.742 E4.45354
G1 X-3.744 Y0.365 E5.06272
G1 X-3.762 Y0.064 E5.10123
G1 X-0.060 Y3.765 E5.76890
G1 X0.216 Y3.759 E5.80419
G1 X-3.761 Y-0.219 E6.52159
G1 X-3.737 Y-0.478 E6.55479
G1 X0.482 Y3.741 E7.31577
G1 X0.726 Y3.701 E7.34728
G1 X-3.703 Y-0.728 E8.14617
G1 X-3.648 Y-0.956 E8.17607
G1 X0.959 Y3.652 E9.00708
G1 X1.178 Y3.587 E9.03618
G1 X-3.589 Y-1.180 E9.89605
G1 X-3.515 Y-1.389 E9.92435
G1 X1.387 Y3.513 E10.80846
G1 X1.587 Y3.430 E10.83611
G1 X-3.428 Y-1.585 E11.74061
G1 X-3.338 Y-1.778 E11.76781
G1 X1.776 Y3.335 E12.69014
G1 X1.959 Y3.235 E12.71677
G1 X-3.232 Y-1.956 E13.65307
G1 X-3.126 Y-2.133 E13.67942
G1 X2.130 Y3.122 E14.62738
G1 X2.298 Y3.007 E14.65338
G1 X-3.007 Y-2.298 E15.61035
G1 X-2.876 Y-2.450 E15.63597
G1 X2.450 Y2.876 E16.59660
G1 X2.592 Y2.734 E16.62215
G1 X-2.734 Y-2.592 E17.58278
G1 X-2.592 Y-2.733 E17.60833
G1 X2.734 Y2.593 E18.56896
G1 X2.875 Y2.451 E18.59452
G1 X-2.451 Y-2.875 E19.55515
G1 X-2.299 Y-3.006 E19.58077
G1 X3.004 Y2.296 E20.53717
G1 X3.123 Y2.132 E20.56304
G1 X-2.132 Y-3.123 E21.51096
G1 X-1.957 Y-3.231 E21.53721
G1 X3.234 Y1.959 E22.47348
G1 X3.335 Y1.777 E22.50004
G1 X-1.780 Y-3.337 E23.42254
G1 X-1.586 Y-3.427 E23.44975
G1 X3.430 Y1.589 E24.35445
G1 X3.512 Y1.388 E24.38215
G1 X-1.392 Y-3.516 E25.26669
G1 X-1.182 Y-3.590 E25.29503
G1 X3.588 Y1.181 E26.15546
G1 X3.650 Y0.959 E26.18484
G1 X-0.957 Y-3.648 E27.01576
G1 X-0.729 Y-3.703 E27.04569
G1 X3.702 Y0.728 E27.84496
G1 X3.739 Y0.482 E27.87672
G1 X-0.480 Y-3.737 E28.63768
G1 X-0.222 Y-3.762 E28.67076
G1 X3.765 Y0.224 E29.38975
G1 X3.762 Y-0.062 E29.42622
G1 X0.061 Y-3.763 E30.09378
G1 X0.360 Y-3.747 E30.13203
G1 X3.745 Y-0.363 E30.74242
G1 X3.694 Y-0.696 E30.78545
G1 X0.700 Y-3.691 E31.32550
G1 X1.079 Y-3.595 E31.37538
G1 X3.593 Y-1.081 E31.82870
G1 X3.405 Y-1.553 F900.000
G1 X1.542 Y-3.415 E32.16462 F900.000
G1 X2.313 Y-2.927 F900.000
G1 X2.940 Y-2.300 E32.27768 F900.000
G1 X-2.329 Y2.914 F900.000
G1 X-2.892 Y2.350 E32.37928 F900.000
G92 E0
G1 Z0.500 F900.000
G1 X3.239 Y2.069 F900.000
G1 X2.976 Y2.443 E0.07180 F900.000
G1 X2.661 Y2.783 E0.14437
G1 X2.308 Y3.082 E0.21694
G1 X1.773 Y3.416 E0.31601
G1 X1.515 Y3.540 E0.36080
G1 X1.134 Y3.678 E0.42434
G1 X0.859 Y3.753 E0.46908
G1 X0.403 Y3.829 E0.54150
G1 X-0.057 Y3.849 E0.61372
G1 X-0.518 Y3.815 E0.68628
G1 X-0.966 Y3.727 E0.75780
G1 X-1.408 Y3.583 E0.83072
G1 X-1.615 Y3.494 E0.86614
G1 X-2.023 Y3.275 E0.93871
G1 X-2.399 Y3.010 E1.01092
G1 X-2.742 Y2.702 E1.08319
G1 X-3.009 Y2.399 E1.14652
G1 X-3.303 Y1.977 E1.22719
G1 X-3.516 Y1.566 E1.29981
G1 X-3.660 Y1.188 E1.36314
G1 X-3.739 Y0.914 E1.40788
G1 X-3.821 Y0.460 E1.48030
G1 X-3.849 Y-0.002 E1.55287
G1 X-3.842 Y-0.228 E1.58829
G1 X-3.787 Y-0.690 E1.66121
G1 X-3.740 Y-0.911 E1.69663
G1 X-3.603 Y-1.353 E1.76920
G1 X-3.416 Y-1.774 E1.84146
G1 X-3.210 Y-2.121 E1.90479
G1 X-3.045 Y-2.354 E1.94953
G1 X-2.740 Y-2.703 E2.02231
G1 X-2.577 Y-2.860 E2.05773
G1 X-2.215 Y-3.148 E2.13030
G1 X-1.823 Y-3.390 E2.20251
G1 X-1.406 Y-3.584 E2.27473
G1 X-0.966 Y-3.727 E2.34729
G1 X-0.745 Y-3.777 E2.38272
G1 X-0.286 Y-3.839 E2.45533
G1 X0.117 Y-3.847 E2.51866
G1 X0.402 Y-3.829 E2.56340
G1 X0.858 Y-3.753 E2.63588 F900.000
G1 X1.246 Y-3.642 E2.69921
G1 X1.721 Y-3.444 E2.77988
G1 X2.122 Y-3.213 E2.85245
G1 X2.490 Y-2.937 E2.92466
G1 X2.825 Y-2.617 E2.99723
G1 X2.973 Y-2.447 E3.03265
G1 X3.246 Y-2.071 E3.10557
G1 X3.362 Y-1.877 E3.14099
G1 X3.564 Y-1.458 E3.21391
G1 X3.643 Y-1.246 E3.24933
G1 X3.767 Y-0.800 E3.32190
G1 X3.835 Y-0.345 E3.39411
G1 X3.849 Y0.117 E3.46668
G1 X3.835 Y0.343 E3.50210
G1 X3.767 Y0.800 E3.57467
G1 X3.644 Y1.244 E3.64688
G1 X3.469 Y1.672 E3.71945
G1 X3.264 Y2.031 E3.78422
G1 X2.891 Y2.224 F900.000
G1 X2.268 Y2.846 E3.94640 F933.244
G1 X3.442 Y1.264 F900.000
G1 X1.262 Y3.444 E4.51425 F933.244
G1 X0.679 Y3.617 E4.62630
G1 X3.621 Y0.675 E5.39279
G1 X3.687 Y0.200 E5.48116
G1 X0.205 Y3.682 E6.38827
G1 X-0.211 Y3.689 E6.46492
G1 X3.688 Y-0.210 E7.48062
G1 X3.653 Y-0.584 E7.54981
G1 X-0.588 Y3.656 E8.65437
G1 X-0.929 Y3.589 E8.71854
G1 X3.587 Y-0.928 E9.89501
G1 X3.498 Y-1.248 E9.95620
G1 X-1.242 Y3.493 E11.19098
G1 X-1.540 Y3.381 E11.24950
G1 X3.379 Y-1.537 E12.53060
G1 X3.246 Y-1.814 E12.58706
G1 X-1.809 Y3.241 E13.90362
G1 X-2.065 Y3.088 E13.95856
G1 X3.090 Y-2.067 E15.30121
G1 X2.918 Y-2.304 E15.35516
G1 X-2.305 Y2.919 E16.71550
G1 X-2.515 Y2.719 E16.76881
G1 X2.718 Y-2.514 E18.13188
G1 X2.514 Y-2.718 E18.18516
G1 X-2.719 Y2.515 E19.54823
G1 X-2.918 Y2.305 E19.60154
G1 X2.303 Y-2.916 E20.96148
G1 X2.069 Y-3.092 E21.01531
G1 X-3.091 Y2.068 E22.35923
G1 X-3.241 Y1.809 E22.41433
G1 X1.810 Y-3.242 E23.73005
G1 X1.535 Y-3.376 E23.78640
G1 X-3.381 Y1.540 E25.06691
G1 X-3.494 Y1.244 E25.12531
G1 X1.246 Y-3.496 E26.35992
G1 X0.929 Y-3.589 E26.42070
G1 X-3.590 Y0.931 E27.59785
G1 X-3.653 Y0.585 E27.66261
G1 X0.584 Y-3.653 E28.76644
G1 X0.214 Y-3.691 E28.83508
G1 X-3.687 Y0.209 E29.85109
G1 X-3.684 Y-0.203 E29.92701
G1 X-0.200 Y-3.687 E30.83446
G1 X-0.675 Y-3.621 E30.92276
G1 X-3.619 Y-0.677 E31.68971
G1 X-3.445 Y-1.260 E31.80183
G1 X-1.256 Y-3.449 E32.37205
G1 X-2.270 Y-2.845 F900.000
G1 X-2.842 Y-2.272 E32.52114 F933.244
G92 E0

; filament used = 64.9mm (0.1cm3)

; avoid_crossing_perimeters = 1
; bed_shape = 44.7535x4.70378,44.0166x9.35603,42.7975x13.9058,41.1095x18.3031,38.9711x22.5,36.4058x26.4503,33.4415x30.1109,30.1109x33.4415,26.4503x36.4058,22.5x38.9711,18.3031x41.1095,13.9058x42.7975,9.35603x44.0166,4.70378x44.7535,0x45,-4.70378x44.7535,-9.35603x44.0166,-13.9058x42.7975,-18.3031x41.1095,-22.5x38.9711,-26.4503x36.4058,-30.1109x33.4415,-33.4415x30.1109,-36.4058x26.4503,-38.9711x22.5,-41.1095x18.3031,-42.7975x13.9058,-44.0166x9.35603,-44.7535x4.70378,-45x0,-44.7535x-4.70378,-44.0166x-9.35603,-42.7975x-13.9058,-41.1095x-18.3031,-38.9711x-22.5,-36.4058x-26.4503,-33.4415x-30.1109,-30.1109x-33.4415,-26.4503x-36.4058,-22.5x-38.9711,-18.3031x-41.1095,-13.9058x-42.7975,-9.35603x-44.0166,-4.70378x-44.7535,0x-45,4.70378x-44.7535,9.35603x-44.0166,13.9058x-42.7975,18.3031x-41.1095,22.5x-38.9711,26.4503x-36.4058,30.1109x-33.4415,33.4415x-30.1109,36.4058x-26.4503,38.9711x-22.5,41.1095x-18.3031,42.7975x-13.9058,44.0166x-9.35603,44.7535x-4.70378,45x0
; bed_temperature = 0
; before_layer_gcode = 
; bridge_acceleration = 0
; bridge_fan_speed = 100
; brim_width = 0
; complete_objects = 0
; cooling = 0
; default_acceleration = 0
; disable_fan_first_layers = 1
; duplicate_distance = 6
; end_gcode = 
; extruder_clearance_height = 20
; extruder_clearance_radius = 20
; extruder_offset = 0x0
; extrusion_axis = E
; extrusion_multiplier = 2
; fan_always_on = 0
; fan_below_layer_time = 60
; filament_colour = #FFFFFF
; filament_diameter = 1
; first_layer_acceleration = 0
; first_layer_bed_temperature = 0
; first_layer_extrusion_width = 100%
; first_layer_speed = 15
; first_layer_temperature = 200
; gcode_arcs = 0
; gcode_comments = 0
; gcode_flavor = reprap
; infill_acceleration = 0
; infill_first = 0
; layer_gcode = 
; max_fan_speed = 100
; max_print_speed = 15
; max_volumetric_speed = 1.125
; min_fan_speed = 35
; min_print_speed = 10
; min_skirt_length = 0
; notes = 
; nozzle_diameter = 0.3
; only_retract_when_crossing_perimeters = 1
; ooze_prevention = 0
; output_filename_format = [input_filename_base].gcode
; perimeter_acceleration = 0
; post_process = 
; pressure_advance = 0
; resolution = 0
; retract_before_travel = 2
; retract_layer_change = 1
; retract_length = 0
; retract_length_toolchange = 0
; retract_lift = 0
; retract_restart_extra = 0
; retract_restart_extra_toolchange = 0
; retract_speed = 30
; skirt_distance = 6
; skirt_height = 0
; skirts = 0
; slowdown_below_layer_time = 30
; spiral_vase = 0
; standby_temperature_delta = -5
; start_gcode = G28 ; home all axes
; temperature = 200
; threads = 2
; toolchange_gcode = 
; travel_speed = 15
; use_firmware_retraction = 0
; use_relative_e_distances = 0
; use_volumetric_e = 0
; vibration_limit = 0
; wipe = 0
; z_offset = 0
; dont_support_bridges = 1
; extrusion_width = 0
; first_layer_height = 0.25
; infill_only_where_needed = 0
; interface_shells = 0
; layer_height = 0.25
; raft_layers = 0
; seam_position = random
; support_material = 0
; support_material_angle = 0
; support_material_contact_distance = 0.2
; support_material_enforce_layers = 0
; support_material_extruder = 1
; support_material_extrusion_width = 0
; support_material_interface_extruder = 1
; support_material_interface_layers = 0
; support_material_interface_spacing = 0
; support_material_interface_speed = 100%
; support_material_pattern = rectilinear
; support_material_spacing = 2.5
; support_material_speed = 60
; support_material_threshold = 0
; xy_size_compensation = 0
; bottom_solid_layers = 0
; bridge_flow_ratio = 1
; bridge_speed = 15
; external_fill_pattern = rectilinear
; external_perimeter_extrusion_width = 0
; external_perimeter_speed = 15
; external_perimeters_first = 0
; extra_perimeters = 1
; fill_angle = 45
; fill_density = 100%
; fill_pattern = rectilinear
; gap_fill_speed = 15
; infill_every_layers = 1
; infill_extruder = 1
; infill_extrusion_width = 0
; infill_overlap = 15%
; infill_speed = 15
; overhangs = 1
; perimeter_extruder = 1
; perimeter_extrusion_width = 0
; perimeter_speed = 15
; perimeters = 1
; small_perimeter_speed = 15
; solid_infill_below_area = 70
; solid_infill_every_layers = 0
; solid_infill_extruder = 1
; solid_infill_extrusion_width = 0
; solid_infill_speed = 60
; thin_walls = 1
; top_infill_extrusion_width = 0
; top_solid_infill_speed = 50
; top_solid_layers = 0
