; generated by Slic3r 1.2.9 on 2019-11-13 at 12:07:32

; external perimeters extrusion width = 0.20mm
; perimeters extrusion width = 0.34mm
; infill extrusion width = 0.34mm
; solid infill extrusion width = 0.34mm
; top infill extrusion width = 0.34mm

M104 S200 ; set temperature
G28 ; home all axes
M109 S200 ; wait for temperature to be reached
G21 ; set units to millimeters
G90 ; use absolute coordinates
M82 ; use absolute distances for extrusion
G92 E0
G1 Z0.100 F1200.000
G1 X-3.047 Y2.554 F1200.000
G1 X-2.535 Y3.065 E0.01459 F1200.000
G1 X-2.110 Y3.378 F1200.000
G1 X-3.367 Y2.121 E0.05046 F1200.000
G1 X-3.534 Y1.843 F1200.000
G1 X-1.855 Y3.521 E0.09833 F1200.000
G1 X-1.621 Y3.644 F1200.000
G1 X-3.643 Y1.622 E0.15599 F1200.000
G1 X-3.714 Y1.438 F1200.000
G1 X-1.427 Y3.725 E0.22121 F1200.000
G1 X-1.261 Y3.779 E0.22472
G1 X-3.781 Y1.259 E0.29659
G1 X-3.835 Y1.093 E0.30011
G1 X-1.095 Y3.833 E0.37824
G1 X-0.936 Y3.880 E0.38158
G1 X-3.871 Y0.945 E0.46528
G1 X-3.907 Y0.797 E0.46836
G1 X-0.791 Y3.913 E0.55723
G1 X-0.657 Y3.935 E0.55996
G1 X-3.939 Y0.654 E0.65353
G1 X-3.958 Y0.522 E0.65622
G1 X-0.528 Y3.953 E0.75405
G1 X-0.398 Y3.970 E0.75669
G1 X-3.972 Y0.397 E0.85859
G1 X-3.979 Y0.278 E0.86100
G1 X-0.270 Y3.987 E0.96677
G1 X-0.153 Y3.992 E0.96913
G1 X-3.986 Y0.159 E1.07845
G1 X-3.993 Y0.039 E1.08086
G1 X-0.036 Y3.997 E1.19371
G1 X0.071 Y3.992 E1.19587
G1 X-3.995 Y-0.074 E1.31182
G1 X-3.991 Y-0.183 E1.31401
G1 X0.178 Y3.987 E1.43291
G1 X0.286 Y3.982 E1.43508
G1 X-3.985 Y-0.289 E1.55688
G1 X-3.973 Y-0.389 E1.55891
G1 X0.393 Y3.977 E1.68342
G1 X0.493 Y3.966 E1.68545
G1 X-3.961 Y-0.489 E1.81248
G1 X-3.949 Y-0.589 E1.81451
G1 X0.589 Y3.950 E1.94393
G1 X0.685 Y3.934 E1.94589
G1 X-3.937 Y-0.689 E2.07771
G1 X-3.921 Y-0.784 F1200.000
G1 X0.781 Y3.918 E2.21179 F1200.000
G1 X0.877 Y3.902 E2.21375
G1 X-3.901 Y-0.876 E2.35001
G1 X-3.881 Y-0.968 F1200.000
G1 X0.966 Y3.879 E2.48823 F1200.000
G1 X1.053 Y3.854 F1200.000
G1 X-3.854 Y-1.054 E2.62818 F1200.000
G1 X-3.828 Y-1.139 F1200.000
G1 X1.140 Y3.829 E2.76984 F1200.000
G1 X1.227 Y3.803 F1200.000
G1 X-3.801 Y-1.225 E2.91322 F1200.000
G1 X-3.775 Y-1.310 F1200.000
G1 X1.313 Y3.778 E3.05833 F1200.000
G1 X1.397 Y3.749 F1200.000
G1 X-3.749 Y-1.396 E3.20506 F1200.000
G1 X-3.718 Y-1.477 F1200.000
G1 X1.477 Y3.718 E3.35319 F1200.000
G1 X1.558 Y3.687 F1200.000
G1 X-3.685 Y-1.556 E3.50270 F1200.000
G1 X-3.652 Y-1.636 F1200.000
G1 X1.634 Y3.651 E3.65346 F1200.000
G1 X1.709 Y3.614 F1200.000
G1 X-3.614 Y-1.709 E3.80525 F1200.000
G1 X-3.576 Y-1.783 F1200.000
G1 X1.783 Y3.576 E3.95808 F1200.000
G1 X1.858 Y3.539 F1200.000
G1 X-3.538 Y-1.857 E4.11195 F1200.000
G1 X-3.499 Y-1.931 F1200.000
G1 X1.933 Y3.502 E4.26686 F1200.000
G1 X2.007 Y3.464 F1200.000
G1 X-3.461 Y-2.004 E4.42280 F1200.000
G1 X-3.421 Y-2.076 F1200.000
G1 X2.077 Y3.422 E4.57958 F1200.000
G1 X2.146 Y3.379 F1200.000
G1 X-3.376 Y-2.143 E4.73703 F1200.000
G1 X-3.330 Y-2.209 F1200.000
G1 X2.215 Y3.336 E4.89516 F1200.000
G1 X2.279 Y3.288 F1200.000
G1 X-3.285 Y-2.276 E5.05381 F1200.000
G1 X-3.239 Y-2.342 F1200.000
G1 X2.343 Y3.240 E5.21299 F1200.000
G1 X2.407 Y3.192 F1200.000
G1 X-3.194 Y-2.409 E5.37271 F1200.000
G1 X-3.146 Y-2.473 F1200.000
G1 X2.471 Y3.144 E5.53288 F1200.000
G1 X2.535 Y3.096 F1200.000
G1 X-3.094 Y-2.533 E5.69339 F1200.000
G1 X-3.041 Y-2.592 F1200.000
G1 X2.593 Y3.042 E5.85405 F1200.000
G1 X2.649 Y2.986 E5.85565
G1 X-2.985 Y-2.648 E6.01631
G1 X-2.929 Y-2.704 E6.01791
G1 X2.705 Y2.930 E6.17856
G1 X2.761 Y2.874 E6.18016
G1 X-2.873 Y-2.760 E6.34082
G1 X-2.817 Y-2.816 E6.34242
G1 X2.817 Y2.818 E6.50307
G1 X2.873 Y2.762 E6.50467
G1 X-2.761 Y-2.872 E6.66533
G1 X-2.705 Y-2.928 E6.66693
G1 X2.929 Y2.706 E6.82758
G1 X2.984 Y2.650 E6.82918
G1 X-2.649 Y-2.984 E6.98984
G1 X-2.593 Y-3.040 F1200.000
G1 X3.040 Y2.594 E7.15050 F1200.000
G1 X3.096 Y2.538 F1200.000
G1 X-2.533 Y-3.092 E7.31103 F1200.000
G1 X-2.471 Y-3.141 F1200.000
G1 X3.144 Y2.473 E7.47114 F1200.000
G1 X3.191 Y2.409 F1200.000
G1 X-2.408 Y-3.191 E7.63083 F1200.000
G1 X-2.346 Y-3.241 F1200.000
G1 X3.239 Y2.344 E7.79008 F1200.000
G1 X3.286 Y2.279 F1200.000
G1 X-2.281 Y-3.288 E7.94882 F1200.000
G1 X-2.212 Y-3.331 F1200.000
G1 X3.333 Y2.214 E8.10694 F1200.000
G1 X3.379 Y2.148 F1200.000
G1 X-2.143 Y-3.373 E8.26440 F1200.000
G1 X-2.073 Y-3.416 F1200.000
G1 X3.421 Y2.078 E8.42108 F1200.000
G1 X3.463 Y2.008 F1200.000
G1 X-2.004 Y-3.459 E8.57698 F1200.000
G1 X-1.935 Y-3.502 F1200.000
G1 X3.503 Y1.937 E8.73206 F1200.000
G1 X3.540 Y1.861 F1200.000
G1 X-1.862 Y-3.541 E8.88610 F1200.000
G1 X-1.785 Y-3.576 F1200.000
G1 X3.576 Y1.785 E9.03899 F1200.000
G1 X3.613 Y1.710 F1200.000
G1 X-1.709 Y-3.612 E9.19074 F1200.000
G1 X-1.632 Y-3.647 F1200.000
G1 X3.649 Y1.634 E9.34135 F1200.000
G1 X3.685 Y1.559 F1200.000
G1 X-1.556 Y-3.682 E9.49081 F1200.000
G1 X-1.479 Y-3.718 F1200.000
G1 X3.718 Y1.480 E9.63903 F1200.000
G1 X3.749 Y1.398 F1200.000
G1 X-1.398 Y-3.748 E9.78579 F1200.000
G1 X-1.315 Y-3.778 F1200.000
G1 X3.780 Y1.317 E9.93107 F1200.000
G1 X3.805 Y1.230 F1200.000
G1 X-1.232 Y-3.806 E10.07469 F1200.000
G1 X-1.143 Y-3.829 F1200.000
G1 X3.829 Y1.142 E10.21647 F1200.000
G1 X3.853 Y1.055 F1200.000
G1 X-1.054 Y-3.852 E10.35641 F1200.000
G1 X-0.965 Y-3.876 F1200.000
G1 X3.877 Y0.967 E10.49450 F1200.000
G1 X3.902 Y0.879 F1200.000
G1 X-0.876 Y-3.899 E10.63074 F1200.000
G1 X-0.787 Y-3.922 F1200.000
G1 X3.920 Y0.786 E10.76498 F1200.000
G1 X3.935 Y0.688 E10.76697
G1 X-0.689 Y-3.935 E10.89882
G1 X-0.590 Y-3.949 E10.90082
G1 X3.949 Y0.591 E11.03028
G1 X3.964 Y0.494 E11.03227
G1 X-0.492 Y-3.962 E11.15933
G1 X-0.393 Y-3.975 E11.16133
G1 X3.979 Y0.396 E11.28600
G1 X3.985 Y0.290 E11.28815
G1 X-0.293 Y-3.987 E11.41012
G1 X-0.185 Y-3.992 E11.41229
G1 X3.988 Y0.182 E11.53130
G1 X3.991 Y0.073 E11.53349
G1 X-0.078 Y-3.996 E11.64953
G1 X0.038 Y-3.992 E11.65188
G1 X3.994 Y-0.036 E11.76469
G1 X3.992 Y-0.150 E11.76700
G1 X0.156 Y-3.987 E11.87640
G1 X0.273 Y-3.981 E11.87877
G1 X3.981 Y-0.273 E11.98451
G1 X3.970 Y-0.396 E11.98700
G1 X0.390 Y-3.976 E12.08908
G1 X0.523 Y-3.955 E12.09179
G1 X3.959 Y-0.519 E12.18977
G1 X3.938 Y-0.653 E12.19249
G1 X0.658 Y-3.933 E12.28603
G1 X0.792 Y-3.911 E12.28878
G1 X3.907 Y-0.795 E12.37762
G1 X3.877 Y-0.937 E12.38055
G1 X0.933 Y-3.881 E12.46450
G1 X1.085 Y-3.841 E12.46767
G1 X3.840 Y-1.087 E12.54622
G1 X3.782 Y-1.257 F1200.000
G1 X1.256 Y-3.782 E12.61824 F1200.000
G1 X1.431 Y-3.719 F1200.000
G1 X3.724 Y-1.426 E12.68362 F1200.000
G1 X3.646 Y-1.617 F1200.000
G1 X1.617 Y-3.646 E12.74148 F1200.000
G1 X1.842 Y-3.533 F1200.000
G1 X3.529 Y-1.845 E12.78959 F1200.000
G1 X3.388 Y-2.099 F1200.000
G1 X2.107 Y-3.380 E12.82612 F1200.000
G1 X2.505 Y-3.093 F1200.000
G1 X3.108 Y-2.490 E12.84332 F1200.000
G92 E0
G1 Z0.200 F1200.000
G1 X3.670 Y1.311 F1200.000
G1 X1.309 Y3.672 E0.27224 F749.563
G1 X0.676 Y3.852 E0.32585
G1 X3.855 Y0.673 E0.69241
G1 X3.922 Y0.153 E0.73515
G1 X0.159 Y3.916 E1.16906
G1 X-0.293 Y3.916 E1.20598
G1 X3.918 Y-0.295 E1.69161
G1 X3.876 Y-0.706 E1.72525
G1 X-0.705 Y3.875 E2.25340
G1 X-1.072 Y3.789 E2.28415
G1 X3.790 Y-1.073 E2.84474
G1 X3.681 Y-1.417 E2.87417
G1 X-1.418 Y3.683 E3.46217
G1 X-1.733 Y3.544 E3.49018
G1 X3.550 Y-1.738 E4.09927
G1 X3.388 Y-2.029 E4.12642
G1 X-2.028 Y3.387 E4.75091
G1 X-2.307 Y3.212 E4.77770
G1 X3.209 Y-2.303 E5.41366
G1 X3.009 Y-2.556 E5.43995
G1 X-2.557 Y3.010 E6.08171
G1 X-2.783 Y2.783 E6.10782
G1 X2.783 Y-2.782 E6.74958
G1 X2.556 Y-3.009 E6.77569
G1 X-3.010 Y2.557 E7.41746
G1 X-3.211 Y2.306 E7.44372
G1 X2.304 Y-3.209 E8.07966
G1 X2.029 Y-3.387 E8.10636
G1 X-3.386 Y2.028 E8.73067
G1 X-3.544 Y1.733 E8.75792
G1 X1.737 Y-3.548 E9.36694
G1 X1.416 Y-3.680 E9.39526
G1 X-3.683 Y1.420 E9.98325
G1 X-3.790 Y1.074 E10.01278
G1 X1.076 Y-3.793 E10.57393
G1 X0.701 Y-3.870 E10.60520
G1 X-3.870 Y0.700 E11.13217
G1 X-3.915 Y0.293 E11.16560
G1 X0.294 Y-3.916 E11.65094
G1 X-0.154 Y-3.921 E11.68746
G1 X-3.922 Y-0.153 E12.12197
G1 X-3.856 Y-0.672 E12.16460
G1 X-0.670 Y-3.858 E12.53197
G1 X-1.304 Y-3.677 E12.58571
G1 X-3.676 Y-1.305 E12.85919
G1 X-3.012 Y-2.422 F1200.000
G1 X-2.415 Y-3.019 E12.92805 F749.563
G1 X3.061 Y2.373 F1200.000
G1 X2.388 Y3.046 E13.00573 F749.563
G92 E0
G1 Z0.300 F1200.000
G1 X-1.307 Y3.674 F1200.000
G1 X-3.676 Y1.305 E0.27312 F749.750
G1 X-3.848 Y0.680 E0.32592
G1 X-0.670 Y3.858 E0.69222
G1 X-0.153 Y3.922 E0.73467
G1 X-3.916 Y0.160 E1.16835
G1 X-3.920 Y-0.297 E1.20560
G1 X0.294 Y3.916 E1.69130
G1 X0.701 Y3.871 E1.72471
G1 X-3.873 Y-0.703 E2.25197
G1 X-3.790 Y-1.073 E2.28288
G1 X1.076 Y3.793 E2.84388
G1 X1.415 Y3.680 E2.87303
G1 X-3.684 Y-1.419 E3.46081
G1 X-3.545 Y-1.733 E3.48879
G1 X1.733 Y3.545 E4.09723
G1 X2.032 Y3.391 E4.12464
G1 X-3.390 Y-2.031 E4.74976
G1 X-3.208 Y-2.302 E4.77635
G1 X2.303 Y3.210 E5.41172
G1 X2.557 Y3.010 E5.43800
G1 X-3.010 Y-2.557 E6.07976
G1 X-2.784 Y-2.783 E6.10585
G1 X2.783 Y2.784 E6.74762
G1 X3.010 Y2.558 E6.77371
G1 X-2.558 Y-3.009 E7.41547
G1 X-2.307 Y-3.211 E7.44171
G1 X3.208 Y2.304 E8.07747
G1 X3.387 Y2.030 E8.10413
G1 X-2.029 Y-3.386 E8.72851
G1 X-1.734 Y-3.543 E8.75578
G1 X3.549 Y1.739 E9.36476
G1 X3.681 Y1.418 E9.39305
G1 X-1.420 Y-3.683 E9.98108
G1 X-1.073 Y-3.789 E10.01064
G1 X3.789 Y1.074 E10.57122
G1 X3.871 Y0.703 E10.60219
G1 X-0.703 Y-3.871 E11.12951
G1 X-0.300 Y-3.921 E11.16263
G1 X3.922 Y0.301 E11.64928
G1 X3.918 Y-0.155 E11.68644
G1 X0.157 Y-3.917 E12.12011
G1 X0.674 Y-3.852 E12.16258
G1 X3.856 Y-0.670 E12.52942
G1 X3.671 Y-1.307 E12.58347
G1 X1.309 Y-3.670 E12.85583
G1 X2.378 Y-3.054 F1200.000
G1 X3.072 Y-2.359 E12.93592 F749.750
G1 X-2.385 Y3.048 F1200.000
G1 X-3.013 Y2.420 E13.00835 F749.750
G92 E0
G1 Z0.400 F1200.000
G1 X-3.677 Y-1.304 F1200.000
G1 X-1.306 Y-3.674 E0.27336 F749.563
G1 X-0.670 Y-3.858 E0.32733
G1 X-3.846 Y-0.682 E0.69349
G1 X-3.915 Y-0.160 E0.73642
G1 X-0.154 Y-3.921 E1.17005
G1 X0.295 Y-3.917 E1.20664
G1 X-3.916 Y0.294 E1.69213
G1 X-3.874 Y0.704 E1.72579
G1 X0.701 Y-3.870 E2.25325
G1 X1.077 Y-3.794 E2.28457
G1 X-3.790 Y1.074 E2.84581
G1 X-3.684 Y1.420 E2.87534
G1 X1.416 Y-3.679 E3.46332
G1 X1.737 Y-3.548 E3.49165
G1 X-3.544 Y1.733 E4.10068
G1 X-3.391 Y2.032 E4.12809
G1 X2.029 Y-3.387 E4.75295
G1 X2.304 Y-3.209 E4.77965
G1 X-3.208 Y2.303 E5.41520
G1 X-3.010 Y2.557 E5.44150
G1 X2.556 Y-3.009 E6.08327
G1 X2.782 Y-2.782 E6.10937
G1 X-2.783 Y2.783 E6.75113
G1 X-2.557 Y3.010 E6.77724
G1 X3.009 Y-2.556 E7.41900
G1 X3.212 Y-2.306 E7.44524
G1 X-2.302 Y3.208 E8.08106
G1 X-2.030 Y3.388 E8.10770
G1 X3.389 Y-2.030 E8.73248
G1 X3.550 Y-1.738 E8.75966
G1 X-1.735 Y3.547 E9.36904
G1 X-1.417 Y3.682 E9.39720
G1 X3.681 Y-1.417 E9.98511
G1 X3.790 Y-1.073 E10.01453
G1 X-1.076 Y3.793 E10.57555
G1 X-0.702 Y3.871 E10.60672
G1 X3.871 Y-0.701 E11.13400
G1 X3.918 Y-0.295 E11.16731
G1 X-0.298 Y3.921 E11.65352
G1 X0.159 Y3.916 E11.69085
G1 X3.922 Y0.153 E12.12477
G1 X3.855 Y0.673 E12.16751
G1 X0.676 Y3.852 E12.53407
G1 X1.308 Y3.674 E12.58755
G1 X3.670 Y1.311 E12.85993
G1 X3.061 Y2.373 F1200.000
G1 X2.388 Y3.046 E12.93761 F749.563
G1 X-3.012 Y-2.422 F1200.000
G1 X-2.415 Y-3.019 E13.00647 F749.563
G92 E0
G1 Z0.500 F1200.000
G1 X1.307 Y-3.671 F1200.000
G1 X3.677 Y-1.302 E0.27311 F749.752
G1 X3.852 Y-0.674 E0.32627
G1 X0.674 Y-3.852 E0.69267
G1 X0.156 Y-3.917 E0.73520
G1 X3.918 Y-0.155 E1.16892
G1 X3.922 Y0.301 E1.20608
G1 X-0.300 Y-3.920 E1.69270
G1 X-0.703 Y-3.871 E1.72584
G1 X3.871 Y0.703 E2.25315
G1 X3.789 Y1.074 E2.28413
G1 X-1.077 Y-3.792 E2.84512
G1 X-1.419 Y-3.681 E2.87441
G1 X3.681 Y1.418 E3.46225
G1 X3.549 Y1.739 E3.49054
G1 X-1.734 Y-3.543 E4.09951
G1 X-2.029 Y-3.386 E4.12679
G1 X3.387 Y2.030 E4.75117
G1 X3.208 Y2.304 E4.77783
G1 X-2.307 Y-3.211 E5.41358
G1 X-2.558 Y-3.009 E5.43982
G1 X3.010 Y2.558 E6.08158
G1 X2.783 Y2.784 E6.10768
G1 X-2.784 Y-2.783 E6.74944
G1 X-3.010 Y-2.557 E6.77553
G1 X2.557 Y3.010 E7.41729
G1 X2.303 Y3.210 E7.44357
G1 X-3.212 Y-2.305 E8.07933
G1 X-3.386 Y-2.027 E8.10611
G1 X2.030 Y3.389 E8.73050
G1 X1.734 Y3.545 E8.75783
G1 X-3.545 Y-1.733 E9.36636
G1 X-3.681 Y-1.417 E9.39445
G1 X1.419 Y3.684 E9.98246
G1 X1.073 Y3.790 E10.01202
G1 X-3.789 Y-1.072 E10.57251
G1 X-3.873 Y-0.704 E10.60333
G1 X0.700 Y3.870 E11.13058
G1 X0.294 Y3.916 E11.16394
G1 X-3.917 Y-0.294 E11.64934
G1 X-3.915 Y0.160 E11.68641
G1 X-0.159 Y3.916 E12.11938
G1 X-0.678 Y3.850 E12.16207
G1 X-3.854 Y0.674 E12.52815
G1 X-3.668 Y1.313 E12.58237
G1 X-1.306 Y3.675 E12.85465
G1 X-2.400 Y3.034 F1200.000
G1 X-3.013 Y2.420 E12.92538 F749.752
G1 X2.377 Y-3.054 F1200.000
G1 X3.060 Y-2.372 E13.00404 F749.752
G92 E0
G1 Z0.600 F1200.000
G1 X3.670 Y1.311 F1200.000
G1 X1.309 Y3.672 E0.27223 F749.563
G1 X0.676 Y3.852 E0.32585
G1 X3.856 Y0.672 E0.69248
G1 X3.921 Y0.155 E0.73499
G1 X0.159 Y3.916 E1.16868
G1 X-0.298 Y3.921 E1.20601
G1 X3.918 Y-0.295 E1.69223
G1 X3.871 Y-0.701 E1.72554
G1 X-0.702 Y3.871 E2.25282
G1 X-1.076 Y3.793 E2.28398
G1 X3.790 Y-1.073 E2.84500
G1 X3.684 Y-1.420 E2.87457
G1 X-1.417 Y3.682 E3.46279
G1 X-1.732 Y3.544 E3.49083
G1 X3.545 Y-1.733 E4.09931
G1 X3.391 Y-2.032 E4.12673
G1 X-2.030 Y3.388 E4.75176
G1 X-2.303 Y3.209 E4.77843
G1 X3.209 Y-2.303 E5.41398
G1 X3.009 Y-2.556 E5.44026
G1 X-2.557 Y3.010 E6.08203
G1 X-2.783 Y2.783 E6.10813
G1 X2.783 Y-2.782 E6.74990
G1 X2.556 Y-3.009 E6.77600
G1 X-3.010 Y2.557 E7.41777
G1 X-3.211 Y2.306 E7.44403
G1 X2.304 Y-3.209 E8.07997
G1 X2.029 Y-3.387 E8.10668
G1 X-3.386 Y2.028 E8.73098
G1 X-3.544 Y1.733 E8.75823
G1 X1.737 Y-3.548 E9.36726
G1 X1.416 Y-3.679 E9.39559
G1 X-3.683 Y1.420 E9.98355
G1 X-3.790 Y1.074 E10.01307
G1 X1.077 Y-3.794 E10.57430
G1 X0.701 Y-3.870 E10.60562
G1 X-3.870 Y0.700 E11.13260
G1 X-3.915 Y0.293 E11.16602
G1 X0.295 Y-3.917 E11.65146
G1 X-0.155 Y-3.921 E11.68812
G1 X-3.918 Y-0.157 E12.12211
G1 X-3.844 Y-0.683 E12.16546
G1 X-0.670 Y-3.858 E12.53148
G1 X-1.304 Y-3.677 E12.58522
G1 X-3.677 Y-1.304 E12.85884
G1 X-3.012 Y-2.422 F1200.000
G1 X-2.415 Y-3.019 E12.92770 F749.563
G1 X3.061 Y2.373 F1200.000
G1 X2.388 Y3.046 E13.00538 F749.563
G92 E0
G1 Z0.700 F1200.000
G1 X-1.314 Y3.666 F1200.000
G1 X-3.670 Y1.311 E0.27158 F749.753
G1 X-3.849 Y0.679 E0.32513
G1 X-0.670 Y3.858 E0.69160
G1 X-0.153 Y3.922 E0.73405
G1 X-3.915 Y0.160 E1.16765
G1 X-3.918 Y-0.295 E1.20478
G1 X0.294 Y3.916 E1.69024
G1 X0.700 Y3.870 E1.72360
G1 X-3.873 Y-0.703 E2.25083
G1 X-3.789 Y-1.072 E2.28166
G1 X1.077 Y3.794 E2.84260
G1 X1.415 Y3.680 E2.87172
G1 X-3.681 Y-1.416 E3.45915
G1 X-3.545 Y-1.734 E3.48728
G1 X1.733 Y3.545 E4.09577
G1 X2.032 Y3.391 E4.12319
G1 X-3.386 Y-2.027 E4.74781
G1 X-3.212 Y-2.305 E4.77458
G1 X2.303 Y3.210 E5.41035
G1 X2.557 Y3.010 E5.43663
G1 X-3.010 Y-2.557 E6.07839
G1 X-2.784 Y-2.783 E6.10448
G1 X2.783 Y2.784 E6.74624
G1 X3.010 Y2.558 E6.77233
G1 X-2.558 Y-3.009 E7.41409
G1 X-2.307 Y-3.211 E7.44033
G1 X3.212 Y2.307 E8.07648
G1 X3.388 Y2.031 E8.10320
G1 X-2.029 Y-3.386 E8.72767
G1 X-1.734 Y-3.543 E8.75495
G1 X3.549 Y1.739 E9.36392
G1 X3.681 Y1.418 E9.39221
G1 X-1.419 Y-3.681 E9.98005
G1 X-1.077 Y-3.792 E10.00934
G1 X3.789 Y1.074 E10.57033
G1 X3.871 Y0.703 E10.60131
G1 X-0.703 Y-3.871 E11.12862
G1 X-0.299 Y-3.920 E11.16178
G1 X3.922 Y0.301 E11.64837
G1 X3.918 Y-0.155 E11.68553
G1 X0.155 Y-3.918 E12.11932
G1 X0.674 Y-3.852 E12.16190
G1 X3.856 Y-0.670 E12.52874
G1 X3.671 Y-1.307 E12.58279
G1 X1.309 Y-3.670 E12.85515
G1 X2.377 Y-3.054 F1200.000
G1 X3.051 Y-2.381 E12.93279 F749.753
G1 X-2.400 Y3.034 F1200.000
G1 X-3.013 Y2.420 E13.00352 F749.753
G92 E0
G1 Z0.800 F1200.000
G1 X-3.676 Y-1.305 F1200.000
G1 X-1.306 Y-3.674 E0.27327 F749.563
G1 X-0.670 Y-3.858 E0.32724
G1 X-3.845 Y-0.683 E0.69335
G1 X-3.917 Y-0.158 E0.73655
G1 X-0.155 Y-3.920 E1.17039
G1 X0.296 Y-3.918 E1.20712
G1 X-3.917 Y0.295 E1.69288
G1 X-3.873 Y0.704 E1.72642
G1 X0.701 Y-3.870 E2.25382
G1 X1.074 Y-3.791 E2.28498
G1 X-3.789 Y1.073 E2.84579
G1 X-3.680 Y1.416 E2.87519
G1 X1.417 Y-3.681 E3.46293
G1 X1.735 Y-3.546 E3.49109
G1 X-3.545 Y1.734 E4.09993
G1 X-3.386 Y2.028 E4.12715
G1 X2.030 Y-3.388 E4.75162
G1 X2.304 Y-3.209 E4.77829
G1 X-3.210 Y2.305 E5.41409
G1 X-3.006 Y2.553 E5.44032
G1 X2.556 Y-3.009 E6.08166
G1 X2.783 Y-2.782 E6.10776
G1 X-2.779 Y2.780 E6.74909
G1 X-2.553 Y3.006 E6.77520
G1 X3.009 Y-2.556 E7.41653
G1 X3.209 Y-2.303 E7.44282
G1 X-2.306 Y3.212 E8.07871
G1 X-2.028 Y3.387 E8.10549
