; generated by Slic3r 1.2.9 on 2019-10-11 at 14:23:09

; external perimeters extrusion width = 0.30mm
; perimeters extrusion width = 0.34mm
; infill extrusion width = 0.34mm
; solid infill extrusion width = 0.34mm
; top infill extrusion width = 0.34mm

M104 S200 ; set temperature
G28 ; home all axes
M109 S200 ; wait for temperature to be reached
G21 ; set units to millimeters
G90 ; use absolute coordinates
M82 ; use absolute distances for extrusion
G92 E0
G1 Z0.250 F360.000
G1 X2.950 Y-2.512 F360.000
G1 X3.267 Y-2.084 E0.06658 F360.000
G1 X3.384 Y-1.889 E0.09509
G1 X3.587 Y-1.468 E0.15349
G1 X3.667 Y-1.254 E0.18200
G1 X3.791 Y-0.806 E0.24017
G1 X3.860 Y-0.347 E0.29810
G1 X3.874 Y0.118 E0.35627
G1 X3.860 Y0.345 E0.38478
G1 X3.791 Y0.806 E0.44294
G1 X3.667 Y1.254 E0.50111
G1 X3.586 Y1.469 E0.52986
G1 X3.493 Y1.680 E0.55860
G1 X3.266 Y2.086 E0.61677
G1 X2.994 Y2.461 E0.67470
G1 X2.679 Y2.801 E0.73263
G1 X2.324 Y3.102 E0.79080
G1 X1.940 Y3.355 E0.84826
G1 X1.524 Y3.563 E0.90643
G1 X1.086 Y3.720 E0.96450
G1 X0.807 Y3.789 E1.00045
G1 X0.406 Y3.854 E1.05124
G1 X-0.057 Y3.874 E1.10920
G1 X-0.521 Y3.840 E1.16737
G1 X-0.746 Y3.802 E1.19588
G1 X-1.198 Y3.685 E1.25419
G1 X-1.467 Y3.585 E1.29013
G1 X-1.835 Y3.412 E1.34092
G1 X-2.231 Y3.167 E1.39912
G1 X-2.414 Y3.031 E1.42763
G1 X-2.759 Y2.719 E1.48580
G1 X-3.066 Y2.369 E1.54396
G1 X-3.201 Y2.183 E1.57271
G1 X-3.325 Y1.989 E1.60145
G1 X-3.540 Y1.574 E1.65986
G1 X-3.626 Y1.363 E1.68837
G1 X-3.763 Y0.919 E1.74653
G1 X-3.846 Y0.463 E1.80447
G1 X-3.874 Y-0.001 E1.86254
G1 X-3.862 Y-0.288 E1.89849
G1 X-3.812 Y-0.692 E1.94927
G1 X-3.701 Y-1.143 E2.00738
G1 X-3.605 Y-1.414 E2.04332
G1 X-3.438 Y-1.785 E2.09411
G1 X-3.200 Y-2.184 E2.15231
G1 X-3.066 Y-2.369 E2.18082
G1 X-2.759 Y-2.719 E2.23899
G1 X-2.414 Y-3.031 E2.29715
G1 X-2.231 Y-3.167 E2.32566
G1 X-1.835 Y-3.412 E2.38383
G1 X-1.413 Y-3.608 E2.44200
G1 X-1.198 Y-3.685 E2.47051
G1 X-0.748 Y-3.802 E2.52868
G1 X-0.288 Y-3.864 E2.58675
G1 X-0.000 Y-3.874 E2.62269
G1 X0.406 Y-3.854 E2.67348
G1 X0.864 Y-3.777 E2.73159 F360.000
G1 X1.142 Y-3.702 E2.76753
G1 X1.525 Y-3.562 E2.81855
G1 X1.733 Y-3.466 E2.84710
G1 X2.135 Y-3.234 E2.90526
G1 X2.506 Y-2.956 E2.96320
G1 X2.920 Y-2.546 E3.03600
G1 X2.940 Y-2.300 F360.000
G1 X2.313 Y-2.927 E3.14906 F360.000
G1 X1.542 Y-3.415 F360.000
G1 X3.405 Y-1.553 E3.48498 F360.000
G1 X3.593 Y-1.081 F360.000
G1 X1.079 Y-3.595 E3.93830 F360.000
G1 X0.700 Y-3.691 E3.98818
G1 X3.694 Y-0.696 E4.52823
G1 X3.745 Y-0.363 E4.57126
G1 X0.360 Y-3.747 E5.18165
G1 X0.061 Y-3.763 E5.21990
G1 X3.762 Y-0.062 E5.88746
G1 X3.765 Y0.224 E5.92393
G1 X-0.222 Y-3.762 E6.64292
G1 X-0.480 Y-3.737 E6.67600
G1 X3.739 Y0.482 E7.43696
G1 X3.702 Y0.728 E7.46872
G1 X-0.729 Y-3.703 E8.26799
G1 X-0.957 Y-3.648 E8.29792
G1 X3.650 Y0.959 E9.12884
G1 X3.588 Y1.181 E9.15822
G1 X-1.182 Y-3.590 E10.01865
G1 X-1.392 Y-3.516 E10.04699
G1 X3.512 Y1.388 E10.93153
G1 X3.430 Y1.589 E10.95923
G1 X-1.586 Y-3.427 E11.86393
G1 X-1.780 Y-3.337 E11.89114
G1 X3.335 Y1.777 E12.81364
G1 X3.234 Y1.959 E12.84020
G1 X-1.957 Y-3.231 E13.77647
G1 X-2.132 Y-3.123 E13.80272
G1 X3.123 Y2.132 E14.75064
G1 X3.004 Y2.296 E14.77651
G1 X-2.299 Y-3.006 E15.73291
G1 X-2.451 Y-2.875 E15.75853
G1 X2.875 Y2.451 E16.71916
G1 X2.734 Y2.593 E16.74472
G1 X-2.592 Y-2.733 E17.70535
G1 X-2.734 Y-2.592 E17.73090
G1 X2.592 Y2.734 E18.69153
G1 X2.450 Y2.876 E18.71708
G1 X-2.876 Y-2.450 E19.67771
G1 X-3.007 Y-2.298 E19.70333
G1 X2.298 Y3.007 E20.66030
G1 X2.130 Y3.122 E20.68630
G1 X-3.126 Y-2.133 E21.63426
G1 X-3.232 Y-1.956 E21.66061
G1 X1.959 Y3.235 E22.59691
G1 X1.776 Y3.335 E22.62354
G1 X-3.338 Y-1.778 E23.54587
G1 X-3.428 Y-1.585 E23.57307
G1 X1.587 Y3.430 E24.47757
G1 X1.387 Y3.513 E24.50523
G1 X-3.515 Y-1.389 E25.38933
G1 X-3.589 Y-1.180 E25.41763
G1 X1.178 Y3.587 E26.27750
G1 X0.959 Y3.652 E26.30660
G1 X-3.648 Y-0.956 E27.13761
G1 X-3.703 Y-0.728 E27.16751
G1 X0.726 Y3.701 E27.96641
G1 X0.482 Y3.741 E27.99792
G1 X-3.737 Y-0.478 E28.75889
G1 X-3.761 Y-0.219 E28.79209
G1 X0.216 Y3.759 E29.50949
G1 X-0.060 Y3.765 E29.54478
G1 X-3.762 Y0.064 E30.21245
G1 X-3.744 Y0.365 E30.25096
G1 X-0.367 Y3.742 E30.86014
G1 X-0.699 Y3.694 E30.90296
G1 X-3.687 Y0.705 E31.44192
G1 X-3.586 Y1.090 E31.49265
G1 X-1.082 Y3.594 E31.94430
G1 X-1.556 Y3.403 F360.000
G1 X-3.405 Y1.554 E32.27772 F360.000
G1 X-2.892 Y2.350 F360.000
G1 X-2.329 Y2.914 E32.37931 F360.000
G92 E0
G1 Z0.500 F360.000
G1 X-3.549 Y-1.475 F360.000
G1 X-3.416 Y-1.774 E0.05125 F360.000
G1 X-3.210 Y-2.121 E0.11458
G1 X-3.045 Y-2.354 E0.15932
G1 X-2.740 Y-2.703 E0.23210
G1 X-2.577 Y-2.860 E0.26752
G1 X-2.215 Y-3.148 E0.34008
G1 X-1.823 Y-3.390 E0.41230
G1 X-1.406 Y-3.584 E0.48451
G1 X-0.966 Y-3.727 E0.55708
G1 X-0.745 Y-3.777 E0.59250
G1 X-0.286 Y-3.839 E0.66512
G1 X0.117 Y-3.847 E0.72845
G1 X0.402 Y-3.829 E0.77319
G1 X0.858 Y-3.753 E0.84566 F360.000
G1 X1.246 Y-3.642 E0.90899
G1 X1.515 Y-3.540 E0.95409
G1 X1.721 Y-3.444 E0.98972
G1 X2.122 Y-3.213 E1.06229
G1 X2.490 Y-2.937 E1.13450
G1 X2.825 Y-2.617 E1.20707
G1 X2.973 Y-2.447 E1.24249
G1 X3.246 Y-2.071 E1.31541
G1 X3.362 Y-1.877 E1.35083
G1 X3.564 Y-1.458 E1.42375
G1 X3.643 Y-1.246 E1.45917
G1 X3.767 Y-0.800 E1.53174
G1 X3.835 Y-0.345 E1.60395
G1 X3.849 Y0.117 E1.67652
G1 X3.835 Y0.343 E1.71194
G1 X3.767 Y0.800 E1.78451
G1 X3.644 Y1.244 E1.85672
G1 X3.469 Y1.672 E1.92929
G1 X3.364 Y1.873 E1.96471
G1 X3.114 Y2.265 E2.03763
G1 X2.976 Y2.443 E2.07305
G1 X2.661 Y2.783 E2.14562
G1 X2.308 Y3.082 E2.21818
G1 X2.123 Y3.212 E2.25365
G1 X1.773 Y3.416 E2.31734
G1 X1.515 Y3.540 E2.36213
G1 X1.134 Y3.678 E2.42567
G1 X0.859 Y3.753 E2.47041
G1 X0.403 Y3.829 E2.54283
G1 X-0.057 Y3.849 E2.61505
G1 X-0.518 Y3.815 E2.68762
G1 X-0.743 Y3.777 E2.72339
G1 X-0.966 Y3.727 E2.75916
G1 X-1.408 Y3.583 E2.83208
G1 X-1.615 Y3.494 E2.86750
G1 X-2.023 Y3.275 E2.94007
G1 X-2.399 Y3.010 E3.01228
G1 X-2.742 Y2.702 E3.08455
G1 X-3.009 Y2.399 E3.14788
G1 X-3.181 Y2.168 E3.19297
G1 X-3.303 Y1.977 E3.22860
G1 X-3.516 Y1.566 E3.30122
G1 X-3.660 Y1.188 E3.36455
G1 X-3.739 Y0.914 E3.40929
G1 X-3.821 Y0.460 E3.48172
G1 X-3.849 Y-0.002 E3.55428
G1 X-3.842 Y-0.228 E3.58970
G1 X-3.787 Y-0.690 E3.66262
G1 X-3.740 Y-0.911 E3.69804
G1 X-3.567 Y-1.434 E3.78449
G1 X-2.842 Y-2.272 F360.000
G1 X-2.270 Y-2.845 E3.93358 F373.298
G1 X-1.256 Y-3.449 F360.000
G1 X-3.445 Y-1.260 E4.50380 F373.298
G1 X-3.619 Y-0.677 E4.61592
G1 X-0.675 Y-3.621 E5.38288
G1 X-0.200 Y-3.687 E5.47117
G1 X-3.684 Y-0.203 E6.37862
G1 X-3.687 Y0.209 E6.45454
G1 X0.214 Y-3.691 E7.47055
G1 X0.584 Y-3.653 E7.53919
G1 X-3.653 Y0.585 E8.64303
G1 X-3.590 Y0.931 E8.70778
G1 X0.929 Y-3.589 E9.88494
G1 X1.246 Y-3.496 E9.94571
G1 X-3.494 Y1.244 E11.18032
G1 X-3.381 Y1.540 E11.23872
G1 X1.535 Y-3.376 E12.51923
G1 X1.810 Y-3.242 E12.57558
G1 X-3.241 Y1.809 E13.89130
G1 X-3.091 Y2.068 E13.94640
G1 X2.069 Y-3.092 E15.29032
G1 X2.303 Y-2.916 E15.34415
G1 X-2.918 Y2.305 E16.70409
G1 X-2.719 Y2.515 E16.75740
G1 X2.514 Y-2.718 E18.12047
G1 X2.718 Y-2.514 E18.17375
G1 X-2.515 Y2.719 E19.53682
G1 X-2.305 Y2.919 E19.59013
G1 X2.918 Y-2.304 E20.95047
G1 X3.090 Y-2.067 E21.00443
G1 X-2.065 Y3.088 E22.34707
G1 X-1.809 Y3.241 E22.40201
G1 X3.246 Y-1.814 E23.71857
G1 X3.379 Y-1.537 E23.77503
G1 X-1.540 Y3.381 E25.05613
G1 X-1.242 Y3.493 E25.11465
G1 X3.498 Y-1.248 E26.34943
G1 X3.587 Y-0.928 E26.41062
G1 X-0.929 Y3.589 E27.58709
G1 X-0.588 Y3.656 E27.65126
G1 X3.653 Y-0.584 E28.75582
G1 X3.688 Y-0.210 E28.82501
G1 X-0.211 Y3.689 E29.84071
G1 X0.205 Y3.682 E29.91736
G1 X3.687 Y0.200 E30.82447
G1 X3.621 Y0.675 E30.91284
G1 X0.679 Y3.617 E31.67933
G1 X1.262 Y3.444 E31.79138
G1 X3.442 Y1.264 E32.35923
G1 X2.891 Y2.224 F360.000
G1 X2.268 Y2.846 E32.52141 F373.298
G92 E0

; filament used = 64.9mm (0.1cm3)

; avoid_crossing_perimeters = 1
; bed_shape = 44.7535x4.70378,44.0166x9.35603,42.7975x13.9058,41.1095x18.3031,38.9711x22.5,36.4058x26.4503,33.4415x30.1109,30.1109x33.4415,26.4503x36.4058,22.5x38.9711,18.3031x41.1095,13.9058x42.7975,9.35603x44.0166,4.70378x44.7535,0x45,-4.70378x44.7535,-9.35603x44.0166,-13.9058x42.7975,-18.3031x41.1095,-22.5x38.9711,-26.4503x36.4058,-30.1109x33.4415,-33.4415x30.1109,-36.4058x26.4503,-38.9711x22.5,-41.1095x18.3031,-42.7975x13.9058,-44.0166x9.35603,-44.7535x4.70378,-45x0,-44.7535x-4.70378,-44.0166x-9.35603,-42.7975x-13.9058,-41.1095x-18.3031,-38.9711x-22.5,-36.4058x-26.4503,-33.4415x-30.1109,-30.1109x-33.4415,-26.4503x-36.4058,-22.5x-38.9711,-18.3031x-41.1095,-13.9058x-42.7975,-9.35603x-44.0166,-4.70378x-44.7535,0x-45,4.70378x-44.7535,9.35603x-44.0166,13.9058x-42.7975,18.3031x-41.1095,22.5x-38.9711,26.4503x-36.4058,30.1109x-33.4415,33.4415x-30.1109,36.4058x-26.4503,38.9711x-22.5,41.1095x-18.3031,42.7975x-13.9058,44.0166x-9.35603,44.7535x-4.70378,45x0
; bed_temperature = 0
; before_layer_gcode = 
; bridge_acceleration = 0
; bridge_fan_speed = 100
; brim_width = 0
; complete_objects = 0
; cooling = 0
; default_acceleration = 0
; disable_fan_first_layers = 1
; duplicate_distance = 6
; end_gcode = 
; extruder_clearance_height = 20
; extruder_clearance_radius = 20
; extruder_offset = 0x0
; extrusion_axis = E
; extrusion_multiplier = 2
; fan_always_on = 0
; fan_below_layer_time = 60
; filament_colour = #FFFFFF
; filament_diameter = 1
; first_layer_acceleration = 0
; first_layer_bed_temperature = 0
; first_layer_extrusion_width = 100%
; first_layer_speed = 6
; first_layer_temperature = 200
; gcode_arcs = 0
; gcode_comments = 0
; gcode_flavor = reprap
; infill_acceleration = 0
; infill_first = 0
; layer_gcode = 
; max_fan_speed = 100
; max_print_speed = 6
; max_volumetric_speed = 0.45
; min_fan_speed = 35
; min_print_speed = 10
; min_skirt_length = 0
; notes = 
; nozzle_diameter = 0.3
; only_retract_when_crossing_perimeters = 1
; ooze_prevention = 0
; output_filename_format = [input_filename_base].gcode
; perimeter_acceleration = 0
; post_process = 
; pressure_advance = 0
; resolution = 0
; retract_before_travel = 2
; retract_layer_change = 1
; retract_length = 0
; retract_length_toolchange = 0
; retract_lift = 0
; retract_restart_extra = 0
; retract_restart_extra_toolchange = 0
; retract_speed = 30
; skirt_distance = 6
; skirt_height = 0
; skirts = 0
; slowdown_below_layer_time = 30
; spiral_vase = 0
; standby_temperature_delta = -5
; start_gcode = G28 ; home all axes
; temperature = 200
; threads = 2
; toolchange_gcode = 
; travel_speed = 6
; use_firmware_retraction = 0
; use_relative_e_distances = 0
; use_volumetric_e = 0
; vibration_limit = 0
; wipe = 0
; z_offset = 0
; dont_support_bridges = 1
; extrusion_width = 0
; first_layer_height = 0.25
; infill_only_where_needed = 0
; interface_shells = 0
; layer_height = 0.25
; raft_layers = 0
; seam_position = random
; support_material = 0
; support_material_angle = 0
; support_material_contact_distance = 0.2
; support_material_enforce_layers = 0
; support_material_extruder = 1
; support_material_extrusion_width = 0
; support_material_interface_extruder = 1
; support_material_interface_layers = 0
; support_material_interface_spacing = 0
; support_material_interface_speed = 100%
; support_material_pattern = rectilinear
; support_material_spacing = 2.5
; support_material_speed = 60
; support_material_threshold = 0
; xy_size_compensation = 0
; bottom_solid_layers = 0
; bridge_flow_ratio = 1
; bridge_speed = 6
; external_fill_pattern = rectilinear
; external_perimeter_extrusion_width = 0
; external_perimeter_speed = 6
; external_perimeters_first = 0
; extra_perimeters = 1
; fill_angle = 45
; fill_density = 100%
; fill_pattern = rectilinear
; gap_fill_speed = 6
; infill_every_layers = 1
; infill_extruder = 1
; infill_extrusion_width = 0
; infill_overlap = 15%
; infill_speed = 6
; overhangs = 1
; perimeter_extruder = 1
; perimeter_extrusion_width = 0
; perimeter_speed = 6
; perimeters = 1
; small_perimeter_speed = 6
; solid_infill_below_area = 70
; solid_infill_every_layers = 0
; solid_infill_extruder = 1
; solid_infill_extrusion_width = 0
; solid_infill_speed = 60
; thin_walls = 1
; top_infill_extrusion_width = 0
; top_solid_infill_speed = 50
; top_solid_layers = 0
