; generated by Slic3r 1.2.9 on 2019-10-17 at 17:30:32

; external perimeters extrusion width = 0.30mm
; perimeters extrusion width = 0.34mm
; infill extrusion width = 0.34mm
; solid infill extrusion width = 0.34mm
; top infill extrusion width = 0.34mm

M104 S200 ; set temperature
G28 ; home all axes
M109 S200 ; wait for temperature to be reached
G21 ; set units to millimeters
G90 ; use absolute coordinates
M82 ; use absolute distances for extrusion
G92 E0
G1 Z0.250 F600.000
G1 X-2.688 Y-2.784 F600.000
G1 X-2.414 Y-3.031 E0.04617 F600.000
G1 X-2.231 Y-3.167 E0.07468
G1 X-1.835 Y-3.412 E0.13285
G1 X-1.413 Y-3.608 E0.19102
G1 X-1.198 Y-3.685 E0.21953
G1 X-0.748 Y-3.802 E0.27769
G1 X-0.288 Y-3.864 E0.33577
G1 X-0.000 Y-3.874 E0.37171
G1 X0.406 Y-3.854 E0.42250
G1 X0.864 Y-3.777 E0.48060 F600.000
G1 X1.142 Y-3.702 E0.51655
G1 X1.525 Y-3.562 E0.56757
G1 X1.733 Y-3.466 E0.59612
G1 X2.135 Y-3.234 E0.65428
G1 X2.506 Y-2.956 E0.71221
G1 X2.843 Y-2.634 E0.77038
G1 X2.993 Y-2.462 E0.79889
G1 X3.267 Y-2.084 E0.85729
G1 X3.384 Y-1.889 E0.88581
G1 X3.587 Y-1.468 E0.94421
G1 X3.667 Y-1.254 E0.97272
G1 X3.791 Y-0.806 E1.03088
G1 X3.860 Y-0.347 E1.08882
G1 X3.874 Y0.118 E1.14698
G1 X3.860 Y0.345 E1.17549
G1 X3.791 Y0.806 E1.23366
G1 X3.667 Y1.254 E1.29183
G1 X3.586 Y1.469 E1.32057
G1 X3.493 Y1.680 E1.34932
G1 X3.266 Y2.086 E1.40749
G1 X2.994 Y2.461 E1.46542
G1 X2.679 Y2.801 E1.52335
G1 X2.324 Y3.102 E1.58152
G1 X1.940 Y3.355 E1.63898
G1 X1.524 Y3.563 E1.69715
G1 X1.086 Y3.720 E1.75522
G1 X0.807 Y3.789 E1.79117
G1 X0.406 Y3.854 E1.84195
G1 X-0.057 Y3.874 E1.89992
G1 X-0.521 Y3.840 E1.95808
G1 X-0.746 Y3.802 E1.98660
G1 X-1.198 Y3.685 E2.04490
G1 X-1.467 Y3.585 E2.08085
G1 X-1.835 Y3.412 E2.13164
G1 X-2.231 Y3.167 E2.18984
G1 X-2.414 Y3.031 E2.21835
G1 X-2.759 Y2.719 E2.27651
G1 X-3.066 Y2.369 E2.33468
G1 X-3.325 Y1.989 E2.39215
G1 X-3.540 Y1.574 E2.45055
G1 X-3.626 Y1.363 E2.47906
G1 X-3.763 Y0.919 E2.53723
G1 X-3.846 Y0.463 E2.59516
G1 X-3.874 Y-0.001 E2.65323
G1 X-3.862 Y-0.288 E2.68918
G1 X-3.812 Y-0.692 E2.73996
G1 X-3.701 Y-1.143 E2.79807
G1 X-3.605 Y-1.414 E2.83401
G1 X-3.438 Y-1.785 E2.88480
G1 X-3.200 Y-2.184 E2.94300
G1 X-3.066 Y-2.369 E2.97151
G1 X-2.722 Y-2.753 E3.03601
G1 X-3.607 Y1.121 F600.000
G1 X-1.111 Y3.617 E3.47782 F600.000
G1 X-0.735 Y3.714 E3.52641
G1 X-3.711 Y0.739 E4.05311
G1 X-3.771 Y0.400 E4.09619
G1 X-0.403 Y3.769 E4.69254
G1 X-0.102 Y3.792 E4.73027
G1 X-3.789 Y0.105 E5.38297
G1 X-3.792 Y-0.177 E5.41820
G1 X0.174 Y3.790 E6.12039
G1 X0.440 Y3.778 E6.15368
G1 X-3.772 Y-0.435 E6.89931
G1 X-3.741 Y-0.682 E6.93050
G1 X0.679 Y3.739 E7.71305
G1 X0.912 Y3.694 E7.74275
G1 X-3.690 Y-0.908 E8.55740
G1 X-3.635 Y-1.132 E8.58619
G1 X1.132 Y3.635 E9.43006
G1 X1.337 Y3.562 E9.45728
G1 X-3.564 Y-1.339 E10.32476
G1 X-3.482 Y-1.535 E10.35140
G1 X1.539 Y3.486 E11.24032
G1 X1.725 Y3.394 E11.26627
G1 X-3.396 Y-1.727 E12.17272
G1 X-3.296 Y-1.905 E12.19829
G1 X1.910 Y3.301 E13.11988
G1 X2.079 Y3.192 E13.14505
G1 X-3.192 Y-2.079 E14.07810
G1 X-3.081 Y-2.246 E14.10321
G1 X2.246 Y3.081 E15.04628
G1 X2.402 Y2.959 E15.07107
G1 X-2.959 Y-2.402 E16.01997
G1 X-2.823 Y-2.544 E16.04459
G1 X2.545 Y2.823 E16.99476
G1 X2.684 Y2.684 E17.01938
G1 X-2.684 Y-2.683 E17.96955
G1 X-2.545 Y-2.822 E17.99417
G1 X2.823 Y2.545 E18.94434
G1 X2.961 Y2.406 E18.96896
G1 X-2.405 Y-2.960 E19.91875
G1 X-2.248 Y-3.081 E19.94356
G1 X3.078 Y2.244 E20.88630
G1 X3.195 Y2.083 E20.91122
G1 X-2.079 Y-3.191 E21.84485
G1 X-1.907 Y-3.297 E21.87014
G1 X3.296 Y1.907 E22.79133
G1 X3.396 Y1.728 E22.81691
G1 X-1.726 Y-3.394 E23.72370
G1 X-1.536 Y-3.482 E23.74991
G1 X3.483 Y1.537 E24.63845
G1 X3.564 Y1.340 E24.66513
G1 X-1.342 Y-3.565 E25.53347
G1 X-1.131 Y-3.633 E25.56111
G1 X3.633 Y1.131 E26.40443
G1 X3.693 Y0.913 E26.43273
G1 X-0.911 Y-3.691 E27.24764
G1 X-0.682 Y-3.740 E27.27696
G1 X3.739 Y0.681 E28.05950
G1 X3.775 Y0.439 E28.09009
G1 X-0.437 Y-3.773 E28.83571
G1 X-0.179 Y-3.793 E28.86805
G1 X3.797 Y0.183 E29.57185
G1 X3.790 Y-0.102 E29.60745
G1 X0.101 Y-3.791 E30.26046
G1 X0.400 Y-3.770 E30.29790
G1 X3.769 Y-0.402 E30.89421
G1 X3.719 Y-0.729 E30.93566
G1 X0.733 Y-3.715 E31.46422
G1 X1.112 Y-3.614 E31.51329
G1 X3.615 Y-1.111 E31.95634
G1 X3.424 Y-1.580 F600.000
G1 X1.569 Y-3.435 E32.28468 F600.000
G1 X2.333 Y-2.949 F600.000
G1 X2.963 Y-2.320 E32.39616 F600.000
G1 X-1.583 Y3.423 F600.000
G1 X-3.423 Y1.583 E32.72181 F600.000
G1 X-2.913 Y2.371 F600.000
G1 X-2.350 Y2.934 E32.82152 F600.000
G92 E0
G1 Z0.500 F600.000
G1 X-2.295 Y-3.085 F600.000
G1 X-1.823 Y-3.390 E0.08808 F600.000
G1 X-1.406 Y-3.584 E0.16029
G1 X-0.966 Y-3.727 E0.23286
G1 X-0.745 Y-3.777 E0.26828
G1 X-0.286 Y-3.839 E0.34090
G1 X0.117 Y-3.847 E0.40423
G1 X0.402 Y-3.829 E0.44897
G1 X0.858 Y-3.753 E0.52145 F600.000
G1 X1.246 Y-3.642 E0.58478
G1 X1.721 Y-3.444 E0.66545
G1 X2.122 Y-3.213 E0.73802
G1 X2.490 Y-2.937 E0.81023
G1 X2.825 Y-2.617 E0.88280
G1 X2.973 Y-2.447 E0.91822
G1 X3.246 Y-2.071 E0.99114
G1 X3.362 Y-1.877 E1.02656
G1 X3.564 Y-1.458 E1.09948
G1 X3.643 Y-1.246 E1.13490
G1 X3.767 Y-0.800 E1.20747
G1 X3.835 Y-0.345 E1.27968
G1 X3.849 Y0.117 E1.35225
G1 X3.835 Y0.343 E1.38767
G1 X3.767 Y0.800 E1.46024
G1 X3.644 Y1.244 E1.53245
G1 X3.469 Y1.672 E1.60502
G1 X3.364 Y1.873 E1.64044
G1 X3.114 Y2.265 E1.71336
G1 X2.976 Y2.443 E1.74878
G1 X2.661 Y2.783 E1.82135
G1 X2.308 Y3.082 E1.89391
G1 X1.773 Y3.416 E1.99298
G1 X1.515 Y3.540 E2.03777
G1 X1.134 Y3.678 E2.10131
G1 X0.859 Y3.753 E2.14605
G1 X0.403 Y3.829 E2.21848
G1 X-0.057 Y3.849 E2.29070
G1 X-0.518 Y3.815 E2.36326
G1 X-0.743 Y3.777 E2.39904
G1 X-0.966 Y3.727 E2.43481
G1 X-1.408 Y3.583 E2.50773
G1 X-1.615 Y3.494 E2.54315
G1 X-2.023 Y3.275 E2.61572
G1 X-2.399 Y3.010 E2.68793
G1 X-2.742 Y2.702 E2.76019
G1 X-3.009 Y2.399 E2.82352
G1 X-3.181 Y2.168 E2.86862
G1 X-3.303 Y1.977 E2.90425
G1 X-3.516 Y1.566 E2.97687
G1 X-3.660 Y1.188 E3.04020
G1 X-3.739 Y0.914 E3.08494
G1 X-3.821 Y0.460 E3.15736
G1 X-3.849 Y-0.002 E3.22993
G1 X-3.842 Y-0.228 E3.26535
G1 X-3.787 Y-0.690 E3.33827
G1 X-3.740 Y-0.911 E3.37369
G1 X-3.603 Y-1.353 E3.44626
G1 X-3.416 Y-1.774 E3.51852
G1 X-3.210 Y-2.121 E3.58185
G1 X-3.045 Y-2.354 E3.62659
G1 X-2.740 Y-2.703 E3.69937
G1 X-2.330 Y-3.057 E3.78426
G1 X-2.297 Y-2.875 F600.000
G1 X-2.872 Y-2.301 E3.93560 F656.184
G1 X-1.271 Y-3.487 F600.000
G1 X-3.483 Y-1.275 E4.51833 F656.184
G1 X-3.659 Y-0.685 E4.63302
G1 X-0.684 Y-3.661 E5.41697
G1 X-0.203 Y-3.728 E5.50731
G1 X-3.725 Y-0.206 E6.43503
G1 X-3.728 Y0.211 E6.51269
G1 X0.215 Y-3.732 E7.55146
G1 X0.590 Y-3.694 E7.62168
G1 X-3.694 Y0.591 E8.75030
G1 X-3.630 Y0.940 E8.81653
G1 X0.939 Y-3.629 E10.02014
G1 X1.259 Y-3.535 E10.08230
G1 X-3.533 Y1.257 E11.34469
G1 X-3.419 Y1.557 E11.40443
G1 X1.552 Y-3.414 E12.71377
G1 X1.830 Y-3.278 E12.77141
G1 X-3.277 Y1.829 E14.11677
G1 X-3.125 Y2.090 E14.17313
G1 X2.092 Y-3.126 E15.54731
G1 X2.328 Y-2.949 E15.60237
G1 X-2.951 Y2.330 E16.99296
G1 X-2.749 Y2.543 E17.04748
G1 X2.542 Y-2.749 E18.44135
G1 X2.749 Y-2.542 E18.49586
G1 X-2.542 Y2.749 E19.88972
G1 X-2.330 Y2.951 E19.94425
G1 X2.950 Y-2.329 E21.33525
G1 X3.124 Y-2.090 E21.39043
G1 X-2.087 Y3.122 E22.76333
G1 X-1.829 Y3.277 E22.81952
G1 X3.282 Y-1.833 E24.16573
G1 X3.416 Y-1.554 E24.22348
G1 X-1.556 Y3.418 E25.53340
G1 X-1.256 Y3.531 E25.59326
G1 X3.537 Y-1.261 E26.85580
G1 X3.627 Y-0.937 E26.91839
G1 X-0.939 Y3.629 E28.12129
G1 X-0.593 Y3.697 E28.18692
G1 X3.694 Y-0.590 E29.31627
G1 X3.729 Y-0.212 E29.38704
G1 X-0.213 Y3.730 E30.42549
G1 X0.208 Y3.723 E30.50390
G1 X3.728 Y0.203 E31.43124
G1 X3.662 Y0.683 E31.52162
G1 X0.687 Y3.658 E32.30513
G1 X1.277 Y3.482 E32.41977
G1 X3.480 Y1.279 E33.00003
G1 X2.921 Y2.251 F600.000
G1 X2.297 Y2.876 E33.16462 F656.184
G92 E0

; filament used = 66.0mm (0.1cm3)

; avoid_crossing_perimeters = 1
; bed_shape = 44.7535x4.70378,44.0166x9.35603,42.7975x13.9058,41.1095x18.3031,38.9711x22.5,36.4058x26.4503,33.4415x30.1109,30.1109x33.4415,26.4503x36.4058,22.5x38.9711,18.3031x41.1095,13.9058x42.7975,9.35603x44.0166,4.70378x44.7535,0x45,-4.70378x44.7535,-9.35603x44.0166,-13.9058x42.7975,-18.3031x41.1095,-22.5x38.9711,-26.4503x36.4058,-30.1109x33.4415,-33.4415x30.1109,-36.4058x26.4503,-38.9711x22.5,-41.1095x18.3031,-42.7975x13.9058,-44.0166x9.35603,-44.7535x4.70378,-45x0,-44.7535x-4.70378,-44.0166x-9.35603,-42.7975x-13.9058,-41.1095x-18.3031,-38.9711x-22.5,-36.4058x-26.4503,-33.4415x-30.1109,-30.1109x-33.4415,-26.4503x-36.4058,-22.5x-38.9711,-18.3031x-41.1095,-13.9058x-42.7975,-9.35603x-44.0166,-4.70378x-44.7535,0x-45,4.70378x-44.7535,9.35603x-44.0166,13.9058x-42.7975,18.3031x-41.1095,22.5x-38.9711,26.4503x-36.4058,30.1109x-33.4415,33.4415x-30.1109,36.4058x-26.4503,38.9711x-22.5,41.1095x-18.3031,42.7975x-13.9058,44.0166x-9.35603,44.7535x-4.70378,45x0
; bed_temperature = 0
; before_layer_gcode = 
; bridge_acceleration = 0
; bridge_fan_speed = 100
; brim_width = 0
; complete_objects = 0
; cooling = 0
; default_acceleration = 0
; disable_fan_first_layers = 1
; duplicate_distance = 6
; end_gcode = 
; extruder_clearance_height = 20
; extruder_clearance_radius = 20
; extruder_offset = 0x0
; extrusion_axis = E
; extrusion_multiplier = 2
; fan_always_on = 0
; fan_below_layer_time = 60
; filament_colour = #FFFFFF
; filament_diameter = 1
; first_layer_acceleration = 0
; first_layer_bed_temperature = 0
; first_layer_extrusion_width = 100%
; first_layer_speed = 10
; first_layer_temperature = 200
; gcode_arcs = 0
; gcode_comments = 0
; gcode_flavor = reprap
; infill_acceleration = 0
; infill_first = 0
; layer_gcode = 
; max_fan_speed = 100
; max_print_speed = 10
; max_volumetric_speed = 0.8
; min_fan_speed = 35
; min_print_speed = 10
; min_skirt_length = 0
; notes = 
; nozzle_diameter = 0.3
; only_retract_when_crossing_perimeters = 1
; ooze_prevention = 0
; output_filename_format = [input_filename_base].gcode
; perimeter_acceleration = 0
; post_process = 
; pressure_advance = 0
; resolution = 0
; retract_before_travel = 2
; retract_layer_change = 1
; retract_length = 0
; retract_length_toolchange = 0
; retract_lift = 0
; retract_restart_extra = 0
; retract_restart_extra_toolchange = 0
; retract_speed = 30
; skirt_distance = 6
; skirt_height = 0
; skirts = 0
; slowdown_below_layer_time = 30
; spiral_vase = 0
; standby_temperature_delta = -5
; start_gcode = G28 ; home all axes
; temperature = 200
; threads = 2
; toolchange_gcode = 
; travel_speed = 10
; use_firmware_retraction = 0
; use_relative_e_distances = 0
; use_volumetric_e = 0
; vibration_limit = 0
; wipe = 0
; z_offset = 0
; dont_support_bridges = 1
; extrusion_width = 0
; first_layer_height = 0.25
; infill_only_where_needed = 0
; interface_shells = 0
; layer_height = 0.25
; raft_layers = 0
; seam_position = random
; support_material = 0
; support_material_angle = 0
; support_material_contact_distance = 0.2
; support_material_enforce_layers = 0
; support_material_extruder = 1
; support_material_extrusion_width = 0
; support_material_interface_extruder = 1
; support_material_interface_layers = 0
; support_material_interface_spacing = 0
; support_material_interface_speed = 100%
; support_material_pattern = rectilinear
; support_material_spacing = 2.5
; support_material_speed = 60
; support_material_threshold = 0
; xy_size_compensation = 0
; bottom_solid_layers = 0
; bridge_flow_ratio = 1
; bridge_speed = 10
; external_fill_pattern = rectilinear
; external_perimeter_extrusion_width = 0
; external_perimeter_speed = 10
; external_perimeters_first = 0
; extra_perimeters = 1
; fill_angle = 45
; fill_density = 100%
; fill_pattern = rectilinear
; gap_fill_speed = 10
; infill_every_layers = 1
; infill_extruder = 1
; infill_extrusion_width = 0
; infill_overlap = 30%
; infill_speed = 10
; overhangs = 1
; perimeter_extruder = 1
; perimeter_extrusion_width = 0
; perimeter_speed = 10
; perimeters = 1
; small_perimeter_speed = 10
; solid_infill_below_area = 70
; solid_infill_every_layers = 0
; solid_infill_extruder = 1
; solid_infill_extrusion_width = 0
; solid_infill_speed = 60
; thin_walls = 1
; top_infill_extrusion_width = 0
; top_solid_infill_speed = 50
; top_solid_layers = 0
