; generated by Slic3r 1.2.9 on 2019-10-17 at 17:56:53

; external perimeters extrusion width = 0.35mm
; perimeters extrusion width = 0.37mm
; infill extrusion width = 0.37mm
; solid infill extrusion width = 0.37mm
; top infill extrusion width = 0.37mm

M104 S200 ; set temperature
G28 ; home all axes
M109 S200 ; wait for temperature to be reached
G21 ; set units to millimeters
G90 ; use absolute coordinates
M82 ; use absolute distances for extrusion
G92 E0
G1 Z0.350 F900.000
G1 X-3.019 Y2.442 F900.000
G1 X-2.422 Y3.039 E0.20746 F699.311
G1 X-1.429 Y3.642 F900.000
G1 X-3.642 Y1.429 E0.97675 F699.311
G1 X-3.831 Y0.850 E1.12663
G1 X-0.857 Y3.824 E2.16065
G1 X-0.382 Y3.909 E2.27924
G1 X-3.914 Y0.377 E3.50699
G1 X-3.939 Y-0.037 E3.60914
G1 X0.038 Y3.939 E4.99125
G1 X0.411 Y3.922 E5.08309
G1 X-3.919 Y-0.408 E6.58832
G1 X-3.866 Y-0.745 E6.67208
G1 X0.753 Y3.874 E8.27753
G1 X1.072 Y3.803 E8.35801
G1 X-3.801 Y-1.070 E10.05201
G1 X-3.709 Y-1.368 E10.12868
G1 X1.366 Y3.707 E11.89273
G1 X1.647 Y3.598 E11.96677
G1 X-3.597 Y-1.646 E13.78936
G1 X-3.466 Y-1.905 E13.86077
G1 X1.907 Y3.467 E15.72839
G1 X2.155 Y3.325 E15.79864
G1 X-3.321 Y-2.150 E17.70211
G1 X-3.163 Y-2.382 E17.77110
G1 X2.381 Y3.162 E19.69820
G1 X2.594 Y2.985 E19.76628
G1 X-2.984 Y-2.593 E21.70525
G1 X-2.789 Y-2.788 E21.77304
G1 X2.789 Y2.790 E23.71201
G1 X2.984 Y2.595 E23.77980
G1 X-2.594 Y-2.983 E25.71877
G1 X-2.383 Y-3.162 E25.78678
G1 X3.161 Y2.382 E27.71410
G1 X3.325 Y2.156 E27.78273
G1 X-2.152 Y-3.322 E29.68684
G1 X-1.910 Y-3.469 E29.75659
G1 X3.466 Y1.907 E31.62528
G1 X3.596 Y1.647 E31.69667
G1 X-1.645 Y-3.594 E33.51853
G1 X-1.371 Y-3.710 E33.59166
G1 X3.710 Y1.371 E35.35769
G1 X3.800 Y1.071 E35.43462
G1 X-1.070 Y-3.799 E37.12751
G1 X-0.755 Y-3.875 E37.20705
G1 X3.873 Y0.754 E38.81608
G1 X3.925 Y0.415 E38.90032
G1 X-0.412 Y-3.921 E40.40771
G1 X-0.040 Y-3.939 E40.49929
G1 X3.936 Y0.036 E41.88117
G1 X3.913 Y-0.376 E41.98280
G1 X0.374 Y-3.915 E43.21290
G1 X0.847 Y-3.832 E43.33092
G1 X3.829 Y-0.851 E44.36734
G1 X3.636 Y-1.433 E44.51810
G1 X1.445 Y-3.625 E45.27991
G1 X2.399 Y-3.060 F900.000
G1 X3.074 Y-2.385 E45.51470 F699.311
G92 E0

; filament used = 45.5mm (0.0cm3)

; avoid_crossing_perimeters = 1
; bed_shape = 44.7535x4.70378,44.0166x9.35603,42.7975x13.9058,41.1095x18.3031,38.9711x22.5,36.4058x26.4503,33.4415x30.1109,30.1109x33.4415,26.4503x36.4058,22.5x38.9711,18.3031x41.1095,13.9058x42.7975,9.35603x44.0166,4.70378x44.7535,0x45,-4.70378x44.7535,-9.35603x44.0166,-13.9058x42.7975,-18.3031x41.1095,-22.5x38.9711,-26.4503x36.4058,-30.1109x33.4415,-33.4415x30.1109,-36.4058x26.4503,-38.9711x22.5,-41.1095x18.3031,-42.7975x13.9058,-44.0166x9.35603,-44.7535x4.70378,-45x0,-44.7535x-4.70378,-44.0166x-9.35603,-42.7975x-13.9058,-41.1095x-18.3031,-38.9711x-22.5,-36.4058x-26.4503,-33.4415x-30.1109,-30.1109x-33.4415,-26.4503x-36.4058,-22.5x-38.9711,-18.3031x-41.1095,-13.9058x-42.7975,-9.35603x-44.0166,-4.70378x-44.7535,0x-45,4.70378x-44.7535,9.35603x-44.0166,13.9058x-42.7975,18.3031x-41.1095,22.5x-38.9711,26.4503x-36.4058,30.1109x-33.4415,33.4415x-30.1109,36.4058x-26.4503,38.9711x-22.5,41.1095x-18.3031,42.7975x-13.9058,44.0166x-9.35603,44.7535x-4.70378,45x0
; bed_temperature = 0
; before_layer_gcode = 
; bridge_acceleration = 0
; bridge_fan_speed = 100
; brim_width = 0
; complete_objects = 0
; cooling = 0
; default_acceleration = 0
; disable_fan_first_layers = 1
; duplicate_distance = 6
; end_gcode = 
; extruder_clearance_height = 20
; extruder_clearance_radius = 20
; extruder_offset = 0x0
; extrusion_axis = E
; extrusion_multiplier = 2
; fan_always_on = 0
; fan_below_layer_time = 60
; filament_colour = #FFFFFF
; filament_diameter = 1
; first_layer_acceleration = 0
; first_layer_bed_temperature = 0
; first_layer_extrusion_width = 100%
; first_layer_speed = 15
; first_layer_temperature = 200
; gcode_arcs = 0
; gcode_comments = 0
; gcode_flavor = reprap
; infill_acceleration = 0
; infill_first = 0
; layer_gcode = 
; max_fan_speed = 100
; max_print_speed = 15
; max_volumetric_speed = 1.125
; min_fan_speed = 35
; min_print_speed = 10
; min_skirt_length = 0
; notes = 
; nozzle_diameter = 0.35
; only_retract_when_crossing_perimeters = 1
; ooze_prevention = 0
; output_filename_format = [input_filename_base].gcode
; perimeter_acceleration = 0
; post_process = 
; pressure_advance = 0
; resolution = 0
; retract_before_travel = 2
; retract_layer_change = 1
; retract_length = 0
; retract_length_toolchange = 0
; retract_lift = 0
; retract_restart_extra = 0
; retract_restart_extra_toolchange = 0
; retract_speed = 30
; skirt_distance = 6
; skirt_height = 0
; skirts = 0
; slowdown_below_layer_time = 30
; spiral_vase = 0
; standby_temperature_delta = -5
; start_gcode = G28 ; home all axes
; temperature = 200
; threads = 2
; toolchange_gcode = 
; travel_speed = 15
; use_firmware_retraction = 0
; use_relative_e_distances = 0
; use_volumetric_e = 0
; vibration_limit = 0
; wipe = 0
; z_offset = 0
; dont_support_bridges = 1
; extrusion_width = 0
; first_layer_height = 0.35
; infill_only_where_needed = 0
; interface_shells = 0
; layer_height = 0.35
; raft_layers = 0
; seam_position = random
; support_material = 0
; support_material_angle = 0
; support_material_contact_distance = 0.2
; support_material_enforce_layers = 0
; support_material_extruder = 1
; support_material_extrusion_width = 0
; support_material_interface_extruder = 1
; support_material_interface_layers = 0
; support_material_interface_spacing = 0
; support_material_interface_speed = 100%
; support_material_pattern = rectilinear
; support_material_spacing = 2.5
; support_material_speed = 60
; support_material_threshold = 0
; xy_size_compensation = 0
; bottom_solid_layers = 0
; bridge_flow_ratio = 1
; bridge_speed = 15
; external_fill_pattern = rectilinear
; external_perimeter_extrusion_width = 0
; external_perimeter_speed = 15
; external_perimeters_first = 0
; extra_perimeters = 1
; fill_angle = 45
; fill_density = 100%
; fill_pattern = rectilinear
; gap_fill_speed = 15
; infill_every_layers = 1
; infill_extruder = 1
; infill_extrusion_width = 0
; infill_overlap = 50%
; infill_speed = 15
; overhangs = 1
; perimeter_extruder = 1
; perimeter_extrusion_width = 0
; perimeter_speed = 15
; perimeters = 0
; small_perimeter_speed = 15
; solid_infill_below_area = 70
; solid_infill_every_layers = 0
; solid_infill_extruder = 1
; solid_infill_extrusion_width = 0
; solid_infill_speed = 60
; thin_walls = 1
; top_infill_extrusion_width = 0
; top_solid_infill_speed = 50
; top_solid_layers = 0
