; generated by Slic3r 1.2.9 on 2019-10-17 at 17:34:44

; external perimeters extrusion width = 0.30mm
; perimeters extrusion width = 0.34mm
; infill extrusion width = 0.34mm
; solid infill extrusion width = 0.34mm
; top infill extrusion width = 0.34mm

M104 S200 ; set temperature
G28 ; home all axes
M109 S200 ; wait for temperature to be reached
G21 ; set units to millimeters
G90 ; use absolute coordinates
M82 ; use absolute distances for extrusion
G92 E0
G1 Z0.250 F900.000
G1 X2.566 Y-2.898 F900.000
G1 X2.843 Y-2.634 E0.04778 F900.000
G1 X2.993 Y-2.462 E0.07629
G1 X3.267 Y-2.084 E0.13470
G1 X3.384 Y-1.889 E0.16321
G1 X3.587 Y-1.468 E0.22161
G1 X3.667 Y-1.254 E0.25012
G1 X3.791 Y-0.806 E0.30829
G1 X3.860 Y-0.347 E0.36622
G1 X3.874 Y0.118 E0.42438
G1 X3.860 Y0.345 E0.45290
G1 X3.791 Y0.806 E0.51106
G1 X3.667 Y1.254 E0.56923
G1 X3.586 Y1.469 E0.59798
G1 X3.493 Y1.680 E0.62672
G1 X3.266 Y2.086 E0.68489
G1 X2.994 Y2.461 E0.74282
G1 X2.679 Y2.801 E0.80075
G1 X2.324 Y3.102 E0.85892
G1 X1.940 Y3.355 E0.91638
G1 X1.524 Y3.563 E0.97455
G1 X1.086 Y3.720 E1.03262
G1 X0.807 Y3.789 E1.06857
G1 X0.406 Y3.854 E1.11936
G1 X-0.057 Y3.874 E1.17732
G1 X-0.521 Y3.840 E1.23549
G1 X-0.746 Y3.802 E1.26400
G1 X-1.198 Y3.685 E1.32231
G1 X-1.467 Y3.585 E1.35825
G1 X-1.835 Y3.412 E1.40904
G1 X-2.231 Y3.167 E1.46724
G1 X-2.414 Y3.031 E1.49575
G1 X-2.759 Y2.719 E1.55392
G1 X-3.066 Y2.369 E1.61208
G1 X-3.201 Y2.183 E1.64083
G1 X-3.325 Y1.989 E1.66957
G1 X-3.540 Y1.574 E1.72798
G1 X-3.626 Y1.363 E1.75649
G1 X-3.763 Y0.919 E1.81465
G1 X-3.846 Y0.463 E1.87259
G1 X-3.874 Y-0.001 E1.93066
G1 X-3.862 Y-0.288 E1.96660
G1 X-3.812 Y-0.692 E2.01739
G1 X-3.701 Y-1.143 E2.07550
G1 X-3.605 Y-1.414 E2.11144
G1 X-3.438 Y-1.785 E2.16223
G1 X-3.200 Y-2.184 E2.22043
G1 X-3.066 Y-2.369 E2.24894
G1 X-2.759 Y-2.719 E2.30711
G1 X-2.414 Y-3.031 E2.36527
G1 X-2.231 Y-3.167 E2.39378
G1 X-1.835 Y-3.412 E2.45195
G1 X-1.413 Y-3.608 E2.51012
G1 X-1.198 Y-3.685 E2.53863
G1 X-0.748 Y-3.802 E2.59680
G1 X-0.288 Y-3.864 E2.65487
G1 X-0.000 Y-3.874 E2.69081
G1 X0.406 Y-3.854 E2.74160
G1 X0.864 Y-3.777 E2.79971 F900.000
G1 X1.142 Y-3.702 E2.83565
G1 X1.525 Y-3.562 E2.88667
G1 X1.733 Y-3.466 E2.91522
G1 X2.135 Y-3.234 E2.97338
G1 X2.534 Y-2.929 E3.03604
G1 X2.359 Y-2.979 F900.000
G1 X2.993 Y-2.345 E3.14939 F900.000
G1 X3.459 Y-1.598 F900.000
G1 X1.587 Y-3.470 E3.48436 F900.000
G1 X3.652 Y-1.124 F900.000
G1 X1.125 Y-3.651 E3.93651 F900.000
G1 X0.742 Y-3.753 E3.98664
G1 X3.758 Y-0.737 E4.52614
G1 X3.807 Y-0.407 E4.56846
G1 X0.405 Y-3.809 E5.17715
G1 X0.103 Y-3.830 E5.21539
G1 X3.830 Y-0.103 E5.88198
G1 X3.836 Y0.184 E5.91833
G1 X-0.180 Y-3.832 E6.63678
G1 X-0.441 Y-3.812 E6.66981
G1 X3.814 Y0.443 E7.43100
G1 X3.778 Y0.688 E7.46223
G1 X-0.688 Y-3.778 E8.26110
G1 X-0.920 Y-3.729 E8.29105
G1 X3.731 Y0.922 E9.12299
G1 X3.670 Y1.142 E9.15188
G1 X-1.143 Y-3.671 E10.01284
G1 X-1.355 Y-3.602 E10.04106
G1 X3.601 Y1.354 E10.92755
G1 X3.519 Y1.553 E10.95480
G1 X-1.552 Y-3.518 E11.86193
G1 X-1.744 Y-3.429 E11.88870
G1 X3.431 Y1.746 E12.81446
G1 X3.331 Y1.926 E12.84059
G1 X-1.927 Y-3.331 E13.78106
G1 X-2.101 Y-3.224 E13.80688
G1 X3.228 Y2.105 E14.76006
G1 X3.110 Y2.268 E14.78550
G1 X-2.271 Y-3.113 E15.74798
G1 X-2.429 Y-2.990 E15.77332
G1 X2.991 Y2.430 E16.74300
G1 X2.852 Y2.572 E16.76813
G1 X-2.571 Y-2.852 E17.73826
G1 X-2.712 Y-2.711 E17.76340
G1 X2.711 Y2.712 E18.73353
G1 X2.571 Y2.853 E18.75866
G1 X-2.852 Y-2.571 E19.72879
G1 X-2.989 Y-2.427 E19.75393
G1 X2.426 Y2.989 E20.72270
G1 X2.269 Y3.113 E20.74801
G1 X-3.113 Y-2.269 E21.71082
G1 X-3.225 Y-2.100 E21.73646
G1 X2.100 Y3.225 E22.68905
G1 X1.929 Y3.335 E22.71475
G1 X-3.330 Y-1.925 E23.65563
G1 X-3.431 Y-1.744 E23.68174
G1 X1.742 Y3.429 E24.60716
G1 X1.555 Y3.523 E24.63365
G1 X-3.518 Y-1.551 E25.54117
G1 X-3.601 Y-1.352 E25.56837
G1 X1.350 Y3.599 E26.45400
G1 X1.143 Y3.673 E26.48179
G1 X-3.673 Y-1.143 E27.34330
G1 X-3.728 Y-0.917 E27.37271
G1 X0.921 Y3.732 E28.20437
G1 X0.686 Y3.778 E28.23470
G1 X-3.780 Y-0.688 E29.03358
G1 X-3.811 Y-0.439 E29.06543
G1 X0.444 Y3.817 E29.82661
G1 X0.175 Y3.829 E29.86061
G1 X-3.832 Y-0.178 E30.57742
G1 X-3.828 Y0.106 E30.61339
G1 X-0.104 Y3.831 E31.27966
G1 X-0.407 Y3.808 E31.31819
G1 X-3.810 Y0.405 E31.92693
G1 X-3.749 Y0.748 E31.97092
G1 X-0.744 Y3.753 E32.50851
G1 X-1.124 Y3.654 E32.55813
G1 X-3.644 Y1.134 E33.00903
G1 X-3.458 Y1.601 F900.000
G1 X-1.601 Y3.458 E33.34124 F900.000
G1 X-2.378 Y2.962 F900.000
G1 X-2.941 Y2.399 E33.44199 F900.000
G92 E0
G1 Z0.500 F900.000
G1 X-3.849 Y-0.010 F900.000
G1 X-3.842 Y-0.228 E0.03418 F900.000
G1 X-3.787 Y-0.690 E0.10710
G1 X-3.740 Y-0.911 E0.14252
G1 X-3.603 Y-1.353 E0.21509
G1 X-3.416 Y-1.774 E0.28736
G1 X-3.210 Y-2.121 E0.35069
G1 X-3.045 Y-2.354 E0.39543
G1 X-2.740 Y-2.703 E0.46821
G1 X-2.577 Y-2.860 E0.50363
G1 X-2.215 Y-3.148 E0.57619
G1 X-1.823 Y-3.390 E0.64841
G1 X-1.406 Y-3.584 E0.72062
G1 X-0.966 Y-3.727 E0.79319
G1 X-0.745 Y-3.777 E0.82861
G1 X-0.286 Y-3.839 E0.90123
G1 X0.117 Y-3.847 E0.96456
G1 X0.402 Y-3.829 E1.00930
G1 X0.858 Y-3.753 E1.08177 F900.000
G1 X1.246 Y-3.642 E1.14510
G1 X1.515 Y-3.540 E1.19020
G1 X1.721 Y-3.444 E1.22583
G1 X2.122 Y-3.213 E1.29840
G1 X2.490 Y-2.937 E1.37061
G1 X2.825 Y-2.617 E1.44318
G1 X2.973 Y-2.447 E1.47860
G1 X3.246 Y-2.071 E1.55152
G1 X3.362 Y-1.877 E1.58694
G1 X3.564 Y-1.458 E1.65986
G1 X3.643 Y-1.246 E1.69528
G1 X3.767 Y-0.800 E1.76785
G1 X3.835 Y-0.345 E1.84006
G1 X3.849 Y0.117 E1.91263
G1 X3.835 Y0.343 E1.94805
G1 X3.767 Y0.800 E2.02061
G1 X3.644 Y1.244 E2.09283
G1 X3.469 Y1.672 E2.16540
G1 X3.364 Y1.873 E2.20082
G1 X3.114 Y2.265 E2.27374
G1 X2.976 Y2.443 E2.30916
G1 X2.661 Y2.783 E2.38173
G1 X2.308 Y3.082 E2.45429
G1 X1.773 Y3.416 E2.55336
G1 X1.515 Y3.540 E2.59815
G1 X1.134 Y3.678 E2.66169
G1 X0.859 Y3.753 E2.70643
G1 X0.403 Y3.829 E2.77886
G1 X-0.057 Y3.849 E2.85107
G1 X-0.518 Y3.815 E2.92364
G1 X-0.966 Y3.727 E2.99516
G1 X-1.408 Y3.583 E3.06808
G1 X-1.615 Y3.494 E3.10350
G1 X-2.023 Y3.275 E3.17606
G1 X-2.399 Y3.010 E3.24828
G1 X-2.742 Y2.702 E3.32054
G1 X-3.009 Y2.399 E3.38387
G1 X-3.181 Y2.168 E3.42896
G1 X-3.303 Y1.977 E3.46460
G1 X-3.516 Y1.566 E3.53721
G1 X-3.660 Y1.188 E3.60054
G1 X-3.739 Y0.914 E3.64528
G1 X-3.821 Y0.460 E3.71771
G1 X-3.847 Y0.035 E3.78446
G1 X-3.521 Y-1.325 F900.000
G1 X-1.319 Y-3.527 E4.35068 F945.505
G1 X-0.737 Y-3.705 E4.46128
G1 X-3.704 Y-0.738 E5.22415
G1 X-3.773 Y-0.266 E5.31094
G1 X-0.262 Y-3.776 E6.21353
G1 X0.155 Y-3.789 E6.28939
G1 X-3.786 Y0.152 E7.30268
G1 X-3.761 Y0.530 E7.37159
G1 X0.529 Y-3.759 E8.47437
G1 X0.875 Y-3.702 E8.53819
G1 X-3.699 Y0.872 E9.71406
G1 X-3.614 Y1.191 E9.77415
G1 X1.190 Y-3.613 E11.00941
G1 X1.483 Y-3.502 E11.06629
G1 X-3.504 Y1.485 E12.34843
G1 X-3.375 Y1.760 E12.40358
G1 X1.764 Y-3.379 E13.72475
G1 X2.020 Y-3.231 E13.77849
G1 X-3.233 Y2.022 E15.12912
G1 X-3.070 Y2.262 E15.18195
G1 X2.260 Y-3.068 E16.55224
G1 X2.482 Y-2.886 E16.60440
G1 X-2.887 Y2.483 E17.98466
G1 X-2.685 Y2.685 E18.03657
G1 X2.684 Y-2.684 E19.41683
G1 X2.886 Y-2.482 E19.46874
G1 X-2.483 Y2.887 E20.84900
G1 X-2.260 Y3.067 E20.90120
G1 X3.068 Y-2.260 E22.27092
G1 X3.235 Y-2.023 E22.32362
G1 X-2.023 Y3.234 E23.67527
G1 X-1.760 Y3.376 E23.72946
G1 X3.377 Y-1.762 E25.05025
G1 X3.508 Y-1.489 E25.10525
G1 X-1.488 Y3.507 E26.38975
G1 X-1.188 Y3.611 E26.44747
G1 X3.614 Y-1.191 E27.68202
G1 X3.701 Y-0.874 E27.74171
G1 X-0.871 Y3.698 E28.91725
G1 X-0.530 Y3.761 E28.98024
G1 X3.758 Y-0.528 E30.08287
G1 X3.786 Y-0.151 E30.15149
G1 X-0.155 Y3.789 E31.16456
G1 X0.263 Y3.775 E31.24057
G1 X3.780 Y0.259 E32.14467
G1 X3.707 Y0.736 E32.23243
G1 X0.738 Y3.705 E32.99573
G1 X1.323 Y3.523 E33.10713
G1 X3.519 Y1.327 E33.67178
G1 X2.962 Y2.288 F900.000
G1 X2.335 Y2.916 E33.83315 F945.505
G92 E0
G1 X-2.911 Y-2.339 F900.000
G1 X-2.334 Y-2.916 E0.14841 F945.505
G92 E0

; filament used = 67.4mm (0.1cm3)

; avoid_crossing_perimeters = 1
; bed_shape = 44.7535x4.70378,44.0166x9.35603,42.7975x13.9058,41.1095x18.3031,38.9711x22.5,36.4058x26.4503,33.4415x30.1109,30.1109x33.4415,26.4503x36.4058,22.5x38.9711,18.3031x41.1095,13.9058x42.7975,9.35603x44.0166,4.70378x44.7535,0x45,-4.70378x44.7535,-9.35603x44.0166,-13.9058x42.7975,-18.3031x41.1095,-22.5x38.9711,-26.4503x36.4058,-30.1109x33.4415,-33.4415x30.1109,-36.4058x26.4503,-38.9711x22.5,-41.1095x18.3031,-42.7975x13.9058,-44.0166x9.35603,-44.7535x4.70378,-45x0,-44.7535x-4.70378,-44.0166x-9.35603,-42.7975x-13.9058,-41.1095x-18.3031,-38.9711x-22.5,-36.4058x-26.4503,-33.4415x-30.1109,-30.1109x-33.4415,-26.4503x-36.4058,-22.5x-38.9711,-18.3031x-41.1095,-13.9058x-42.7975,-9.35603x-44.0166,-4.70378x-44.7535,0x-45,4.70378x-44.7535,9.35603x-44.0166,13.9058x-42.7975,18.3031x-41.1095,22.5x-38.9711,26.4503x-36.4058,30.1109x-33.4415,33.4415x-30.1109,36.4058x-26.4503,38.9711x-22.5,41.1095x-18.3031,42.7975x-13.9058,44.0166x-9.35603,44.7535x-4.70378,45x0
; bed_temperature = 0
; before_layer_gcode = 
; bridge_acceleration = 0
; bridge_fan_speed = 100
; brim_width = 0
; complete_objects = 0
; cooling = 0
; default_acceleration = 0
; disable_fan_first_layers = 1
; duplicate_distance = 6
; end_gcode = 
; extruder_clearance_height = 20
; extruder_clearance_radius = 20
; extruder_offset = 0x0
; extrusion_axis = E
; extrusion_multiplier = 2
; fan_always_on = 0
; fan_below_layer_time = 60
; filament_colour = #FFFFFF
; filament_diameter = 1
; first_layer_acceleration = 0
; first_layer_bed_temperature = 0
; first_layer_extrusion_width = 100%
; first_layer_speed = 15
; first_layer_temperature = 200
; gcode_arcs = 0
; gcode_comments = 0
; gcode_flavor = reprap
; infill_acceleration = 0
; infill_first = 0
; layer_gcode = 
; max_fan_speed = 100
; max_print_speed = 15
; max_volumetric_speed = 1.125
; min_fan_speed = 35
; min_print_speed = 10
; min_skirt_length = 0
; notes = 
; nozzle_diameter = 0.3
; only_retract_when_crossing_perimeters = 1
; ooze_prevention = 0
; output_filename_format = [input_filename_base].gcode
; perimeter_acceleration = 0
; post_process = 
; pressure_advance = 0
; resolution = 0
; retract_before_travel = 2
; retract_layer_change = 1
; retract_length = 0
; retract_length_toolchange = 0
; retract_lift = 0
; retract_restart_extra = 0
; retract_restart_extra_toolchange = 0
; retract_speed = 30
; skirt_distance = 6
; skirt_height = 0
; skirts = 0
; slowdown_below_layer_time = 30
; spiral_vase = 0
; standby_temperature_delta = -5
; start_gcode = G28 ; home all axes
; temperature = 200
; threads = 2
; toolchange_gcode = 
; travel_speed = 15
; use_firmware_retraction = 0
; use_relative_e_distances = 0
; use_volumetric_e = 0
; vibration_limit = 0
; wipe = 0
; z_offset = 0
; dont_support_bridges = 1
; extrusion_width = 0
; first_layer_height = 0.25
; infill_only_where_needed = 0
; interface_shells = 0
; layer_height = 0.25
; raft_layers = 0
; seam_position = random
; support_material = 0
; support_material_angle = 0
; support_material_contact_distance = 0.2
; support_material_enforce_layers = 0
; support_material_extruder = 1
; support_material_extrusion_width = 0
; support_material_interface_extruder = 1
; support_material_interface_layers = 0
; support_material_interface_spacing = 0
; support_material_interface_speed = 100%
; support_material_pattern = rectilinear
; support_material_spacing = 2.5
; support_material_speed = 60
; support_material_threshold = 0
; xy_size_compensation = 0
; bottom_solid_layers = 0
; bridge_flow_ratio = 1
; bridge_speed = 15
; external_fill_pattern = rectilinear
; external_perimeter_extrusion_width = 0
; external_perimeter_speed = 15
; external_perimeters_first = 0
; extra_perimeters = 1
; fill_angle = 45
; fill_density = 100%
; fill_pattern = rectilinear
; gap_fill_speed = 15
; infill_every_layers = 1
; infill_extruder = 1
; infill_extrusion_width = 0
; infill_overlap = 50%
; infill_speed = 15
; overhangs = 1
; perimeter_extruder = 1
; perimeter_extrusion_width = 0
; perimeter_speed = 15
; perimeters = 1
; small_perimeter_speed = 15
; solid_infill_below_area = 70
; solid_infill_every_layers = 0
; solid_infill_extruder = 1
; solid_infill_extrusion_width = 0
; solid_infill_speed = 60
; thin_walls = 1
; top_infill_extrusion_width = 0
; top_solid_infill_speed = 50
; top_solid_layers = 0
