; generated by Slic3r 1.2.9 on 2019-10-17 at 18:02:06

; external perimeters extrusion width = 0.35mm
; perimeters extrusion width = 0.37mm
; infill extrusion width = 0.37mm
; solid infill extrusion width = 0.37mm
; top infill extrusion width = 0.37mm

M104 S200 ; set temperature
G28 ; home all axes
M109 S200 ; wait for temperature to be reached
G21 ; set units to millimeters
G90 ; use absolute coordinates
M82 ; use absolute distances for extrusion
G92 E0
G1 Z0.350 F900.000
G1 X-3.019 Y2.442 F900.000
G1 X-2.422 Y3.039 E0.20746 F699.311
G1 X-1.428 Y3.643 F900.000
G1 X-3.638 Y1.433 E0.97575 F699.311
G1 X-3.823 Y0.858 E1.12409
G1 X-0.850 Y3.831 E2.15762
G1 X-0.382 Y3.909 E2.27422
G1 X-3.914 Y0.377 E3.50197
G1 X-3.939 Y-0.037 E3.60412
G1 X0.038 Y3.939 E4.98623
G1 X0.411 Y3.922 E5.07807
G1 X-3.919 Y-0.408 E6.58307
G1 X-3.871 Y-0.750 E6.66793
G1 X0.752 Y3.873 E8.27467
G1 X1.073 Y3.804 E8.35541
G1 X-3.801 Y-1.070 E10.04957
G1 X-3.709 Y-1.368 E10.12624
G1 X1.366 Y3.707 E11.89028
G1 X1.647 Y3.598 E11.96432
G1 X-3.599 Y-1.648 E13.78762
G1 X-3.465 Y-1.905 E13.85872
G1 X1.907 Y3.467 E15.72607
G1 X2.155 Y3.325 E15.79631
G1 X-3.321 Y-2.150 E17.69979
G1 X-3.163 Y-2.382 E17.76878
G1 X2.381 Y3.162 E19.69588
G1 X2.594 Y2.985 E19.76396
G1 X-2.984 Y-2.593 E21.70293
G1 X-2.789 Y-2.788 E21.77072
G1 X2.789 Y2.790 E23.70969
G1 X2.984 Y2.595 E23.77748
G1 X-2.594 Y-2.983 E25.71645
G1 X-2.382 Y-3.161 E25.78450
G1 X3.161 Y2.382 E27.71137
G1 X3.325 Y2.156 E27.78000
G1 X-2.153 Y-3.322 E29.68436
G1 X-1.909 Y-3.468 E29.75427
G1 X3.466 Y1.907 E31.62258
G1 X3.596 Y1.647 E31.69397
G1 X-1.645 Y-3.594 E33.51597
G1 X-1.371 Y-3.710 E33.58915
G1 X3.710 Y1.370 E35.35519
G1 X3.800 Y1.071 E35.43211
G1 X-1.070 Y-3.799 E37.12501
G1 X-0.755 Y-3.875 E37.20455
G1 X3.873 Y0.754 E38.81357
G1 X3.925 Y0.415 E38.89782
G1 X-0.412 Y-3.921 E40.40520
G1 X-0.039 Y-3.938 E40.49702
G1 X3.936 Y0.036 E41.87855
G1 X3.913 Y-0.376 E41.98018
G1 X0.374 Y-3.915 E43.21027
G1 X0.846 Y-3.833 E43.32801
G1 X3.829 Y-0.851 E44.36478
G1 X3.648 Y-1.421 E44.51187
G1 X1.426 Y-3.644 E45.28439
G1 X2.399 Y-3.060 F900.000
G1 X3.074 Y-2.385 E45.51918 F699.311
G92 E0
G1 Z0.700 F900.000
G1 X3.651 Y1.379 F900.000
G1 X1.374 Y3.656 E0.85065 F650.676
G1 X0.767 Y3.844 E1.01855
G1 X3.846 Y0.765 E2.16879
G1 X3.922 Y0.270 E2.30119
G1 X0.274 Y3.918 E3.66390
G1 X-0.161 Y3.933 E3.77892
G1 X3.929 Y-0.156 E5.30663
G1 X3.904 Y-0.551 E5.41111
G1 X-0.545 Y3.898 E7.07320
G1 X-0.906 Y3.841 E7.16989
G1 X3.837 Y-0.903 E8.94203
G1 X3.750 Y-1.235 E9.03271
G1 X-1.232 Y3.747 E10.89396
G1 X-1.543 Y3.639 E10.98099
G1 X3.638 Y-1.542 E12.91654
G1 X3.505 Y-1.828 E12.99997
G1 X-1.826 Y3.503 E14.99173
G1 X-2.099 Y3.356 E15.07347
G1 X3.355 Y-2.097 E17.11094
G1 X3.184 Y-2.345 E17.19052
G1 X-2.345 Y3.183 E19.25581
G1 X-2.577 Y2.996 E19.33456
G1 X2.995 Y-2.576 E21.41614
G1 X2.786 Y-2.785 E21.49444
G1 X-2.786 Y2.786 E23.57602
G1 X-2.996 Y2.577 E23.65432
G1 X2.576 Y-2.995 E25.73590
G1 X2.345 Y-3.183 E25.81459
G1 X-3.186 Y2.348 E27.88115
G1 X-3.351 Y2.094 E27.96120
G1 X2.096 Y-3.353 E29.99620
G1 X1.830 Y-3.507 E30.07726
G1 X-3.506 Y1.830 E32.07083
G1 X-3.631 Y1.535 E32.15532
G1 X1.536 Y-3.632 E34.08567
G1 X1.236 Y-3.751 E34.17099
G1 X-3.749 Y1.234 E36.03334
G1 X-3.838 Y0.904 E36.12366
G1 X0.907 Y-3.841 E37.89655
G1 X0.548 Y-3.901 E37.99281
G1 X-3.902 Y0.549 E39.65546
G1 X-3.929 Y0.157 E39.75941
G1 X0.159 Y-3.932 E41.28679
G1 X-0.273 Y-3.919 E41.40104
G1 X-3.915 Y-0.276 E42.76165
G1 X-3.839 Y-0.771 E42.89386
G1 X-0.766 Y-3.844 E44.04196
G1 X-1.370 Y-3.660 E44.20883
G1 X-3.655 Y-1.375 E45.06235
G1 X-3.015 Y-2.434 F900.000
G1 X-2.427 Y-3.022 E45.28220 F650.676
G1 X3.069 Y2.381 F900.000
G1 X2.399 Y3.050 E45.53220 F650.676
G92 E0
G1 Z1.050 F900.000
G1 X-1.370 Y3.660 F900.000
G1 X-3.651 Y1.379 E0.85179 F650.837
G1 X-3.840 Y0.771 E1.02002
G1 X-0.773 Y3.838 E2.16543
G1 X-0.277 Y3.915 E2.29805
G1 X-3.914 Y0.277 E3.65665
G1 X-3.932 Y-0.160 E3.77206
G1 X0.156 Y3.928 E5.29888
G1 X0.548 Y3.901 E5.40260
G1 X-3.898 Y-0.544 E7.06293
G1 X-3.840 Y-0.906 E7.15965
G1 X0.907 Y3.841 E8.93278
G1 X1.234 Y3.750 E9.02254
G1 X-3.747 Y-1.232 E10.88300
G1 X-3.636 Y-1.540 E10.96952
G1 X1.543 Y3.639 E12.90383
G1 X1.826 Y3.503 E12.98681
G1 X-3.507 Y-1.830 E14.97870
G1 X-3.354 Y-2.096 E15.05979
G1 X2.098 Y3.356 E17.09616
G1 X2.345 Y3.184 E17.17565
G1 X-3.184 Y-2.345 E19.24076
G1 X-2.996 Y-2.576 E19.31944
G1 X2.577 Y2.997 E21.40101
G1 X2.786 Y2.787 E21.47927
G1 X-2.787 Y-2.786 E23.56084
G1 X-2.577 Y-2.996 E23.63910
G1 X2.996 Y2.578 E25.72067
G1 X3.183 Y2.346 E25.79937
G1 X-2.347 Y-3.185 E27.86494
G1 X-2.095 Y-3.351 E27.94484
G1 X3.355 Y2.098 E29.98009
G1 X3.505 Y1.829 E30.06144
G1 X-1.829 Y-3.504 E32.05357
G1 X-1.543 Y-3.637 E32.13692
G1 X3.636 Y1.541 E34.07097
G1 X3.750 Y1.237 E34.15691
G1 X-1.238 Y-3.751 E36.01984
G1 X-0.905 Y-3.838 E36.11060
G1 X3.841 Y0.908 E37.88316
G1 X3.900 Y0.548 E37.97946
G1 X-0.547 Y-3.898 E39.64024
G1 X-0.157 Y-3.928 E39.74333
G1 X3.934 Y0.164 E41.27160
G1 X3.921 Y-0.268 E41.38574
G1 X0.270 Y-3.920 E42.74947
G1 X0.764 Y-3.845 E42.88145
G1 X3.846 Y-0.762 E44.03263
G1 X3.653 Y-1.375 E44.20234
G1 X1.378 Y-3.650 E45.05209
G1 X2.389 Y-3.057 F900.000
G1 X3.071 Y-2.375 E45.30681 F650.837
G92 E0
G1 X-2.412 Y3.037 F900.000
G1 X-3.016 Y2.432 E0.22570 F650.837
G92 E0

; filament used = 136.6mm (0.1cm3)

; avoid_crossing_perimeters = 1
; bed_shape = 44.7535x4.70378,44.0166x9.35603,42.7975x13.9058,41.1095x18.3031,38.9711x22.5,36.4058x26.4503,33.4415x30.1109,30.1109x33.4415,26.4503x36.4058,22.5x38.9711,18.3031x41.1095,13.9058x42.7975,9.35603x44.0166,4.70378x44.7535,0x45,-4.70378x44.7535,-9.35603x44.0166,-13.9058x42.7975,-18.3031x41.1095,-22.5x38.9711,-26.4503x36.4058,-30.1109x33.4415,-33.4415x30.1109,-36.4058x26.4503,-38.9711x22.5,-41.1095x18.3031,-42.7975x13.9058,-44.0166x9.35603,-44.7535x4.70378,-45x0,-44.7535x-4.70378,-44.0166x-9.35603,-42.7975x-13.9058,-41.1095x-18.3031,-38.9711x-22.5,-36.4058x-26.4503,-33.4415x-30.1109,-30.1109x-33.4415,-26.4503x-36.4058,-22.5x-38.9711,-18.3031x-41.1095,-13.9058x-42.7975,-9.35603x-44.0166,-4.70378x-44.7535,0x-45,4.70378x-44.7535,9.35603x-44.0166,13.9058x-42.7975,18.3031x-41.1095,22.5x-38.9711,26.4503x-36.4058,30.1109x-33.4415,33.4415x-30.1109,36.4058x-26.4503,38.9711x-22.5,41.1095x-18.3031,42.7975x-13.9058,44.0166x-9.35603,44.7535x-4.70378,45x0
; bed_temperature = 0
; before_layer_gcode = 
; bridge_acceleration = 0
; bridge_fan_speed = 100
; brim_width = 0
; complete_objects = 0
; cooling = 0
; default_acceleration = 0
; disable_fan_first_layers = 1
; duplicate_distance = 6
; end_gcode = 
; extruder_clearance_height = 20
; extruder_clearance_radius = 20
; extruder_offset = 0x0
; extrusion_axis = E
; extrusion_multiplier = 2
; fan_always_on = 0
; fan_below_layer_time = 60
; filament_colour = #FFFFFF
; filament_diameter = 1
; first_layer_acceleration = 0
; first_layer_bed_temperature = 0
; first_layer_extrusion_width = 100%
; first_layer_speed = 15
; first_layer_temperature = 200
; gcode_arcs = 0
; gcode_comments = 0
; gcode_flavor = reprap
; infill_acceleration = 0
; infill_first = 0
; layer_gcode = 
; max_fan_speed = 100
; max_print_speed = 15
; max_volumetric_speed = 1.125
; min_fan_speed = 35
; min_print_speed = 10
; min_skirt_length = 0
; notes = 
; nozzle_diameter = 0.35
; only_retract_when_crossing_perimeters = 1
; ooze_prevention = 0
; output_filename_format = [input_filename_base].gcode
; perimeter_acceleration = 0
; post_process = 
; pressure_advance = 0
; resolution = 0
; retract_before_travel = 2
; retract_layer_change = 1
; retract_length = 0
; retract_length_toolchange = 0
; retract_lift = 0
; retract_restart_extra = 0
; retract_restart_extra_toolchange = 0
; retract_speed = 30
; skirt_distance = 6
; skirt_height = 0
; skirts = 0
; slowdown_below_layer_time = 30
; spiral_vase = 0
; standby_temperature_delta = -5
; start_gcode = G28 ; home all axes
; temperature = 200
; threads = 2
; toolchange_gcode = 
; travel_speed = 15
; use_firmware_retraction = 0
; use_relative_e_distances = 0
; use_volumetric_e = 0
; vibration_limit = 0
; wipe = 0
; z_offset = 0
; dont_support_bridges = 1
; extrusion_width = 0
; first_layer_height = 0.35
; infill_only_where_needed = 0
; interface_shells = 0
; layer_height = 0.35
; raft_layers = 0
; seam_position = random
; support_material = 0
; support_material_angle = 0
; support_material_contact_distance = 0.2
; support_material_enforce_layers = 0
; support_material_extruder = 1
; support_material_extrusion_width = 0
; support_material_interface_extruder = 1
; support_material_interface_layers = 0
; support_material_interface_spacing = 0
; support_material_interface_speed = 100%
; support_material_pattern = rectilinear
; support_material_spacing = 2.5
; support_material_speed = 60
; support_material_threshold = 0
; xy_size_compensation = 0
; bottom_solid_layers = 0
; bridge_flow_ratio = 1
; bridge_speed = 15
; external_fill_pattern = rectilinear
; external_perimeter_extrusion_width = 0
; external_perimeter_speed = 15
; external_perimeters_first = 0
; extra_perimeters = 1
; fill_angle = 45
; fill_density = 100%
; fill_pattern = rectilinear
; gap_fill_speed = 15
; infill_every_layers = 1
; infill_extruder = 1
; infill_extrusion_width = 0
; infill_overlap = 50%
; infill_speed = 15
; overhangs = 1
; perimeter_extruder = 1
; perimeter_extrusion_width = 0
; perimeter_speed = 15
; perimeters = 0
; small_perimeter_speed = 15
; solid_infill_below_area = 70
; solid_infill_every_layers = 0
; solid_infill_extruder = 1
; solid_infill_extrusion_width = 0
; solid_infill_speed = 60
; thin_walls = 1
; top_infill_extrusion_width = 0
; top_solid_infill_speed = 50
; top_solid_layers = 0
