; generated by Slic3r 1.2.9 on 2019-10-17 at 18:26:28

; external perimeters extrusion width = 0.20mm
; perimeters extrusion width = 0.21mm
; infill extrusion width = 0.21mm
; solid infill extrusion width = 0.21mm
; top infill extrusion width = 0.21mm

M104 S200 ; set temperature
G28 ; home all axes
M109 S200 ; wait for temperature to be reached
G21 ; set units to millimeters
G90 ; use absolute coordinates
M82 ; use absolute distances for extrusion
G92 E0
G1 Z0.200 F1200.000
G1 X-3.036 Y2.509 F1200.000
G1 X-2.489 Y3.055 E0.06296 F1200.000
G1 X-1.795 Y3.523 F1200.000
G1 X-3.523 Y1.796 E0.26208 F1200.000
G1 X-3.708 Y1.384 F1200.000
G1 X-1.392 Y3.700 E0.52898 F1200.000
G1 X-3.818 Y1.047 F1200.000
G1 X-1.049 Y3.817 E0.84813 F1200.000
G1 X-0.743 Y3.896 E0.87387
G1 X-3.892 Y0.748 E1.23668
G1 X-3.938 Y0.475 E1.25922
G1 X-0.473 Y3.941 E1.65856
G1 X-0.228 Y3.959 E1.67855
G1 X-3.959 Y0.228 E2.10851
G1 X-3.973 Y-0.012 E2.12809
G1 X0.012 Y3.973 E2.58725
G1 X0.228 Y3.963 E2.60492
G1 X-3.968 Y-0.233 E3.08850
G1 X-3.946 Y-0.438 E3.10527
G1 X0.445 Y3.953 E3.61133
G1 X0.639 Y3.921 E3.62737
G1 X-3.922 Y-0.640 E4.15300
G1 X-3.890 Y-0.834 E4.16903
G1 X0.833 Y3.889 E4.71331
G1 X1.016 Y3.845 E4.72862
G1 X-3.846 Y-1.017 E5.28893
G1 X-3.793 Y-1.190 E5.30367
G1 X1.191 Y3.794 E5.87802
G1 X1.366 Y3.743 E5.89287
G1 X-3.740 Y-1.363 E6.48122
G1 X-3.677 Y-1.526 E6.49550
G1 X1.524 Y3.675 E7.09490
G1 X1.683 Y3.607 E7.10895
G1 X-3.609 Y-1.685 E7.71883
G1 X-3.532 Y-1.834 E7.73249
G1 X1.837 Y3.535 E8.35119
G1 X1.981 Y3.452 E8.36469
G1 X-3.454 Y-1.982 E8.99097
G1 X-3.369 Y-2.124 E9.00441
G1 X2.124 Y3.370 E9.63744
G1 X2.263 Y3.282 E9.65081
G1 X-3.277 Y-2.258 E10.28927
G1 X-3.186 Y-2.393 E10.30254
G1 X2.396 Y3.189 E10.94574
G1 X2.518 Y3.085 E10.95882
G1 X-3.085 Y-2.519 E11.60460
G1 X-2.976 Y-2.635 E11.61764
G1 X2.636 Y2.976 E12.26430
G1 X2.749 Y2.863 E12.27734
G1 X-2.863 Y-2.749 E12.92401
G1 X-2.750 Y-2.862 E12.93704
G1 X2.862 Y2.750 E13.58371
G1 X2.975 Y2.637 E13.59674
G1 X-2.636 Y-2.975 E14.24341
G1 X-2.518 Y-3.083 E14.25646
G1 X3.088 Y2.523 E14.90254
G1 X3.183 Y2.392 E14.91574
G1 X-2.392 Y-3.183 E15.55828
G1 X-2.263 Y-3.280 E15.57146
G1 X3.279 Y2.261 E16.21003
G1 X3.371 Y2.128 E16.22329
G1 X-2.123 Y-3.366 E16.85640
G1 X-1.983 Y-3.453 E16.86980
G1 X3.452 Y1.982 E17.49613
G1 X3.533 Y1.837 E17.50969
G1 X-1.837 Y-3.533 E18.12855
G1 X-1.683 Y-3.605 E18.14243
G1 X3.609 Y1.686 E18.75218
G1 X3.674 Y1.526 E18.76632
G1 X-1.528 Y-3.677 E19.36583
G1 X-1.363 Y-3.738 E19.38017
G1 X3.740 Y1.365 E19.96825
G1 X3.795 Y1.194 E19.98290
G1 X-1.192 Y-3.793 E20.55764
G1 X-1.021 Y-3.849 E20.57228
G1 X3.844 Y1.017 E21.13297
G1 X3.892 Y0.838 E21.14804
G1 X-0.837 Y-3.891 E21.69296
G1 X-0.641 Y-3.921 E21.70911
G1 X3.921 Y0.641 E22.23489
G1 X3.951 Y0.445 E22.25109
G1 X-0.442 Y-3.948 E22.75732
G1 X-0.234 Y-3.967 E22.77429
G1 X3.969 Y0.236 E23.25866
G1 X3.970 Y0.011 E23.27704
G1 X-0.013 Y-3.972 E23.73602
G1 X0.224 Y-3.961 E23.75542
G1 X3.963 Y-0.222 E24.18620
G1 X3.942 Y-0.469 E24.20641
G1 X0.474 Y-3.937 E24.60605
G1 X0.745 Y-3.892 E24.62846
G1 X3.891 Y-0.747 E24.99093
G1 X3.826 Y-1.038 E25.01521
G1 X1.047 Y-3.817 E25.33543
G1 X1.383 Y-3.707 F1200.000
G1 X3.710 Y-1.380 E25.60361 F1200.000
G1 X3.517 Y-1.800 F1200.000
G1 X1.795 Y-3.521 E25.80198 F1200.000
G1 X2.463 Y-3.080 F1200.000
G1 X3.094 Y-2.449 E25.87473 F1200.000
G92 E0
G1 Z0.600 F1200.000
G1 X3.533 Y1.765 F1200.000
G1 X1.772 Y3.525 E0.21589 F3171.775
G1 X1.339 Y3.717 F1200.000
G1 X3.722 Y1.334 E0.50811 F3171.775
G1 X3.831 Y0.985 E0.53983
G1 X0.981 Y3.835 E0.88932
G1 X0.669 Y3.906 E0.91702
G1 X3.903 Y0.671 E1.31360
G1 X3.946 Y0.388 E1.33846
G1 X0.385 Y3.949 E1.77514
G1 X0.132 Y3.961 E1.79710
G1 X3.968 Y0.125 E2.26752
G1 X3.965 Y-0.112 E2.28811
G1 X-0.117 Y3.970 E2.78867
G1 X-0.341 Y3.953 E2.80815
G1 X3.958 Y-0.346 E3.33532
G1 X3.936 Y-0.565 E3.35436
G1 X-0.565 Y3.936 E3.90623
G1 X-0.767 Y3.898 E3.92410
G1 X3.898 Y-0.768 E4.49615
G1 X3.856 Y-0.966 E4.51375
G1 X-0.967 Y3.857 E5.10515
G1 X-1.156 Y3.805 E5.12215
G1 X3.806 Y-1.158 E5.73069
G1 X3.747 Y-1.339 E5.74724
G1 X-1.337 Y3.745 E6.37070
G1 X-1.510 Y3.677 E6.38681
G1 X3.680 Y-1.512 E7.02320
G1 X3.609 Y-1.682 E7.03915
G1 X-1.683 Y3.610 E7.68804
G1 X-1.844 Y3.530 E7.70362
G1 X3.528 Y-1.842 E8.36234
G1 X3.442 Y-1.997 E8.37769
G1 X-1.997 Y3.442 E9.04458
G1 X-2.146 Y3.350 E9.05975
G1 X3.355 Y-2.151 E9.73433
G1 X3.254 Y-2.291 E9.74928
G1 X-2.295 Y3.258 E10.42972
G1 X-2.433 Y3.155 E10.44464
G1 X3.153 Y-2.431 E11.12959
G1 X3.044 Y-2.562 E11.14442
G1 X-2.563 Y3.045 E11.83202
G1 X-2.684 Y2.925 E11.84678
G1 X2.924 Y-2.683 E12.53439
G1 X2.803 Y-2.803 E12.54915
G1 X-2.804 Y2.804 E13.23675
G1 X-2.924 Y2.684 E13.25152
G1 X2.683 Y-2.923 E13.93912
G1 X2.563 Y-3.044 E13.95388
G1 X-3.044 Y2.563 E14.64140
G1 X-3.155 Y2.433 E14.65621
G1 X2.430 Y-3.152 E15.34109
G1 X2.292 Y-3.255 E15.35601
G1 X-3.253 Y2.290 E16.03599
G1 X-3.351 Y2.147 E16.05101
G1 X2.149 Y-3.353 E16.72542
G1 X1.997 Y-3.441 E16.74070
G1 X-3.443 Y1.998 E17.40769
G1 X-3.525 Y1.840 E17.42317
G1 X1.844 Y-3.529 E18.08153
G1 X1.683 Y-3.609 E18.09711
G1 X-3.607 Y1.681 E18.74583
G1 X-3.681 Y1.514 E18.76167
G1 X1.513 Y-3.680 E19.39861
G1 X1.336 Y-3.744 E19.41494
G1 X-3.745 Y1.337 E20.03801
G1 X-3.802 Y1.153 E20.05470
G1 X1.159 Y-3.807 E20.66299
G1 X0.969 Y-3.858 E20.68002
G1 X-3.858 Y0.969 E21.27202
G1 X-3.896 Y0.766 E21.28998
G1 X0.767 Y-3.897 E21.86176
G1 X0.561 Y-3.931 E21.87991
G1 X-3.932 Y0.562 E22.43091
G1 X-3.953 Y0.341 E22.45012
G1 X0.345 Y-3.956 E22.97710
G1 X0.117 Y-3.969 E22.99688
G1 X-3.966 Y0.114 E23.49759
G1 X-3.966 Y-0.127 E23.51848
G1 X-0.129 Y-3.964 E23.98898
G1 X-0.391 Y-3.943 E24.01175
G1 X-3.941 Y-0.393 E24.44703
G1 X-3.908 Y-0.667 E24.47094
G1 X-0.669 Y-3.905 E24.86804
G1 X-0.985 Y-3.830 E24.89621
G1 X-3.832 Y-0.983 E25.24533
G1 X-3.725 Y-1.331 E25.27692
G1 X-1.331 Y-3.725 E25.57053
G1 X-1.766 Y-3.531 F1200.000
G1 X-3.522 Y-1.775 E25.78592 F3171.775
G1 X-3.034 Y-2.503 F1200.000
G1 X-2.484 Y-3.054 E25.85344 F3171.775
G1 X3.089 Y2.449 F1200.000
G1 X2.500 Y3.038 E25.92569 F3171.775
G92 E0
G1 Z1.000 F1200.000
G1 X-1.752 Y3.537 F1200.000
G1 X-3.542 Y1.748 E0.21926 F3174.602
G1 X-3.728 Y1.321 F1200.000
G1 X-1.324 Y3.725 E0.51381 F3174.602
G1 X-0.968 Y3.841 E0.54627
G1 X-3.836 Y0.973 E0.89762
G1 X-3.909 Y0.659 E0.92553
G1 X-0.666 Y3.902 E1.32281
G1 X-0.379 Y3.948 E1.34797
G1 X-3.942 Y0.386 E1.78441
G1 X-3.964 Y0.123 E1.80727
G1 X-0.124 Y3.963 E2.27771
G1 X0.120 Y3.966 E2.29887
G1 X-3.964 Y-0.118 E2.79924
G1 X-3.957 Y-0.351 E2.81947
G1 X0.348 Y3.954 E3.34687
G1 X0.566 Y3.931 E3.36583
G1 X-3.932 Y-0.567 E3.91682
G1 X-3.895 Y-0.770 E3.93475
G1 X0.773 Y3.898 E4.50663
G1 X0.969 Y3.853 E4.52403
G1 X-3.857 Y-0.973 E5.11532
G1 X-3.801 Y-1.157 E5.13198
G1 X1.163 Y3.806 E5.74011
G1 X1.345 Y3.748 E5.75664
G1 X-3.744 Y-1.341 E6.38006
G1 X-3.677 Y-1.515 E6.39619
G1 X1.515 Y3.677 E7.03224
G1 X1.683 Y3.605 E7.04812
G1 X-3.603 Y-1.681 E7.69574
G1 X-3.529 Y-1.848 E7.71152
G1 X1.846 Y3.528 E8.37007
G1 X1.999 Y3.440 E8.38533
G1 X-3.443 Y-2.002 E9.05203
G1 X-3.349 Y-2.149 E9.06712
G1 X2.151 Y3.351 E9.74102
G1 X2.294 Y3.254 E9.75601
G1 X-3.252 Y-2.292 E10.43546
G1 X-3.154 Y-2.435 E10.45045
G1 X2.432 Y3.151 E11.13480
G1 X2.565 Y3.044 E11.14962
G1 X-3.043 Y-2.564 E11.83669
G1 X-2.923 Y-2.685 E11.85143
G1 X2.686 Y2.923 E12.53858
G1 X2.806 Y2.803 E12.55331
G1 X-2.803 Y-2.806 E13.24046
G1 X-2.683 Y-2.926 E13.25519
G1 X2.926 Y2.683 E13.94234
G1 X3.046 Y2.563 E13.95707
G1 X-2.562 Y-3.046 E14.64422
G1 X-2.430 Y-3.154 E14.65903
G1 X3.157 Y2.432 E15.34349
G1 X3.257 Y2.292 E15.35842
G1 X-2.289 Y-3.254 E16.03790
G1 X-2.148 Y-3.353 E16.05286
G1 X3.351 Y2.145 E16.72653
G1 X3.445 Y1.999 E16.74162
G1 X-1.996 Y-3.442 E17.40819
G1 X-1.840 Y-3.526 E17.42358
G1 X3.531 Y1.844 E18.08152
G1 X3.608 Y1.681 E18.09715
G1 X-1.683 Y-3.610 E18.74537
G1 X-1.510 Y-3.678 E18.76145
G1 X3.678 Y1.511 E19.39707
G1 X3.748 Y1.340 E19.41304
G1 X-1.337 Y-3.745 E20.03606
G1 X-1.158 Y-3.806 E20.05248
G1 X3.804 Y1.155 E20.66031
G1 X3.856 Y0.966 E20.67725
G1 X-0.967 Y-3.857 E21.26812
G1 X-0.766 Y-3.896 E21.28586
G1 X3.899 Y0.769 E21.85746
G1 X3.931 Y0.560 E21.87578
G1 X-0.565 Y-3.936 E22.42662
G1 X-0.348 Y-3.959 E22.44556
G1 X3.959 Y0.348 E22.97324
G1 X3.970 Y0.118 E22.99319
G1 X-0.112 Y-3.964 E23.49333
G1 X0.125 Y-3.968 E23.51386
G1 X3.962 Y-0.130 E23.98405
G1 X3.946 Y-0.386 E24.00632
G1 X0.391 Y-3.942 E24.44190
G1 X0.666 Y-3.908 E24.46585
G1 X3.904 Y-0.670 E24.86259
G1 X3.832 Y-0.982 E24.89038
G1 X0.982 Y-3.832 E25.23953
G1 X1.328 Y-3.726 E25.27093
G1 X3.728 Y-1.327 E25.56489
G1 X3.531 Y-1.764 F1200.000
G1 X1.756 Y-3.539 E25.78230 F3174.602
G1 X2.457 Y-3.078 F1200.000
G1 X3.092 Y-2.443 E25.86010 F3174.602
G92 E0
G1 X-2.414 Y3.116 F1200.000
G1 X-3.107 Y2.423 E0.08491 F3174.602
G92 E0

; filament used = 77.7mm (0.1cm3)

; avoid_crossing_perimeters = 1
; bed_shape = 44.7535x4.70378,44.0166x9.35603,42.7975x13.9058,41.1095x18.3031,38.9711x22.5,36.4058x26.4503,33.4415x30.1109,30.1109x33.4415,26.4503x36.4058,22.5x38.9711,18.3031x41.1095,13.9058x42.7975,9.35603x44.0166,4.70378x44.7535,0x45,-4.70378x44.7535,-9.35603x44.0166,-13.9058x42.7975,-18.3031x41.1095,-22.5x38.9711,-26.4503x36.4058,-30.1109x33.4415,-33.4415x30.1109,-36.4058x26.4503,-38.9711x22.5,-41.1095x18.3031,-42.7975x13.9058,-44.0166x9.35603,-44.7535x4.70378,-45x0,-44.7535x-4.70378,-44.0166x-9.35603,-42.7975x-13.9058,-41.1095x-18.3031,-38.9711x-22.5,-36.4058x-26.4503,-33.4415x-30.1109,-30.1109x-33.4415,-26.4503x-36.4058,-22.5x-38.9711,-18.3031x-41.1095,-13.9058x-42.7975,-9.35603x-44.0166,-4.70378x-44.7535,0x-45,4.70378x-44.7535,9.35603x-44.0166,13.9058x-42.7975,18.3031x-41.1095,22.5x-38.9711,26.4503x-36.4058,30.1109x-33.4415,33.4415x-30.1109,36.4058x-26.4503,38.9711x-22.5,41.1095x-18.3031,42.7975x-13.9058,44.0166x-9.35603,44.7535x-4.70378,45x0
; bed_temperature = 0
; before_layer_gcode = 
; bridge_acceleration = 0
; bridge_fan_speed = 100
; brim_width = 0
; complete_objects = 0
; cooling = 0
; default_acceleration = 0
; disable_fan_first_layers = 1
; duplicate_distance = 6
; end_gcode = 
; extruder_clearance_height = 20
; extruder_clearance_radius = 20
; extruder_offset = 0x0
; extrusion_axis = E
; extrusion_multiplier = 2
; fan_always_on = 0
; fan_below_layer_time = 60
; filament_colour = #FFFFFF
; filament_diameter = 1
; first_layer_acceleration = 0
; first_layer_bed_temperature = 0
; first_layer_extrusion_width = 100%
; first_layer_speed = 20
; first_layer_temperature = 200
; gcode_arcs = 0
; gcode_comments = 0
; gcode_flavor = reprap
; infill_acceleration = 0
; infill_first = 0
; layer_gcode = 
; max_fan_speed = 100
; max_print_speed = 20
; max_volumetric_speed = 1.8
; min_fan_speed = 35
; min_print_speed = 10
; min_skirt_length = 0
; notes = 
; nozzle_diameter = 0.2
; only_retract_when_crossing_perimeters = 1
; ooze_prevention = 0
; output_filename_format = [input_filename_base].gcode
; perimeter_acceleration = 0
; post_process = 
; pressure_advance = 0
; resolution = 0
; retract_before_travel = 2
; retract_layer_change = 1
; retract_length = 0
; retract_length_toolchange = 0
; retract_lift = 0
; retract_restart_extra = 0
; retract_restart_extra_toolchange = 0
; retract_speed = 30
; skirt_distance = 6
; skirt_height = 0
; skirts = 0
; slowdown_below_layer_time = 30
; spiral_vase = 0
; standby_temperature_delta = -5
; start_gcode = G28 ; home all axes
; temperature = 200
; threads = 2
; toolchange_gcode = 
; travel_speed = 20
; use_firmware_retraction = 0
; use_relative_e_distances = 0
; use_volumetric_e = 0
; vibration_limit = 0
; wipe = 0
; z_offset = 0
; dont_support_bridges = 1
; extrusion_width = 0
; first_layer_height = 0.2
; infill_only_where_needed = 0
; interface_shells = 0
; layer_height = 0.2
; raft_layers = 0
; seam_position = random
; support_material = 0
; support_material_angle = 0
; support_material_contact_distance = 0.2
; support_material_enforce_layers = 0
; support_material_extruder = 1
; support_material_extrusion_width = 0
; support_material_interface_extruder = 1
; support_material_interface_layers = 0
; support_material_interface_spacing = 0
; support_material_interface_speed = 100%
; support_material_pattern = rectilinear
; support_material_spacing = 2.5
; support_material_speed = 60
; support_material_threshold = 0
; xy_size_compensation = 0
; bottom_solid_layers = 0
; bridge_flow_ratio = 1
; bridge_speed = 20
; external_fill_pattern = rectilinear
; external_perimeter_extrusion_width = 0
; external_perimeter_speed = 15
; external_perimeters_first = 0
; extra_perimeters = 1
; fill_angle = 45
; fill_density = 100%
; fill_pattern = rectilinear
; gap_fill_speed = 15
; infill_every_layers = 1
; infill_extruder = 1
; infill_extrusion_width = 0
; infill_overlap = 50%
; infill_speed = 20
; overhangs = 1
; perimeter_extruder = 1
; perimeter_extrusion_width = 0
; perimeter_speed = 15
; perimeters = 0
; small_perimeter_speed = 15
; solid_infill_below_area = 70
; solid_infill_every_layers = 0
; solid_infill_extruder = 1
; solid_infill_extrusion_width = 0
; solid_infill_speed = 60
; thin_walls = 1
; top_infill_extrusion_width = 0
; top_solid_infill_speed = 50
; top_solid_layers = 0
