; generated by Slic3r 1.2.9 on 2019-10-17 at 18:20:41

; external perimeters extrusion width = 0.25mm
; perimeters extrusion width = 0.26mm
; infill extrusion width = 0.26mm
; solid infill extrusion width = 0.26mm
; top infill extrusion width = 0.26mm

M104 S200 ; set temperature
G28 ; home all axes
M109 S200 ; wait for temperature to be reached
G21 ; set units to millimeters
G90 ; use absolute coordinates
M82 ; use absolute distances for extrusion
G92 E0
G1 Z0.250 F1200.000
G1 X-3.030 Y2.487 F1200.000
G1 X-2.452 Y3.065 E0.10409 F1200.000
G1 X-1.671 Y3.562 F1200.000
G1 X-3.564 Y1.670 E0.44484 F1200.000
G1 X-1.186 Y3.766 F1200.000
G1 X-3.756 Y1.195 E0.90771 F1200.000
G1 X-3.866 Y0.803 E0.95959
G1 X-0.801 Y3.867 E1.51143
G1 X-0.462 Y3.924 E1.55526
G1 X-3.925 Y0.460 E2.17898
G1 X-3.951 Y0.151 E2.21848
G1 X-0.145 Y3.957 E2.90388
G1 X0.136 Y3.956 E2.93975
G1 X-3.959 Y-0.139 E3.67721
G1 X-3.941 Y-0.404 E3.71103
G1 X0.407 Y3.944 E4.49403
G1 X0.654 Y3.908 E4.52584
G1 X-3.910 Y-0.656 E5.34778
G1 X-3.867 Y-0.896 E5.37880
G1 X0.897 Y3.868 E6.23665
G1 X1.123 Y3.811 E6.26632
G1 X-3.806 Y-1.117 E7.15383
G1 X-3.739 Y-1.334 E7.18264
G1 X1.333 Y3.738 E8.09588
G1 X1.541 Y3.663 E8.12405
G1 X-3.663 Y-1.541 E9.06111
G1 X-3.573 Y-1.734 E9.08823
G1 X1.733 Y3.573 E10.04381
G1 X1.922 Y3.479 E10.07065
G1 X-3.477 Y-1.920 E11.04278
G1 X-3.375 Y-2.101 E11.06924
G1 X2.100 Y3.374 E12.05514
G1 X2.271 Y3.262 E12.08113
G1 X-3.260 Y-2.269 E13.07707
G1 X-3.145 Y-2.437 E13.10299
G1 X2.436 Y3.144 E14.10812
G1 X2.588 Y3.013 E14.13365
G1 X-3.013 Y-2.587 E15.14214
G1 X-2.871 Y-2.729 E15.16761
G1 X2.729 Y2.871 E16.17610
G1 X2.871 Y2.730 E16.20157
G1 X-2.730 Y-2.870 E17.21006
G1 X-2.588 Y-3.012 E17.23553
G1 X3.012 Y2.589 E18.24402
G1 X3.142 Y2.436 E18.26957
G1 X-2.434 Y-3.140 E19.27366
G1 X-2.274 Y-3.263 E19.29934
G1 X3.261 Y2.272 E20.29610
G1 X3.375 Y2.103 E20.32203
G1 X-2.099 Y-3.371 E21.30787
G1 X-1.925 Y-3.479 E21.33403
G1 X3.476 Y1.922 E22.30662
G1 X3.577 Y1.740 E22.33311
G1 X-1.734 Y-3.572 E23.28954
G1 X-1.541 Y-3.661 E23.31667
G1 X3.660 Y1.539 E24.25310
G1 X3.742 Y1.338 E24.28071
G1 X-1.338 Y-3.741 E25.19539
G1 X-1.120 Y-3.806 E25.22435
G1 X3.806 Y1.120 E26.11136
G1 X3.867 Y0.898 E26.14064
G1 X-0.895 Y-3.864 E26.99824
G1 X-0.657 Y-3.909 E27.02913
G1 X3.909 Y0.657 E27.85125
G1 X3.946 Y0.411 E27.88290
G1 X-0.408 Y-3.942 E28.66684
G1 X-0.142 Y-3.959 E28.70075
G1 X3.962 Y0.144 E29.43975
G1 X3.953 Y-0.147 E29.47689
G1 X0.148 Y-3.952 E30.16212
G1 X0.456 Y-3.927 E30.20144
G1 X3.926 Y-0.457 E30.82636
G1 X3.873 Y-0.793 E30.86966
G1 X0.795 Y-3.871 E31.42395
G1 X1.190 Y-3.759 E31.47623
G1 X3.765 Y-1.184 E31.93997
G1 X3.579 Y-1.653 F1200.000
G1 X1.656 Y-3.576 E32.28613 F1200.000
G1 X2.441 Y-3.073 F1200.000
G1 X3.090 Y-2.425 E32.40291 F1200.000
G92 E0
G1 Z0.750 F1200.000
G1 X3.579 Y1.632 F1200.000
G1 X1.637 Y3.574 E0.36813 F2051.890
G1 X1.142 Y3.771 F1200.000
G1 X3.773 Y1.140 E0.86689 F2051.890
G1 X3.880 Y0.735 E0.92308
G1 X0.737 Y3.879 E1.51895
G1 X0.382 Y3.936 E1.56716
G1 X3.933 Y0.384 E2.24034
G1 X3.959 Y0.061 E2.28379
G1 X0.068 Y3.952 E3.02121
G1 X-0.228 Y3.950 E3.06088
G1 X3.950 Y-0.228 E3.85277
G1 X3.928 Y-0.504 E3.88992
G1 X-0.505 Y3.929 E4.73024
G1 X-0.765 Y3.892 E4.76551
G1 X3.889 Y-0.763 E5.64782
G1 X3.834 Y-1.006 E5.68117
G1 X-1.004 Y3.833 E6.59832
G1 X-1.240 Y3.771 E6.63104
G1 X3.770 Y-1.239 E7.58077
G1 X3.690 Y-1.457 E7.61188
G1 X-1.457 Y3.690 E8.58757
G1 X-1.667 Y3.603 E8.61805
G1 X3.604 Y-1.668 E9.61710
G1 X3.504 Y-1.866 E9.64683
G1 X-1.869 Y3.507 E10.66527
G1 X-2.055 Y3.395 E10.69438
G1 X3.398 Y-2.058 E11.72800
G1 X3.282 Y-2.239 E11.75689
G1 X-2.239 Y3.282 E12.80340
G1 X-2.411 Y3.155 E12.83194
G1 X3.156 Y-2.412 E13.88719
G1 X3.021 Y-2.574 E13.91552
G1 X-2.571 Y3.018 E14.97544
G1 X-2.720 Y2.869 E15.00366
G1 X2.872 Y-2.723 E16.06359
G1 X2.723 Y-2.872 E16.09180
G1 X-2.869 Y2.720 E17.15173
G1 X-3.018 Y2.571 E17.17995
G1 X2.574 Y-3.021 E18.23987
G1 X2.411 Y-3.155 E18.26822
G1 X-3.156 Y2.412 E19.32347
G1 X-3.283 Y2.242 E19.35198
G1 X2.241 Y-3.283 E20.39915
G1 X2.058 Y-3.397 E20.42812
G1 X-3.395 Y2.055 E21.46166
G1 X-3.506 Y1.869 E21.49076
G1 X1.869 Y-3.506 E22.50955
G1 X1.668 Y-3.604 E22.53940
G1 X-3.602 Y1.667 E23.53835
G1 X-3.691 Y1.458 E23.56877
G1 X1.458 Y-3.691 E24.54474
G1 X1.240 Y-3.771 E24.57588
G1 X-3.770 Y1.239 E25.52553
G1 X-3.832 Y1.004 E25.55817
G1 X1.008 Y-3.836 E26.47559
G1 X0.761 Y-3.887 E26.50932
G1 X-3.891 Y0.765 E27.39111
G1 X-3.927 Y0.503 E27.42646
G1 X0.506 Y-3.930 E28.26677
G1 X0.229 Y-3.951 E28.30398
G1 X-3.950 Y0.228 E29.09608
G1 X-3.953 Y-0.066 E29.13550
G1 X-0.066 Y-3.953 E29.87236
G1 X-0.387 Y-3.930 E29.91553
G1 X-3.928 Y-0.389 E30.58664
G1 X-3.870 Y-0.745 E30.63494
G1 X-0.734 Y-3.881 E31.22935
G1 X-1.146 Y-3.767 E31.28661
G1 X-3.766 Y-1.146 E31.78336
G1 X-3.580 Y-1.631 F1200.000
G1 X-1.639 Y-3.572 E32.15127 F2051.890
G1 X-2.472 Y-3.036 F1200.000
G1 X-3.027 Y-2.481 E32.25646 F2051.890
G1 X2.445 Y3.064 F1200.000
G1 X3.082 Y2.426 E32.37726 F2051.890
G92 E0
G1 Z1.250 F1200.000
G1 X3.774 Y-1.136 F1200.000
G1 X1.137 Y-3.773 E0.49973 F2052.475
G1 X0.736 Y-3.877 E0.55530
G1 X3.880 Y-0.732 E1.15119
G1 X3.936 Y-0.379 E1.19918
G1 X0.379 Y-3.936 E1.87334
G1 X0.061 Y-3.956 E1.91594
G1 X3.952 Y-0.065 E2.65321
G1 X3.955 Y0.235 E2.69343
G1 X-0.231 Y-3.951 E3.48661
G1 X-0.504 Y-3.926 E3.52334
G1 X3.928 Y0.506 E4.36324
G1 X3.889 Y0.765 E4.39829
G1 X-0.766 Y-3.891 E5.28048
G1 X-1.006 Y-3.832 E5.31351
G1 X3.834 Y1.008 E6.23070
G1 X3.770 Y1.242 E6.26318
G1 X-1.242 Y-3.771 E7.21304
G1 X-1.462 Y-3.693 E7.24431
G1 X3.688 Y1.457 E8.22023
G1 X3.603 Y1.669 E8.25090
G1 X-1.666 Y-3.600 E9.24934
G1 X-1.870 Y-3.506 E9.27938
G1 X3.504 Y1.868 E10.29760
G1 X3.397 Y2.059 E10.32691
G1 X-2.057 Y-3.395 E11.36032
G1 X-2.240 Y-3.281 E11.38930
G1 X3.281 Y2.240 E12.43557
G1 X3.156 Y2.413 E12.46413
G1 X-2.412 Y-3.155 E13.51911
G1 X-2.576 Y-3.021 E13.54746
G1 X3.021 Y2.576 E14.60805
G1 X2.872 Y2.725 E14.63625
G1 X-2.725 Y-2.872 E15.69684
G1 X-2.873 Y-2.723 E15.72504
G1 X2.724 Y2.874 E16.78563
G1 X2.575 Y3.022 E16.81384
G1 X-3.022 Y-2.574 E17.87442
G1 X-3.159 Y-2.413 E17.90272
G1 X2.411 Y3.156 E18.95806
G1 X2.240 Y3.283 E18.98655
G1 X-3.279 Y-2.236 E20.03251
G1 X-3.400 Y-2.059 E20.06121
G1 X2.056 Y3.397 E21.09507
G1 X1.867 Y3.505 E21.12427
G1 X-3.502 Y-1.864 E22.14178
G1 X-3.604 Y-1.668 E22.17136
G1 X1.669 Y3.605 E23.17066
G1 X1.457 Y3.690 E23.20134
G1 X-3.693 Y-1.459 E24.17721
G1 X-3.766 Y-1.235 E24.20885
G1 X1.238 Y3.769 E25.15705
G1 X1.005 Y3.834 E25.18936
G1 X-3.836 Y-1.007 E26.10690
G1 X-3.891 Y-0.765 E26.14023
G1 X0.764 Y3.890 E27.02238
G1 X0.507 Y3.931 E27.05726
G1 X-3.925 Y-0.501 E27.89704
G1 X-3.953 Y-0.231 E27.93334
G1 X0.227 Y3.949 E28.72542
G1 X-0.062 Y3.957 E28.76416
G1 X-3.952 Y0.067 E29.50125
G1 X-3.933 Y0.384 E29.54375
G1 X-0.387 Y3.930 E30.21565
G1 X-0.734 Y3.881 E30.26255
G1 X-3.873 Y0.742 E30.85737
G1 X-3.766 Y1.146 E30.91341
G1 X-1.146 Y3.767 E31.41001
G1 X-1.638 Y3.572 F1200.000
G1 X-3.575 Y1.635 E31.77704 F2052.475
G1 X-3.037 Y2.471 F1200.000
G1 X-2.460 Y3.048 E31.88645 F2052.475
G92 E0
G1 X3.586 Y-1.621 F1200.000
G1 X1.631 Y-3.577 E0.37056 F2052.475
G1 X2.453 Y-3.053 F1200.000
G1 X3.087 Y-2.419 E0.49071 F2052.475
G92 E0

; filament used = 97.2mm (0.1cm3)

; avoid_crossing_perimeters = 1
; bed_shape = 44.7535x4.70378,44.0166x9.35603,42.7975x13.9058,41.1095x18.3031,38.9711x22.5,36.4058x26.4503,33.4415x30.1109,30.1109x33.4415,26.4503x36.4058,22.5x38.9711,18.3031x41.1095,13.9058x42.7975,9.35603x44.0166,4.70378x44.7535,0x45,-4.70378x44.7535,-9.35603x44.0166,-13.9058x42.7975,-18.3031x41.1095,-22.5x38.9711,-26.4503x36.4058,-30.1109x33.4415,-33.4415x30.1109,-36.4058x26.4503,-38.9711x22.5,-41.1095x18.3031,-42.7975x13.9058,-44.0166x9.35603,-44.7535x4.70378,-45x0,-44.7535x-4.70378,-44.0166x-9.35603,-42.7975x-13.9058,-41.1095x-18.3031,-38.9711x-22.5,-36.4058x-26.4503,-33.4415x-30.1109,-30.1109x-33.4415,-26.4503x-36.4058,-22.5x-38.9711,-18.3031x-41.1095,-13.9058x-42.7975,-9.35603x-44.0166,-4.70378x-44.7535,0x-45,4.70378x-44.7535,9.35603x-44.0166,13.9058x-42.7975,18.3031x-41.1095,22.5x-38.9711,26.4503x-36.4058,30.1109x-33.4415,33.4415x-30.1109,36.4058x-26.4503,38.9711x-22.5,41.1095x-18.3031,42.7975x-13.9058,44.0166x-9.35603,44.7535x-4.70378,45x0
; bed_temperature = 0
; before_layer_gcode = 
; bridge_acceleration = 0
; bridge_fan_speed = 100
; brim_width = 0
; complete_objects = 0
; cooling = 0
; default_acceleration = 0
; disable_fan_first_layers = 1
; duplicate_distance = 6
; end_gcode = 
; extruder_clearance_height = 20
; extruder_clearance_radius = 20
; extruder_offset = 0x0
; extrusion_axis = E
; extrusion_multiplier = 2
; fan_always_on = 0
; fan_below_layer_time = 60
; filament_colour = #FFFFFF
; filament_diameter = 1
; first_layer_acceleration = 0
; first_layer_bed_temperature = 0
; first_layer_extrusion_width = 100%
; first_layer_speed = 20
; first_layer_temperature = 200
; gcode_arcs = 0
; gcode_comments = 0
; gcode_flavor = reprap
; infill_acceleration = 0
; infill_first = 0
; layer_gcode = 
; max_fan_speed = 100
; max_print_speed = 20
; max_volumetric_speed = 1.8
; min_fan_speed = 35
; min_print_speed = 10
; min_skirt_length = 0
; notes = 
; nozzle_diameter = 0.25
; only_retract_when_crossing_perimeters = 1
; ooze_prevention = 0
; output_filename_format = [input_filename_base].gcode
; perimeter_acceleration = 0
; post_process = 
; pressure_advance = 0
; resolution = 0
; retract_before_travel = 2
; retract_layer_change = 1
; retract_length = 0
; retract_length_toolchange = 0
; retract_lift = 0
; retract_restart_extra = 0
; retract_restart_extra_toolchange = 0
; retract_speed = 30
; skirt_distance = 6
; skirt_height = 0
; skirts = 0
; slowdown_below_layer_time = 30
; spiral_vase = 0
; standby_temperature_delta = -5
; start_gcode = G28 ; home all axes
; temperature = 200
; threads = 2
; toolchange_gcode = 
; travel_speed = 20
; use_firmware_retraction = 0
; use_relative_e_distances = 0
; use_volumetric_e = 0
; vibration_limit = 0
; wipe = 0
; z_offset = 0
; dont_support_bridges = 1
; extrusion_width = 0
; first_layer_height = 0.25
; infill_only_where_needed = 0
; interface_shells = 0
; layer_height = 0.25
; raft_layers = 0
; seam_position = random
; support_material = 0
; support_material_angle = 0
; support_material_contact_distance = 0.2
; support_material_enforce_layers = 0
; support_material_extruder = 1
; support_material_extrusion_width = 0
; support_material_interface_extruder = 1
; support_material_interface_layers = 0
; support_material_interface_spacing = 0
; support_material_interface_speed = 100%
; support_material_pattern = rectilinear
; support_material_spacing = 2.5
; support_material_speed = 60
; support_material_threshold = 0
; xy_size_compensation = 0
; bottom_solid_layers = 0
; bridge_flow_ratio = 1
; bridge_speed = 20
; external_fill_pattern = rectilinear
; external_perimeter_extrusion_width = 0
; external_perimeter_speed = 15
; external_perimeters_first = 0
; extra_perimeters = 1
; fill_angle = 45
; fill_density = 100%
; fill_pattern = rectilinear
; gap_fill_speed = 15
; infill_every_layers = 1
; infill_extruder = 1
; infill_extrusion_width = 0
; infill_overlap = 50%
; infill_speed = 20
; overhangs = 1
; perimeter_extruder = 1
; perimeter_extrusion_width = 0
; perimeter_speed = 15
; perimeters = 0
; small_perimeter_speed = 15
; solid_infill_below_area = 70
; solid_infill_every_layers = 0
; solid_infill_extruder = 1
; solid_infill_extrusion_width = 0
; solid_infill_speed = 60
; thin_walls = 1
; top_infill_extrusion_width = 0
; top_solid_infill_speed = 50
; top_solid_layers = 0
