; generated by Slic3r 1.2.9 on 2019-11-13 at 11:58:11

; external perimeters extrusion width = 0.20mm
; perimeters extrusion width = 0.34mm
; infill extrusion width = 0.34mm
; solid infill extrusion width = 0.34mm
; top infill extrusion width = 0.34mm

M104 S200 ; set temperature
G28 ; home all axes
M109 S200 ; wait for temperature to be reached
G21 ; set units to millimeters
G90 ; use absolute coordinates
M82 ; use absolute distances for extrusion
G92 E0
G1 Z0.100 F1200.000
G1 X-3.047 Y2.554 F1200.000
G1 X-2.535 Y3.065 E0.01459 F1200.000
G1 X-2.110 Y3.378 F1200.000
G1 X-3.367 Y2.121 E0.05046 F1200.000
G1 X-3.534 Y1.843 F1200.000
G1 X-1.855 Y3.521 E0.09833 F1200.000
G1 X-1.621 Y3.644 F1200.000
G1 X-3.642 Y1.622 E0.15597 F1200.000
G1 X-3.714 Y1.438 F1200.000
G1 X-1.427 Y3.725 E0.22120 F1200.000
G1 X-1.261 Y3.779 E0.22472
G1 X-3.781 Y1.259 E0.29658
G1 X-3.835 Y1.093 E0.30010
G1 X-1.095 Y3.833 E0.37823
G1 X-0.936 Y3.880 E0.38158
G1 X-3.871 Y0.945 E0.46527
G1 X-3.907 Y0.797 E0.46835
G1 X-0.791 Y3.913 E0.55722
G1 X-0.657 Y3.935 E0.55995
G1 X-3.939 Y0.654 E0.65352
G1 X-3.958 Y0.522 E0.65621
G1 X-0.528 Y3.953 E0.75404
G1 X-0.398 Y3.970 E0.75668
G1 X-3.972 Y0.397 E0.85858
G1 X-3.979 Y0.278 E0.86099
G1 X-0.270 Y3.987 E0.96676
G1 X-0.153 Y3.992 E0.96913
G1 X-3.986 Y0.159 E1.07844
G1 X-3.993 Y0.039 E1.08085
G1 X-0.036 Y3.997 E1.19370
G1 X0.071 Y3.992 E1.19586
G1 X-3.995 Y-0.074 E1.31181
G1 X-3.991 Y-0.183 E1.31400
G1 X0.178 Y3.987 E1.43290
G1 X0.286 Y3.982 E1.43506
G1 X-3.986 Y-0.289 E1.55686
G1 X-3.973 Y-0.389 E1.55889
G1 X0.393 Y3.977 E1.68341
G1 X0.493 Y3.966 E1.68544
G1 X-3.961 Y-0.489 E1.81247
G1 X-3.949 Y-0.589 E1.81450
G1 X0.589 Y3.950 E1.94392
G1 X0.685 Y3.934 E1.94588
G1 X-3.937 Y-0.689 E2.07770
G1 X-3.921 Y-0.784 F1200.000
G1 X0.781 Y3.918 E2.21178 F1200.000
G1 X0.877 Y3.902 E2.21374
G1 X-3.901 Y-0.876 E2.35000
G1 X-3.881 Y-0.968 F1200.000
G1 X0.966 Y3.879 E2.48822 F1200.000
G1 X1.053 Y3.854 F1200.000
G1 X-3.854 Y-1.054 E2.62816 F1200.000
G1 X-3.828 Y-1.139 F1200.000
G1 X1.140 Y3.828 E2.76983 F1200.000
G1 X1.226 Y3.803 F1200.000
G1 X-3.801 Y-1.225 E2.91321 F1200.000
G1 X-3.775 Y-1.310 F1200.000
G1 X1.313 Y3.778 E3.05830 F1200.000
G1 X1.397 Y3.750 F1200.000
G1 X-3.749 Y-1.396 E3.20504 F1200.000
G1 X-3.716 Y-1.475 F1200.000
G1 X1.477 Y3.718 E3.35314 F1200.000
G1 X1.558 Y3.687 F1200.000
G1 X-3.681 Y-1.553 E3.50255 F1200.000
G1 X-3.647 Y-1.630 F1200.000
G1 X1.634 Y3.651 E3.65315 F1200.000
G1 X1.709 Y3.614 F1200.000
G1 X-3.612 Y-1.708 E3.80490 F1200.000
G1 X-3.578 Y-1.785 F1200.000
G1 X1.784 Y3.576 E3.95780 F1200.000
G1 X1.858 Y3.539 F1200.000
G1 X-3.543 Y-1.862 E4.11182 F1200.000
G1 X-3.503 Y-1.934 F1200.000
G1 X1.933 Y3.502 E4.26682 F1200.000
G1 X2.007 Y3.464 F1200.000
G1 X-3.462 Y-2.006 E4.42279 F1200.000
G1 X-3.421 Y-2.076 F1200.000
G1 X2.076 Y3.421 E4.57956 F1200.000
G1 X2.146 Y3.379 F1200.000
G1 X-3.376 Y-2.143 E4.73701 F1200.000
G1 X-3.330 Y-2.209 F1200.000
G1 X2.215 Y3.336 E4.89513 F1200.000
G1 X2.281 Y3.290 F1200.000
G1 X-3.285 Y-2.276 E5.05384 F1200.000
G1 X-3.239 Y-2.342 F1200.000
G1 X2.346 Y3.243 E5.21313 F1200.000
G1 X2.412 Y3.196 F1200.000
G1 X-3.194 Y-2.409 E5.37298 F1200.000
G1 X-3.146 Y-2.473 F1200.000
G1 X2.472 Y3.145 E5.53319 F1200.000
G1 X2.533 Y3.094 F1200.000
G1 X-3.094 Y-2.533 E5.69364 F1200.000
G1 X-3.041 Y-2.592 F1200.000
G1 X2.593 Y3.042 E5.85430 F1200.000
G1 X2.649 Y2.986 F1200.000
G1 X-2.985 Y-2.648 E6.01496 F1200.000
G1 X-2.929 Y-2.704 E6.01656
G1 X2.705 Y2.930 E6.17721
G1 X2.761 Y2.874 E6.17881
G1 X-2.873 Y-2.760 E6.33947
G1 X-2.817 Y-2.816 E6.34106
G1 X2.817 Y2.818 E6.50172
G1 X2.872 Y2.762 E6.50332
G1 X-2.761 Y-2.872 E6.66398
G1 X-2.705 Y-2.928 E6.66557
G1 X2.928 Y2.706 E6.82623
G1 X2.984 Y2.650 E6.82783
G1 X-2.649 Y-2.984 E6.98849
G1 X-2.593 Y-3.040 F1200.000
G1 X3.040 Y2.594 E7.14915 F1200.000
G1 X3.096 Y2.538 F1200.000
G1 X-2.533 Y-3.092 E7.30968 F1200.000
G1 X-2.471 Y-3.141 F1200.000
G1 X3.144 Y2.473 E7.46979 F1200.000
G1 X3.191 Y2.409 F1200.000
G1 X-2.408 Y-3.191 E7.62948 F1200.000
G1 X-2.346 Y-3.241 F1200.000
G1 X3.239 Y2.344 E7.78873 F1200.000
G1 X3.286 Y2.279 F1200.000
G1 X-2.281 Y-3.288 E7.94747 F1200.000
G1 X-2.212 Y-3.331 F1200.000
G1 X3.333 Y2.214 E8.10558 F1200.000
G1 X3.379 Y2.148 F1200.000
G1 X-2.143 Y-3.373 E8.26304 F1200.000
G1 X-2.073 Y-3.416 F1200.000
G1 X3.419 Y2.076 E8.41966 F1200.000
G1 X3.459 Y2.004 F1200.000
G1 X-2.004 Y-3.459 E8.57545 F1200.000
G1 X-1.935 Y-3.502 F1200.000
G1 X3.499 Y1.932 E8.73042 F1200.000
G1 X3.539 Y1.861 F1200.000
G1 X-1.862 Y-3.541 E8.88444 F1200.000
G1 X-1.785 Y-3.576 F1200.000
G1 X3.579 Y1.789 E9.03743 F1200.000
G1 X3.616 Y1.713 F1200.000
G1 X-1.709 Y-3.612 E9.18927 F1200.000
G1 X-1.632 Y-3.647 F1200.000
G1 X3.648 Y1.634 E9.33985 F1200.000
G1 X3.681 Y1.554 F1200.000
G1 X-1.556 Y-3.682 E9.48919 F1200.000
G1 X-1.479 Y-3.718 F1200.000
G1 X3.714 Y1.475 E9.63728 F1200.000
G1 X3.746 Y1.396 F1200.000
G1 X-1.396 Y-3.746 E9.78392 F1200.000
G1 X-1.311 Y-3.774 F1200.000
G1 X3.779 Y1.317 E9.92908 F1200.000
G1 X3.805 Y1.230 F1200.000
G1 X-1.227 Y-3.801 E10.07256 F1200.000
G1 X-1.142 Y-3.829 F1200.000
G1 X3.829 Y1.142 E10.21432 F1200.000
G1 X3.853 Y1.055 F1200.000
G1 X-1.058 Y-3.856 E10.35436 F1200.000
G1 X-0.970 Y-3.880 F1200.000
G1 X3.877 Y0.967 E10.49258 F1200.000
G1 X3.902 Y0.879 F1200.000
G1 X-0.878 Y-3.901 E10.62890 F1200.000
G1 X-0.787 Y-3.922 F1200.000
G1 X3.920 Y0.786 E10.76314 F1200.000
G1 X3.935 Y0.688 E10.76512
G1 X-0.689 Y-3.935 E10.89697
G1 X-0.590 Y-3.949 E10.89898
G1 X3.949 Y0.591 E11.02844
G1 X3.964 Y0.494 E11.03042
G1 X-0.492 Y-3.962 E11.15748
G1 X-0.393 Y-3.975 E11.15949
G1 X3.979 Y0.396 E11.28416
G1 X3.987 Y0.293 E11.28626
G1 X-0.293 Y-3.987 E11.40830
G1 X-0.185 Y-3.992 E11.41047
G1 X3.993 Y0.187 E11.52963
G1 X3.995 Y0.076 E11.53186
G1 X-0.078 Y-3.996 E11.64800
G1 X0.038 Y-3.992 E11.65034
G1 X3.991 Y-0.039 E11.76306
G1 X3.988 Y-0.155 E11.76539
G1 X0.156 Y-3.987 E11.87467
G1 X0.273 Y-3.981 E11.87704
G1 X3.984 Y-0.270 E11.98287
G1 X3.974 Y-0.392 E11.98534
G1 X0.390 Y-3.976 E12.08755
G1 X0.523 Y-3.955 E12.09026
G1 X3.955 Y-0.524 E12.18811
G1 X3.935 Y-0.656 E12.19080
G1 X0.658 Y-3.933 E12.28425
G1 X0.792 Y-3.911 E12.28700
G1 X3.915 Y-0.788 E12.37606
G1 X3.876 Y-0.938 E12.37919
G1 X0.933 Y-3.881 E12.46311
G1 X1.085 Y-3.841 E12.46628
G1 X3.834 Y-1.093 E12.54465
G1 X3.791 Y-1.247 E12.54789
G1 X1.256 Y-3.782 E12.62018
G1 X1.431 Y-3.719 F1200.000
G1 X3.727 Y-1.424 E12.68565 F1200.000
G1 X3.637 Y-1.625 F1200.000
G1 X1.617 Y-3.645 E12.74326 F1200.000
G1 X1.841 Y-3.533 F1200.000
G1 X3.533 Y-1.841 E12.79152 F1200.000
G1 X3.391 Y-2.096 F1200.000
G1 X2.107 Y-3.380 E12.82814 F1200.000
G1 X2.505 Y-3.093 F1200.000
G1 X3.107 Y-2.491 E12.84530 F1200.000
G92 E0
G1 Z0.200 F1200.000
G1 X3.670 Y1.311 F1200.000
G1 X1.313 Y3.669 E0.27181 F749.563
G1 X0.675 Y3.853 E0.32590
G1 X3.855 Y0.673 E0.69258
G1 X3.922 Y0.153 E0.73532
G1 X0.159 Y3.916 E1.16923
G1 X-0.298 Y3.921 E1.20656
G1 X3.918 Y-0.295 E1.69278
G1 X3.871 Y-0.701 E1.72609
G1 X-0.702 Y3.871 E2.25337
G1 X-1.076 Y3.793 E2.28453
G1 X3.790 Y-1.073 E2.84560
G1 X3.683 Y-1.419 E2.87511
G1 X-1.417 Y3.682 E3.46324
G1 X-1.736 Y3.548 E3.49143
G1 X3.545 Y-1.733 E4.10033
G1 X3.391 Y-2.032 E4.12775
G1 X-2.030 Y3.389 E4.75281
G1 X-2.302 Y3.208 E4.77944
G1 X3.209 Y-2.303 E5.41487
G1 X3.009 Y-2.556 E5.44116
G1 X-2.557 Y3.010 E6.08292
G1 X-2.783 Y2.783 E6.10903
G1 X2.783 Y-2.782 E6.75079
G1 X2.556 Y-3.009 E6.77690
G1 X-3.010 Y2.557 E7.41866
G1 X-3.208 Y2.303 E7.44497
G1 X2.304 Y-3.209 E8.08051
G1 X2.029 Y-3.387 E8.10722
G1 X-3.390 Y2.032 E8.73202
G1 X-3.545 Y1.734 E8.75940
G1 X1.737 Y-3.548 E9.36847
G1 X1.416 Y-3.679 E9.39679
G1 X-3.678 Y1.414 E9.98416
G1 X-3.789 Y1.073 E10.01347
G1 X1.077 Y-3.794 E10.57458
G1 X0.701 Y-3.870 E10.60590
G1 X-3.874 Y0.705 E11.13342
G1 X-3.915 Y0.293 E11.16720
G1 X0.294 Y-3.917 E11.65255
G1 X-0.154 Y-3.921 E11.68910
G1 X-3.922 Y-0.153 E12.12359
G1 X-3.854 Y-0.674 E12.16642
G1 X-0.670 Y-3.858 E12.53353
G1 X-1.304 Y-3.677 E12.58727
G1 X-3.666 Y-1.315 E12.85958
G1 X-3.012 Y-2.422 F1200.000
G1 X-2.415 Y-3.019 E12.92844 F749.563
G1 X3.061 Y2.373 F1200.000
G1 X2.388 Y3.046 E13.00612 F749.563
G92 E0
G1 Z0.300 F1200.000
G1 X-1.308 Y3.673 F1200.000
G1 X-3.677 Y1.304 E0.27313 F749.750
G1 X-3.849 Y0.679 E0.32597
G1 X-0.670 Y3.858 E0.69251
G1 X-0.159 Y3.916 E0.73441
G1 X-3.915 Y0.160 E1.16738
G1 X-3.919 Y-0.296 E1.20462
G1 X0.294 Y3.916 E1.69024
G1 X0.701 Y3.871 E1.72367
G1 X-3.873 Y-0.703 E2.25098
G1 X-3.789 Y-1.072 E2.28182
G1 X1.076 Y3.793 E2.84268
G1 X1.415 Y3.680 E2.87184
G1 X-3.682 Y-1.417 E3.45940
G1 X-3.545 Y-1.733 E3.48746
G1 X1.733 Y3.545 E4.09591
G1 X2.031 Y3.390 E4.12329
G1 X-3.386 Y-2.027 E4.74781
G1 X-3.212 Y-2.305 E4.77458
G1 X2.304 Y3.210 E5.41044
G1 X2.557 Y3.010 E5.43671
G1 X-3.010 Y-2.556 E6.07845
G1 X-2.784 Y-2.783 E6.10455
G1 X2.783 Y2.784 E6.74629
G1 X3.009 Y2.558 E6.77238
G1 X-2.557 Y-3.009 E7.41412
G1 X-2.307 Y-3.212 E7.44036
G1 X3.208 Y2.304 E8.07619
G1 X3.387 Y2.030 E8.10284
G1 X-2.029 Y-3.386 E8.72722
G1 X-1.734 Y-3.543 E8.75450
G1 X3.549 Y1.739 E9.36347
G1 X3.681 Y1.418 E9.39176
G1 X-1.420 Y-3.683 E9.97979
G1 X-1.073 Y-3.789 E10.00935
G1 X3.789 Y1.074 E10.56993
G1 X3.871 Y0.703 E10.60090
G1 X-0.703 Y-3.871 E11.12821
G1 X-0.300 Y-3.920 E11.16135
G1 X3.922 Y0.301 E11.64798
G1 X3.918 Y-0.155 E11.68514
G1 X0.156 Y-3.917 E12.11884
G1 X0.674 Y-3.852 E12.16134
G1 X3.856 Y-0.670 E12.52817
G1 X3.679 Y-1.300 E12.58150
G1 X1.308 Y-3.671 E12.85482
G1 X2.378 Y-3.054 F1200.000
G1 X3.068 Y-2.364 E12.93438 F749.750
G1 X-2.400 Y3.034 F1200.000
G1 X-3.013 Y2.420 E13.00511 F749.750
G92 E0
G1 Z0.400 F1200.000
G1 X-3.677 Y-1.304 F1200.000
G1 X-1.304 Y-3.677 E0.27361 F749.578
G1 X-0.670 Y-3.858 E0.32734
G1 X-3.844 Y-0.683 E0.69337
G1 X-3.918 Y-0.156 E0.73674
G1 X-0.154 Y-3.921 E1.17076
G1 X0.295 Y-3.917 E1.20741
G1 X-3.915 Y0.293 E1.69285
G1 X-3.870 Y0.700 E1.72627
G1 X0.701 Y-3.870 E2.25325
G1 X1.075 Y-3.792 E2.28444
G1 X-3.790 Y1.074 E2.84544
G1 X-3.683 Y1.420 E2.87496
G1 X1.412 Y-3.675 E3.46244
G1 X1.735 Y-3.546 E3.49083
G1 X-3.545 Y1.734 E4.09956
G1 X-3.390 Y2.032 E4.12694
G1 X2.029 Y-3.387 E4.75173
G1 X2.304 Y-3.209 E4.77843
G1 X-3.208 Y2.303 E5.41397
G1 X-3.010 Y2.557 E5.44027
G1 X2.556 Y-3.009 E6.08202
G1 X2.783 Y-2.782 E6.10813
G1 X-2.783 Y2.783 E6.74988
G1 X-2.557 Y3.010 E6.77599
G1 X3.009 Y-2.556 E7.41774
G1 X3.209 Y-2.303 E7.44402
G1 X-2.307 Y3.212 E8.07997
G1 X-2.028 Y3.387 E8.10676
G1 X3.388 Y-2.029 E8.73123
G1 X3.550 Y-1.738 E8.75839
G1 X-1.733 Y3.545 E9.36753
G1 X-1.417 Y3.681 E9.39562
G1 X3.681 Y-1.417 E9.98346
G1 X3.790 Y-1.073 E10.01288
G1 X-1.072 Y3.789 E10.57346
G1 X-0.702 Y3.872 E10.60439
G1 X3.871 Y-0.701 E11.13166
G1 X3.918 Y-0.295 E11.16496
G1 X-0.298 Y3.921 E11.65117
G1 X0.159 Y3.916 E11.68850
G1 X3.922 Y0.153 E12.12240
G1 X3.855 Y0.673 E12.16513
G1 X0.674 Y3.855 E12.53200
G1 X1.313 Y3.669 E12.58625
G1 X3.670 Y1.311 E12.85805
G1 X3.061 Y2.373 F1200.000
G1 X2.388 Y3.046 E12.93572 F749.578
G1 X-3.013 Y-2.420 F1200.000
G1 X-2.400 Y-3.034 E13.00647 F749.578
G92 E0
G1 Z0.500 F1200.000
G1 X1.309 Y-3.670 F1200.000
G1 X3.666 Y-1.313 E0.27175 F749.749
G1 X3.856 Y-0.670 E0.32635
G1 X0.674 Y-3.852 E0.69319
G1 X0.155 Y-3.918 E0.73577
G1 X3.918 Y-0.155 E1.16958
G1 X3.922 Y0.301 E1.20674
G1 X-0.299 Y-3.920 E1.69333
G1 X-0.703 Y-3.871 E1.72649
G1 X3.871 Y0.703 E2.25381
G1 X3.789 Y1.074 E2.28478
G1 X-1.077 Y-3.792 E2.84578
G1 X-1.419 Y-3.681 E2.87507
G1 X3.681 Y1.418 E3.46292
G1 X3.549 Y1.739 E3.49120
G1 X-1.734 Y-3.543 E4.10018
G1 X-2.029 Y-3.386 E4.12746
G1 X3.387 Y2.030 E4.75184
G1 X3.208 Y2.304 E4.77850
G1 X-2.307 Y-3.211 E5.41426
G1 X-2.558 Y-3.009 E5.44050
G1 X3.010 Y2.558 E6.08227
G1 X2.783 Y2.784 E6.10836
G1 X-2.784 Y-2.783 E6.75012
G1 X-3.010 Y-2.557 E6.77621
G1 X2.557 Y3.010 E7.41798
G1 X2.303 Y3.210 E7.44426
G1 X-3.208 Y-2.302 E8.07963
G1 X-3.390 Y-2.031 E8.10622
G1 X2.030 Y3.389 E8.73102
G1 X1.734 Y3.546 E8.75831
G1 X-3.545 Y-1.733 E9.36688
G1 X-3.684 Y-1.419 E9.39486
G1 X1.415 Y3.680 E9.98264
G1 X1.075 Y3.792 E10.01187
G1 X-3.790 Y-1.073 E10.57269
G1 X-3.873 Y-0.703 E10.60360
G1 X0.706 Y3.876 E11.13144
G1 X0.297 Y3.920 E11.16497
G1 X-3.921 Y-0.299 E11.65126
G1 X-3.915 Y0.160 E11.68870
G1 X-0.159 Y3.916 E12.12167
G1 X-0.678 Y3.850 E12.16435
G1 X-3.854 Y0.674 E12.53042
G1 X-3.669 Y1.311 E12.58450
G1 X-1.306 Y3.675 E12.85693
G1 X-2.400 Y3.033 F1200.000
G1 X-3.047 Y2.387 E12.93142 F749.749
G1 X2.377 Y-3.054 F1200.000
G1 X3.050 Y-2.382 E13.00894 F749.749
G92 E0
G1 Z0.600 F1200.000
G1 X3.664 Y1.317 F1200.000
G1 X1.312 Y3.669 E0.27119 F749.569
G1 X0.676 Y3.852 E0.32517
G1 X3.855 Y0.673 E0.69174
G1 X3.922 Y0.153 E0.73448
G1 X0.159 Y3.916 E1.16840
G1 X-0.294 Y3.917 E1.20536
G1 X3.918 Y-0.296 E1.69107
G1 X3.871 Y-0.701 E1.72438
G1 X-0.699 Y3.869 E2.25133
G1 X-1.076 Y3.793 E2.28268
G1 X3.790 Y-1.073 E2.84369
G1 X3.681 Y-1.417 E2.87312
G1 X-1.417 Y3.682 E3.46102
G1 X-1.735 Y3.547 E3.48918
G1 X3.550 Y-1.738 E4.09857
G1 X3.388 Y-2.029 E4.12572
G1 X-2.030 Y3.388 E4.75041
G1 X-2.302 Y3.208 E4.77704
G1 X3.209 Y-2.303 E5.41247
G1 X3.009 Y-2.556 E5.43875
G1 X-2.557 Y3.010 E6.08051
G1 X-2.783 Y2.783 E6.10662
G1 X2.782 Y-2.782 E6.74838
G1 X2.556 Y-3.009 E6.77448
G1 X-3.010 Y2.557 E7.41624
G1 X-3.211 Y2.306 E7.44250
G1 X2.304 Y-3.209 E8.07844
G1 X2.030 Y-3.388 E8.10510
G1 X-3.386 Y2.028 E8.72959
G1 X-3.545 Y1.734 E8.75681
G1 X1.735 Y-3.546 E9.36562
G1 X1.416 Y-3.679 E9.39382
G1 X-3.680 Y1.416 E9.98142
G1 X-3.789 Y1.073 E10.01083
G1 X1.077 Y-3.794 E10.57194
G1 X0.701 Y-3.870 E10.60326
G1 X-3.873 Y0.704 E11.13065
G1 X-3.917 Y0.295 E11.16416
G1 X0.296 Y-3.918 E11.64998
G1 X-0.155 Y-3.920 E11.68673
G1 X-3.915 Y-0.160 E12.12028
G1 X-3.854 Y-0.674 E12.16245
G1 X-0.670 Y-3.858 E12.52956
G1 X-1.306 Y-3.675 E12.58346
G1 X-3.666 Y-1.315 E12.85558
G1 X-3.012 Y-2.422 F1200.000
G1 X-2.415 Y-3.019 E12.92444 F749.569
G1 X3.061 Y2.372 F1200.000
G1 X2.397 Y3.037 E13.00105 F749.569
G92 E0
G1 Z0.700 F1200.000
G1 X-1.306 Y3.675 F1200.000
G1 X-3.672 Y1.309 E0.27274 F749.750
G1 X-3.854 Y0.674 E0.32656
G1 X-0.670 Y3.858 E0.69358
G1 X-0.153 Y3.922 E0.73602
G1 X-3.915 Y0.160 E1.16968
G1 X-3.921 Y-0.299 E1.20708
G1 X0.294 Y3.916 E1.69299
G1 X0.700 Y3.870 E1.72635
G1 X-3.873 Y-0.703 E2.25353
G1 X-3.790 Y-1.073 E2.28445
G1 X1.075 Y3.792 E2.84528
G1 X1.416 Y3.681 E2.87455
G1 X-3.684 Y-1.419 E3.46244
G1 X-3.545 Y-1.733 E3.49041
G1 X1.733 Y3.545 E4.09881
G1 X2.032 Y3.391 E4.12623
G1 X-3.387 Y-2.028 E4.75097
G1 X-3.210 Y-2.304 E4.77767
G1 X2.303 Y3.210 E5.41324
G1 X2.557 Y3.010 E5.43952
G1 X-3.010 Y-2.557 E6.08128
G1 X-2.784 Y-2.783 E6.10737
G1 X2.783 Y2.784 E6.74913
G1 X3.010 Y2.558 E6.77523
G1 X-2.557 Y-3.009 E7.41699
G1 X-2.307 Y-3.211 E7.44323
G1 X3.208 Y2.304 E8.07899
G1 X3.387 Y2.030 E8.10564
G1 X-2.029 Y-3.386 E8.73002
G1 X-1.734 Y-3.543 E8.75730
G1 X3.549 Y1.739 E9.36628
G1 X3.681 Y1.418 E9.39456
G1 X-1.419 Y-3.682 E9.98245
G1 X-1.077 Y-3.792 E10.01177
G1 X3.789 Y1.074 E10.57273
G1 X3.871 Y0.703 E10.60370
G1 X-0.703 Y-3.871 E11.13101
G1 X-0.299 Y-3.920 E11.16420
G1 X3.922 Y0.301 E11.65075
G1 X3.918 Y-0.155 E11.68791
G1 X0.154 Y-3.919 E12.12184
G1 X0.674 Y-3.852 E12.16453
G1 X3.852 Y-0.674 E12.53093
G1 X3.675 Y-1.303 E12.58421
G1 X1.309 Y-3.670 E12.85702
G1 X2.378 Y-3.054 F1200.000
G1 X3.068 Y-2.364 E12.93658 F749.750
G1 X-2.400 Y3.034 F1200.000
G1 X-3.013 Y2.420 E13.00731 F749.750
G92 E0
G1 Z0.800 F1200.000
G1 X-3.676 Y-1.305 F1200.000
G1 X-1.306 Y-3.674 E0.27322 F749.572
G1 X-0.670 Y-3.858 E0.32718
G1 X-3.856 Y-0.672 E0.69455
G1 X-3.922 Y-0.153 E0.73718
G1 X-0.155 Y-3.920 E1.17151
G1 X0.297 Y-3.919 E1.20838
G1 X-3.915 Y0.293 E1.69404
G1 X-3.870 Y0.700 E1.72746
G1 X0.701 Y-3.870 E2.25443
G1 X1.074 Y-3.790 E2.28554
G1 X-3.792 Y1.075 E2.84655
G1 X-3.679 Y1.415 E2.87576
G1 X1.415 Y-3.679 E3.46319
G1 X1.735 Y-3.546 E3.49143
G1 X-3.545 Y1.734 E4.10024
G1 X-3.390 Y2.032 E4.12762
G1 X2.028 Y-3.387 E4.75241
G1 X2.304 Y-3.209 E4.77911
G1 X-3.206 Y2.300 E5.41439
G1 X-3.010 Y2.557 E5.44073
G1 X2.556 Y-3.009 E6.08249
G1 X2.782 Y-2.782 E6.10859
G1 X-2.783 Y2.783 E6.75035
G1 X-2.557 Y3.010 E6.77646
G1 X3.009 Y-2.556 E7.41822
G1 X3.209 Y-2.303 E7.44450
G1 X-2.302 Y3.208 E8.07992
G1 X-2.030 Y3.388 E8.10656
