; G-Code generated by Simplify3D(R) Version 4.1.2
; Jan 25, 2020 at 5:13:03 PM
; Settings Summary
;   processName,Process2
;   applyToModels,StanfordTree
;   profileName,MakerGear M2 FRESH Dual Alg
;   profileVersion,2020-01-09 11:27:36
;   baseProfile,Default
;   printMaterial,Alginate
;   printQuality,Medium
;   printExtruders,All Extruders
;   extruderName,Primary Extruder
;   extruderToolheadNumber,1
;   extruderDiameter,0.15
;   extruderAutoWidth,0
;   extruderWidth,0.15
;   extrusionMultiplier,0.55
;   extruderUseRetract,1
;   extruderRetractionDistance,0.07
;   extruderExtraRestartDistance,0
;   extruderRetractionZLift,0
;   extruderRetractionSpeed,60
;   extruderUseCoasting,0
;   extruderCoastingDistance,0.2
;   extruderUseWipe,0
;   extruderWipeDistance,5
;   primaryExtruder,0
;   layerHeight,0.05
;   topSolidLayers,2
;   bottomSolidLayers,2
;   perimeterOutlines,2
;   printPerimetersInsideOut,1
;   startPointOption,2
;   startPointOriginX,0
;   startPointOriginY,0
;   sequentialIslands,0
;   spiralVaseMode,0
;   firstLayerHeightPercentage,100
;   firstLayerWidthPercentage,100
;   firstLayerUnderspeed,1
;   useRaft,0
;   raftExtruder,0
;   raftTopLayers,3
;   raftBaseLayers,2
;   raftOffset,3
;   raftSeparationDistance,0.14
;   raftTopInfill,100
;   aboveRaftSpeedMultiplier,0.3
;   useSkirt,0
;   skirtExtruder,999
;   skirtLayers,1
;   skirtOutlines,2
;   skirtOffset,4
;   usePrimePillar,0
;   primePillarExtruder,999
;   primePillarWidth,12
;   primePillarLocation,7
;   primePillarSpeedMultiplier,1
;   useOozeShield,0
;   oozeShieldExtruder,999
;   oozeShieldOffset,2
;   oozeShieldOutlines,1
;   oozeShieldSidewallShape,1
;   oozeShieldSidewallAngle,30
;   oozeShieldSpeedMultiplier,1
;   infillExtruder,0
;   internalInfillPattern,Rectilinear
;   externalInfillPattern,Rectilinear
;   infillPercentage,20
;   outlineOverlapPercentage,15
;   infillExtrusionWidthPercentage,100
;   minInfillLength,0
;   infillLayerInterval,1
;   internalInfillAngles,45,-45
;   overlapInternalInfillAngles,0
;   externalInfillAngles,45,-45
;   generateSupport,0
;   supportExtruder,0
;   supportInfillPercentage,30
;   supportExtraInflation,0
;   supportBaseLayers,0
;   denseSupportExtruder,0
;   denseSupportLayers,0
;   denseSupportInfillPercentage,70
;   supportLayerInterval,1
;   supportHorizontalPartOffset,0.3
;   supportUpperSeparationLayers,1
;   supportLowerSeparationLayers,1
;   supportType,0
;   supportGridSpacing,4
;   maxOverhangAngle,45
;   supportAngles,0
;   temperatureName,Right Extruder,Left Extruder,Heated Bed
;   temperatureNumber,1,0,2
;   temperatureSetpointCount,1,1,1
;   temperatureSetpointLayers,1,1,1
;   temperatureSetpointTemperatures,190,0,60
;   temperatureStabilizeAtStartup,1,0,1
;   temperatureHeatedBed,0,0,1
;   fanLayers,1,2
;   fanSpeeds,0,100
;   blipFanToFullPower,0
;   adjustSpeedForCooling,0
;   minSpeedLayerTime,15
;   minCoolingSpeedSlowdown,20
;   increaseFanForCooling,0
;   minFanLayerTime,45
;   maxCoolingFanSpeed,100
;   increaseFanForBridging,0
;   bridgingFanSpeed,100
;   use5D,1
;   relativeEdistances,1
;   allowEaxisZeroing,1
;   independentExtruderAxes,0
;   includeM10123,0
;   stickySupport,0
;   applyToolheadOffsets,0
;   gcodeXoffset,0
;   gcodeYoffset,0
;   gcodeZoffset,0
;   overrideMachineDefinition,0
;   machineTypeOverride,0
;   strokeXoverride,100
;   strokeYoverride,100
;   strokeZoverride,100
;   originOffsetXoverride,0
;   originOffsetYoverride,0
;   originOffsetZoverride,0
;   homeXdirOverride,-1
;   homeYdirOverride,-1
;   homeZdirOverride,-1
;   flipXoverride,1
;   flipYoverride,-1
;   flipZoverride,1
;   toolheadOffsets,0,0|0,0|0,0|0,0|0,0|0,0
;   overrideFirmwareConfiguration,0
;   firmwareTypeOverride,RepRap (Marlin/Repetier/Sprinter)
;   GPXconfigOverride,r2
;   baudRateOverride,115200
;   overridePrinterModels,0
;   printerModelsOverride
;   startingGcode,
;   layerChangeGcode,
;   retractionGcode,
;   toolChangeGcode,M302 P1,G91  ,G1 Z15 F900,T1,G90 ,G0 X0 Y0 ,G91,G1 Z-10,G90 
;   endingGcode,
;   exportFileFormat,gcode
;   celebration,0
;   celebrationSong,Random Song
;   postProcessing,
;   defaultSpeed,900
;   outlineUnderspeed,0.8
;   solidInfillUnderspeed,1
;   supportUnderspeed,0.8
;   rapidXYspeed,1200
;   rapidZspeed,1002
;   minBridgingArea,50
;   bridgingExtraInflation,0
;   bridgingExtrusionMultiplier,1
;   bridgingSpeedMultiplier,1
;   useFixedBridgingAngle,0
;   fixedBridgingAngle,0
;   applyBridgingToPerimeters,0
;   filamentDiameters,7.285|7.285|7.28|7.28|7.28|7.28
;   filamentPricesPerKg,46|46|46|46|46|46
;   filamentDensities,1.25|1.25|1.25|1.25|1.25|1.25
;   useMinPrintHeight,0
;   minPrintHeight,0
;   useMaxPrintHeight,0
;   maxPrintHeight,0
;   useDiaphragm,0
;   diaphragmLayerInterval,20
;   robustSlicing,1
;   mergeAllIntoSolid,0
;   onlyRetractWhenCrossingOutline,1
;   retractBetweenLayers,0
;   useRetractionMinTravel,0
;   retractionMinTravel,3
;   retractWhileWiping,0
;   onlyWipeOutlines,0
;   avoidCrossingOutline,0
;   maxMovementDetourFactor,3
;   toolChangeRetractionDistance,0.1
;   toolChangeExtraRestartDistance,0
;   toolChangeRetractionSpeed,60
;   externalThinWallType,0
;   internalThinWallType,0
;   thinWallAllowedOverlapPercentage,10
;   singleExtrusionMinLength,0
;   singleExtrusionMinPrintingWidthPercentage,50
;   singleExtrusionMaxPrintingWidthPercentage,200
;   singleExtrusionEndpointExtension,0.2
;   horizontalSizeCompensation,0
G90
M83
M106 S0
M140 S60
M190 S60
M104 S0 T0
M104 S190 T1
M109 S190 T1
; process Process2
; layer 1, Z = 0.050
M302 P1
G91  
G1 Z15 F900
T1
G90 
G0 X0 Y0 
G91
G1 Z-10
G90 
T1
G1 X0.000 Y0.000 Z0.000 E-0.0700 F60
; feature inner perimeter
; tool H0.050 W0.150
G1 X0.000 Y0.000 Z0.050 F1002
G1 X0.033 Y-0.114 Z0.050 F1200
G1 X0.033 Y-0.114 Z0.050 E0.0700 F60
G1 X0.165 Y-0.005 Z0.050 E0.0000 F810
G1 X0.335 Y0.032 Z0.050 E0.0000 F810
G1 X0.479 Y-0.006 Z0.050 E0.0000 F810
G1 X0.657 Y-0.108 Z0.050 E0.0000 F810
G1 X0.799 Y-0.139 Z0.050 E0.0000 F810
G1 X0.567 Y-0.041 Z0.050 E0.0000 F810
G1 X0.426 Y0.053 Z0.050 E0.0000 F810
G1 X0.303 Y0.167 Z0.050 E0.0000 F810
G1 X0.201 Y0.299 Z0.050 E0.0000 F810
G1 X0.121 Y0.445 Z0.050 E0.0000 F810
G1 X0.049 Y0.646 Z0.050 E0.0000 F810
G1 X0.085 Y0.807 Z0.050 E0.0000 F810
G1 X0.208 Y0.982 Z0.050 E0.0000 F810
G1 X0.399 Y1.072 Z0.050 E0.0000 F810
G1 X0.542 Y1.080 Z0.050 E0.0000 F810
G1 X1.356 Y0.788 Z0.050 E0.0001 F810
G1 X1.519 Y0.743 Z0.050 E0.0000 F810
G1 X1.480 Y0.849 Z0.050 E0.0000 F810
G1 X1.422 Y0.963 Z0.050 E0.0000 F810
G1 X1.349 Y1.068 Z0.050 E0.0000 F810
G1 X1.263 Y1.163 Z0.050 E0.0000 F810
G1 X1.166 Y1.246 Z0.050 E0.0000 F810
G1 X1.056 Y1.317 Z0.050 E0.0000 F810
G1 X0.753 Y1.471 Z0.050 E0.0000 F810
G1 X0.443 Y1.712 Z0.050 E0.0000 F810
G1 X0.191 Y2.018 Z0.050 E0.0000 F810
G1 X0.002 Y2.395 Z0.050 E0.0000 F810
G1 X-0.002 Y2.583 Z0.050 E0.0000 F810
G1 X0.146 Y2.793 Z0.050 E0.0000 F810
G1 X0.396 Y2.842 Z0.050 E0.0000 F810
G1 X0.628 Y2.738 Z0.050 E0.0000 F810
G1 X0.974 Y2.639 Z0.050 E0.0000 F810
G1 X1.240 Y2.616 Z0.050 E0.0000 F810
G1 X1.086 Y2.760 Z0.050 E0.0000 F810
G1 X0.919 Y2.889 Z0.050 E0.0000 F810
G1 X0.741 Y3.003 Z0.050 E0.0000 F810
G1 X0.554 Y3.101 Z0.050 E0.0000 F810
G1 X0.360 Y3.182 Z0.050 E0.0000 F810
G1 X0.124 Y3.255 Z0.050 E0.0000 F810
G1 X0.028 Y3.312 Z0.050 E0.0000 F810
G1 X-0.074 Y3.445 Z0.050 E0.0000 F810
G1 X-0.107 Y3.572 Z0.050 E0.0000 F810
G1 X-0.085 Y3.738 Z0.050 E0.0000 F810
G1 X-0.021 Y3.850 Z0.050 E0.0000 F810
G1 X0.126 Y3.963 Z0.050 E0.0000 F810
G1 X0.256 Y3.980 Z0.050 E0.0000 F810
G1 X0.092 Y4.034 Z0.050 E0.0000 F810
G1 X-0.087 Y4.219 Z0.050 E0.0000 F810
G1 X-0.154 Y4.450 Z0.050 E0.0000 F810
G1 X-0.141 Y4.606 Z0.050 E0.0000 F810
G1 X-0.032 Y4.833 Z0.050 E0.0000 F810
G1 X-0.101 Y4.860 Z0.050 E0.0000 F810
G1 X-0.237 Y5.000 Z0.050 E0.0000 F810
G1 X-0.267 Y5.172 Z0.050 E0.0000 F810
G1 X-0.218 Y5.327 Z0.050 E0.0000 F810
G1 X-0.137 Y5.407 Z0.050 E0.0000 F810
G1 X-0.305 Y5.522 Z0.050 E0.0000 F810
G1 X-0.396 Y5.620 Z0.050 E0.0000 F810
G1 X-0.492 Y5.782 Z0.050 E0.0000 F810
G1 X-0.513 Y5.906 Z0.050 E0.0000 F810
G1 X-0.471 Y6.102 Z0.050 E0.0000 F810
G1 X-0.450 Y6.119 Z0.050 E0.0000 F810
G1 X-0.484 Y6.155 Z0.050 E0.0000 F810
G1 X-0.490 Y6.116 Z0.050 E0.0000 F810
G1 X-0.738 Y5.876 Z0.050 E0.0000 F810
G1 X-0.610 Y5.746 Z0.050 E0.0000 F810
G1 X-0.597 Y5.478 Z0.050 E0.0000 F810
G1 X-0.752 Y5.289 Z0.050 E0.0000 F810
G1 X-1.027 Y5.196 Z0.050 E0.0000 F810
G1 X-1.079 Y5.166 Z0.050 E0.0000 F810
G1 X-1.028 Y5.136 Z0.050 E0.0000 F810
G1 X-0.948 Y5.038 Z0.050 E0.0000 F810
G1 X-0.886 Y4.854 Z0.050 E0.0000 F810
G1 X-0.954 Y4.585 Z0.050 E0.0000 F810
G1 X-1.070 Y4.469 Z0.050 E0.0000 F810
G1 X-0.927 Y4.403 Z0.050 E0.0000 F810
G1 X-0.803 Y4.236 Z0.050 E0.0000 F810
G1 X-0.768 Y4.099 Z0.050 E0.0000 F810
G1 X-0.795 Y3.878 Z0.050 E0.0000 F810
G1 X-0.989 Y3.673 Z0.050 E0.0000 F810
G1 X-1.095 Y3.603 Z0.050 E0.0000 F810
G1 X-1.744 Y3.249 Z0.050 E0.0001 F810
G1 X-2.038 Y3.056 Z0.050 E0.0000 F810
G1 X-2.179 Y2.942 Z0.050 E0.0000 F810
G1 X-2.084 Y2.951 Z0.050 E0.0000 F810
G1 X-1.880 Y2.991 Z0.050 E0.0000 F810
G1 X-1.825 Y3.011 Z0.050 E0.0000 F810
G1 X-1.544 Y3.216 Z0.050 E0.0000 F810
G1 X-1.301 Y3.193 Z0.050 E0.0000 F810
G1 X-1.139 Y3.028 Z0.050 E0.0000 F810
G1 X-1.096 Y2.767 Z0.050 E0.0000 F810
G1 X-1.134 Y2.533 Z0.050 E0.0000 F810
G1 X-1.327 Y2.207 Z0.050 E0.0000 F810
G1 X-1.458 Y2.057 Z0.050 E0.0000 F810
G1 X-1.741 Y1.835 Z0.050 E0.0000 F810
G1 X-2.155 Y1.633 Z0.050 E0.0000 F810
G1 X-2.352 Y1.468 Z0.050 E0.0000 F810
G1 X-2.421 Y1.382 Z0.050 E0.0000 F810
G1 X-2.544 Y1.150 Z0.050 E0.0000 F810
G1 X-2.561 Y1.091 Z0.050 E0.0000 F810
G1 X-2.266 Y1.170 Z0.050 E0.0000 F810
G1 X-2.016 Y1.162 Z0.050 E0.0000 F810
G1 X-1.918 Y1.179 Z0.050 E0.0000 F810
G1 X-1.820 Y1.211 Z0.050 E0.0000 F810
G1 X-1.728 Y1.257 Z0.050 E0.0000 F810
G1 X-1.570 Y1.369 Z0.050 E0.0000 F810
G1 X-1.333 Y1.368 Z0.050 E0.0000 F810
G1 X-1.164 Y1.246 Z0.050 E0.0000 F810
G1 X-1.090 Y1.027 Z0.050 E0.0000 F810
G1 X-1.149 Y0.795 Z0.050 E0.0000 F810
G1 X-1.293 Y0.543 Z0.050 E0.0000 F810
G1 X-1.327 Y0.514 Z0.050 E0.0000 F810
G1 X-1.207 Y0.487 Z0.050 E0.0000 F810
G1 X-1.062 Y0.356 Z0.050 E0.0000 F810
G1 X-1.015 Y0.171 Z0.050 E0.0000 F810
G1 X-1.010 Y0.024 Z0.050 E0.0000 F810
G1 X-1.035 Y-0.121 Z0.050 E0.0000 F810
G1 X-1.088 Y-0.255 Z0.050 E0.0000 F810
G1 X-1.176 Y-0.387 Z0.050 E0.0000 F810
G1 X-1.595 Y-0.715 Z0.050 E0.0001 F810
G1 X-2.140 Y-1.014 Z0.050 E0.0001 F810
G1 X-1.860 Y-1.069 Z0.050 E0.0000 F810
G1 X-1.839 Y-1.068 Z0.050 E0.0000 F810
G1 X-1.794 Y-1.034 Z0.050 E0.0000 F810
G1 X-1.610 Y-1.037 Z0.050 E0.0000 F810
G1 X-1.455 Y-1.156 Z0.050 E0.0000 F810
G1 X-1.417 Y-1.288 Z0.050 E0.0000 F810
G1 X-1.420 Y-1.713 Z0.050 E0.0000 F810
G1 X-1.499 Y-1.861 Z0.050 E0.0000 F810
G1 X-1.591 Y-1.964 Z0.050 E0.0000 F810
G1 X-1.702 Y-2.041 Z0.050 E0.0000 F810
G1 X-1.999 Y-2.168 Z0.050 E0.0000 F810
G1 X-1.958 Y-2.159 Z0.050 E0.0000 F810
G1 X-1.733 Y-2.194 Z0.050 E0.0000 F810
G1 X-1.548 Y-2.330 Z0.050 E0.0000 F810
G1 X-1.468 Y-2.458 Z0.050 E0.0000 F810
G1 X-1.415 Y-2.714 Z0.050 E0.0000 F810
G1 X-1.601 Y-3.012 Z0.050 E0.0000 F810
G1 X-1.827 Y-3.204 Z0.050 E0.0000 F810
G1 X-2.084 Y-3.311 Z0.050 E0.0000 F810
G1 X-2.348 Y-3.376 Z0.050 E0.0000 F810
G1 X-2.242 Y-3.525 Z0.050 E0.0000 F810
G1 X-2.208 Y-3.673 Z0.050 E0.0000 F810
G1 X-2.241 Y-3.896 Z0.050 E0.0000 F810
G1 X-2.389 Y-4.088 Z0.050 E0.0000 F810
G1 X-2.720 Y-4.231 Z0.050 E0.0000 F810
G1 X-2.790 Y-4.279 Z0.050 E0.0000 F810
G1 X-2.931 Y-4.431 Z0.050 E0.0000 F810
G1 X-3.045 Y-4.645 Z0.050 E0.0000 F810
G1 X-3.081 Y-4.736 Z0.050 E0.0000 F810
G1 X-3.068 Y-4.727 Z0.050 E0.0000 F810
G1 X-2.875 Y-4.602 Z0.050 E0.0000 F810
G1 X-2.476 Y-4.415 Z0.050 E0.0000 F810
G1 X-2.220 Y-4.334 Z0.050 E0.0000 F810
G1 X-2.038 Y-4.355 Z0.050 E0.0000 F810
G1 X-1.919 Y-4.352 Z0.050 E0.0000 F810
G1 X-1.802 Y-4.333 Z0.050 E0.0000 F810
G1 X-1.688 Y-4.298 Z0.050 E0.0000 F810
G1 X-1.581 Y-4.247 Z0.050 E0.0000 F810
G1 X-1.481 Y-4.182 Z0.050 E0.0000 F810
G1 X-1.392 Y-4.104 Z0.050 E0.0000 F810
G1 X-1.281 Y-3.976 Z0.050 E0.0000 F810
G1 X-1.151 Y-3.896 Z0.050 E0.0000 F810
G1 X-0.940 Y-3.904 Z0.050 E0.0000 F810
G1 X-0.801 Y-4.003 Z0.050 E0.0000 F810
G1 X-0.727 Y-4.144 Z0.050 E0.0000 F810
G1 X-0.727 Y-6.402 Z0.050 E0.0002 F810
G1 X-0.771 Y-6.702 Z0.050 E0.0000 F810
G1 X-0.888 Y-6.986 Z0.050 E0.0000 F810
G1 X-0.977 Y-7.124 Z0.050 E0.0000 F810
G1 X-1.085 Y-7.252 Z0.050 E0.0000 F810
G1 X-1.365 Y-7.470 Z0.050 E0.0000 F810
G1 X-1.461 Y-7.571 Z0.050 E0.0000 F810
G1 X-1.642 Y-7.832 Z0.050 E0.0000 F810
G1 X-1.755 Y-8.050 Z0.050 E0.0000 F810
G1 X0.658 Y-8.066 Z0.050 E0.0002 F810
G1 X0.650 Y-8.056 Z0.050 E0.0000 F810
G1 X0.557 Y-7.981 Z0.050 E0.0000 F810
G1 X0.321 Y-7.838 Z0.050 E0.0000 F810
G1 X0.139 Y-7.760 Z0.050 E0.0000 F810
G1 X-0.101 Y-7.443 Z0.050 E0.0000 F810
G1 X-0.192 Y-7.264 Z0.050 E0.0000 F810
G1 X-0.294 Y-6.920 Z0.050 E0.0000 F810
G1 X-0.314 Y-6.733 Z0.050 E0.0000 F810
G1 X-0.351 Y-5.541 Z0.050 E0.0001 F810
G1 X-0.345 Y-4.923 Z0.050 E0.0001 F810
G1 X-0.308 Y-4.760 Z0.050 E0.0000 F810
G1 X-0.178 Y-4.605 Z0.050 E0.0000 F810
G1 X-0.007 Y-4.535 Z0.050 E0.0000 F810
G1 X0.120 Y-4.531 Z0.050 E0.0000 F810
G1 X0.297 Y-4.591 Z0.050 E0.0000 F810
G1 X0.378 Y-4.677 Z0.050 E0.0000 F810
G1 X0.428 Y-4.709 Z0.050 E0.0000 F810
G1 X0.583 Y-4.763 Z0.050 E0.0000 F810
G1 X0.755 Y-4.766 Z0.050 E0.0000 F810
G1 X1.003 Y-4.730 Z0.050 E0.0000 F810
G1 X1.305 Y-4.778 Z0.050 E0.0000 F810
G1 X1.459 Y-4.843 Z0.050 E0.0000 F810
G1 X2.095 Y-5.241 Z0.050 E0.0001 F810
G1 X2.082 Y-5.170 Z0.050 E0.0000 F810
G1 X2.033 Y-5.039 Z0.050 E0.0000 F810
G1 X1.966 Y-4.910 Z0.050 E0.0000 F810
G1 X1.821 Y-4.698 Z0.050 E0.0000 F810
G1 X1.771 Y-4.646 Z0.050 E0.0000 F810
G1 X1.621 Y-4.546 Z0.050 E0.0000 F810
G1 X1.484 Y-4.493 Z0.050 E0.0000 F810
G1 X1.326 Y-4.309 Z0.050 E0.0000 F810
G1 X1.273 Y-4.091 Z0.050 E0.0000 F810
G1 X1.289 Y-3.958 Z0.050 E0.0000 F810
G1 X1.340 Y-3.821 Z0.050 E0.0000 F810
G1 X1.411 Y-3.755 Z0.050 E0.0000 F810
G1 X0.890 Y-3.641 Z0.050 E0.0001 F810
G1 X0.733 Y-3.532 Z0.050 E0.0000 F810
G1 X0.527 Y-3.314 Z0.050 E0.0000 F810
G1 X0.363 Y-2.997 Z0.050 E0.0000 F810
G1 X0.399 Y-2.818 Z0.050 E0.0000 F810
G1 X0.509 Y-2.648 Z0.050 E0.0000 F810
G1 X0.629 Y-2.563 Z0.050 E0.0000 F810
G1 X0.825 Y-2.513 Z0.050 E0.0000 F810
G1 X0.954 Y-2.530 Z0.050 E0.0000 F810
G1 X1.107 Y-2.590 Z0.050 E0.0000 F810
G1 X1.036 Y-2.555 Z0.050 E0.0000 F810
G1 X0.715 Y-2.428 Z0.050 E0.0000 F810
G1 X0.517 Y-2.267 Z0.050 E0.0000 F810
G1 X0.428 Y-2.131 Z0.050 E0.0000 F810
G1 X0.357 Y-1.875 Z0.050 E0.0000 F810
G1 X0.398 Y-1.585 Z0.050 E0.0000 F810
G1 X0.504 Y-1.453 Z0.050 E0.0000 F810
G1 X0.658 Y-1.389 Z0.050 E0.0000 F810
G1 X0.840 Y-1.409 Z0.050 E0.0000 F810
G1 X1.037 Y-1.592 Z0.050 E0.0000 F810
G1 X1.134 Y-1.636 Z0.050 E0.0000 F810
G1 X1.393 Y-1.655 Z0.050 E0.0000 F810
G1 X1.247 Y-1.476 Z0.050 E0.0000 F810
G1 X1.056 Y-1.330 Z0.050 E0.0000 F810
G1 X0.799 Y-1.216 Z0.050 E0.0000 F810
G1 X0.491 Y-1.035 Z0.050 E0.0000 F810
G1 X0.219 Y-0.789 Z0.050 E0.0000 F810
G1 X-0.025 Y-0.459 Z0.050 E0.0000 F810
G1 X-0.037 Y-0.274 Z0.050 E0.0000 F810
G1 X0.033 Y-0.114 Z0.050 E0.0000 F810
; feature outer perimeter
G1 X0.156 Y-0.207 Z0.050 F1200
G1 X0.233 Y-0.144 Z0.050 E0.0000 F720
G1 X0.332 Y-0.122 Z0.050 E0.0000 F720
G1 X0.422 Y-0.146 Z0.050 E0.0000 F720
G1 X0.603 Y-0.250 Z0.050 E0.0000 F720
G1 X0.788 Y-0.290 Z0.050 E0.0000 F720
G1 X0.878 Y-0.289 Z0.050 E0.0000 F720
G1 X1.165 Y-0.234 Z0.050 E0.0000 F720
G1 X1.232 Y-0.244 Z0.050 E0.0000 F720
G1 X1.129 Y-0.153 Z0.050 E0.0000 F720
G1 X0.893 Y-0.016 Z0.050 E0.0000 F720
G1 X0.639 Y0.091 Z0.050 E0.0000 F720
G1 X0.519 Y0.171 Z0.050 E0.0000 F720
G1 X0.414 Y0.269 Z0.050 E0.0000 F720
G1 X0.327 Y0.381 Z0.050 E0.0000 F720
G1 X0.258 Y0.507 Z0.050 E0.0000 F720
G1 X0.205 Y0.656 Z0.050 E0.0000 F720
G1 X0.225 Y0.745 Z0.050 E0.0000 F720
G1 X0.308 Y0.863 Z0.050 E0.0000 F720
G1 X0.436 Y0.924 Z0.050 E0.0000 F720
G1 X0.520 Y0.928 Z0.050 E0.0000 F720
G1 X1.310 Y0.645 Z0.050 E0.0001 F720
G1 X1.499 Y0.592 Z0.050 E0.0000 F720
G1 X1.676 Y0.491 Z0.050 E0.0000 F720
G1 X1.688 Y0.492 Z0.050 E0.0000 F720
G1 X1.709 Y0.511 Z0.050 E0.0000 F720
G1 X1.699 Y0.626 Z0.050 E0.0000 F720
