; generated by Slic3r 1.2.9 on 2019-12-04 at 14:38:34

; external perimeters extrusion width = 0.30mm
; perimeters extrusion width = 0.51mm
; infill extrusion width = 0.73mm
; solid infill extrusion width = 0.51mm
; top infill extrusion width = 0.51mm

M104 S200 ; set temperature
G28 ; home all axes
M109 S200 ; wait for temperature to be reached
G21 ; set units to millimeters
G90 ; use absolute coordinates
M82 ; use absolute distances for extrusion
G92 E0
G1 Z0.100 F1200.000
G1 X-1.738 Y0.185 F1200.000
G1 X-3.789 Y-1.865 E0.00322 F1200.000
G1 X-4.318 Y-1.336 E0.00405
G1 X-2.232 Y0.750 E0.00733
G1 X-2.443 Y1.599 F1200.000
G1 X-4.848 Y-0.806 E0.01111 F1200.000
G1 X-5.378 Y-0.276 E0.01194
G1 X-2.277 Y2.825 E0.01682
G1 X-1.895 Y4.266 F1200.000
G1 X-5.534 Y0.628 E0.02253 F1200.000
G1 X-5.534 Y1.687 E0.02371
G1 X-0.521 Y6.700 E0.03159
G1 X-1.077 Y6.143 E0.03246
G1 X-4.791 Y6.668 F1200.000
G1 X-5.534 Y5.925 E0.03363 F1200.000
G1 X-5.534 Y4.866 E0.03480
G1 X-1.970 Y8.430 E0.04040
G1 X-0.910 Y8.430 E0.04158
G1 X-5.534 Y3.806 E0.04885
G1 X-5.534 Y2.747 E0.05002
G1 X0.149 Y8.430 E0.05895
G1 X1.209 Y8.430 E0.06013
G1 X0.155 Y7.376 E0.06179
G1 X0.788 Y6.949 E0.06263
G1 X2.268 Y8.430 E0.06496
G1 X3.285 Y8.387 E0.06609
G1 X0.729 Y5.830 E0.07011
G1 X1.063 Y5.105 E0.07099
G1 X3.827 Y7.869 E0.07534
G1 X4.369 Y7.351 E0.07617
G1 X1.545 Y4.528 E0.08061
G1 X1.559 Y3.482 E0.08177
G1 X4.909 Y6.832 E0.08703
G1 X5.439 Y6.303 E0.08787
G1 X2.122 Y2.986 E0.09308
G1 X3.056 Y2.860 E0.09413
G1 X5.515 Y5.319 E0.09799
G1 X5.515 Y4.260 E0.09917
G1 X4.116 Y2.860 E0.10137
G1 X5.175 Y2.860 E0.10254
G1 X5.515 Y3.200 E0.10308
G92 E0
G1 X3.401 Y3.677 F1200.000
G1 X3.401 Y3.677 F1200.000
G1 X2.527 Y1.824 F1200.000
G1 X2.175 Y1.471 E0.00055 F1200.000
G1 X1.905 Y0.125 F1200.000
G1 X3.586 Y1.807 E0.00320 F1200.000
G1 X4.124 Y1.269 E0.00404
G1 X1.934 Y-0.921 E0.00748
G1 X2.376 Y-1.555 E0.00834
G1 X4.662 Y0.731 E0.01193
G1 X5.199 Y0.193 E0.01278
G1 X2.419 Y-2.587 E0.01715
G1 X2.358 Y-3.724 E0.01841
G1 X5.544 Y-0.538 E0.02342
G1 X5.544 Y-1.614 E0.02461
G1 X2.736 Y-4.422 E0.02902
G1 X3.040 Y-5.193 E0.02995
G1 X5.544 Y-2.690 E0.03388
G1 X5.544 Y-3.765 E0.03507
G1 X1.568 Y-7.741 E0.04132
G1 X0.970 Y-7.263 E0.04217
G1 X2.756 Y-5.477 E0.04498
G1 X2.095 Y-5.063 F1200.000
G1 X0.604 Y-6.553 E0.04732 F1200.000
G1 X0.572 Y-5.510 E0.04848
G1 X1.179 Y-4.903 E0.04943
G92 E0
G1 X-1.426 Y-5.326 F1200.000
G1 X-1.499 Y-5.401 F1200.000
G1 X-1.542 Y-5.445 F1200.000
G1 X-1.569 Y-5.329 F1200.000
G1 X-1.977 Y-4.714 F1200.000
G1 X-4.514 Y-7.250 E0.00399 F1200.000
G1 X-3.906 Y-7.831 E0.00492
G1 X-0.600 Y-4.525 E0.01011
G1 X-0.601 Y-5.713 E0.01143
G1 X-3.298 Y-8.411 E0.01567
G1 X-2.141 Y-8.441 E0.01696
G1 X-1.782 Y-8.082 E0.01752
G1 X-3.025 Y-4.573 F1200.000
G1 X-5.117 Y-6.665 E0.02081 F1200.000
G1 X-5.546 Y-5.907 E0.02178
G1 X-2.808 Y-3.168 E0.02608
G1 X-3.996 Y-3.168 E0.02740
G1 X-5.546 Y-4.719 E0.02984
G1 X-5.546 Y-3.531 E0.03116
G1 X-5.183 Y-3.168 E0.03173
G92 E0
G1 X-3.685 Y-3.996 F1200.000
G1 X-3.685 Y-3.996 F1200.000
G1 X-2.950 Y-2.086 F1200.000
G1 X-2.093 Y-1.229 E0.00135 F1200.000
G92 E0
G1 X-1.426 Y-5.326 F1200.000
G1 X1.446 Y-6.494 F1200.000
G1 X1.946 Y-8.439 F1200.000
G1 X5.544 Y-4.841 E0.00565 F1200.000
G1 X5.544 Y-5.916 F1200.000
G1 X4.478 Y-6.982 E0.00733 F1200.000
G92 E0
G1 Z0.200 F1200.000
G1 X5.598 Y-5.983 F1200.000
G1 X2.516 Y-2.902 E0.03060 F483.591
G1 X1.689 Y-2.777 F1200.000
G1 X5.368 Y-6.455 E0.06712 F483.591
G1 X5.017 Y-6.806 E0.07061
G1 X2.943 Y-4.732 E0.09120
G1 X2.903 Y-5.394 E0.09586
G1 X4.662 Y-7.153 E0.11333
G1 X4.305 Y-7.498 E0.11681
G1 X1.735 Y-4.928 E0.14233
G1 X0.961 Y-4.855 E0.14779
G1 X3.947 Y-7.842 E0.17744
G1 X3.589 Y-8.186 E0.18092
G1 X0.524 Y-5.121 E0.21136
G1 X0.529 Y-5.827 E0.21632
G1 X3.194 Y-8.492 E0.24278
G1 X2.492 Y-8.492 E0.24771
G1 X0.596 Y-6.596 E0.26654
G1 X-0.551 Y-6.152 F1200.000
G1 X-2.124 Y-4.578 E0.28216 F483.591
G1 X-2.543 Y-4.861 E0.28571
G1 X-0.707 Y-6.697 E0.30394
G1 X-1.080 Y-7.026 E0.30743
G1 X-4.989 Y-3.117 E0.34624
G1 X-5.598 Y-3.210 E0.35057
G1 X-1.386 Y-7.422 E0.39239
G1 X-1.671 Y-7.839 E0.39593
G1 X-5.598 Y-3.912 E0.43492
G1 X-5.598 Y-4.614 E0.43985
G1 X-1.719 Y-8.492 E0.47836
G1 X-1.363 Y-8.147 E0.48184
G1 X-1.017 Y-8.492 E0.48527
G1 X-0.652 Y-8.156 E0.48876
G1 X-0.315 Y-8.492 E0.49211
G1 X0.054 Y-8.160 E0.49559
G1 X0.386 Y-8.492 E0.49889
G1 X0.759 Y-8.163 E0.50239
G1 X1.088 Y-8.492 E0.50566
G1 X1.461 Y-8.163 E0.50915
G1 X1.790 Y-8.492 E0.51242
G92 E0
G1 X1.455 Y-6.520 F1200.000
G1 X1.666 Y-6.370 F1200.000
G1 X1.614 Y-6.034 F1200.000
G1 X1.499 Y-5.842 F1200.000
G1 X1.405 Y-5.845 F1200.000
G1 X-0.546 Y-5.454 F1200.000
G1 X-1.554 Y-4.447 E0.01000 F483.591
G1 X-0.991 Y-4.307 E0.01407
G1 X-0.549 Y-4.750 E0.01846
G92 E0
G1 X-1.426 Y-5.326 F1200.000
G1 X-1.499 Y-5.401 F1200.000
G1 X-1.542 Y-5.445 F1200.000
G1 X-1.569 Y-5.329 F1200.000
G1 X-2.313 Y-3.687 F1200.000
G1 X-2.884 Y-3.117 E0.00566 F483.591
G1 X-3.585 Y-3.117 E0.01059
G1 X-2.677 Y-4.025 E0.01961
G1 X-2.900 Y-4.504 E0.02332
G1 X-4.287 Y-3.117 E0.03709
G1 X-5.598 Y-5.316 F1200.000
G1 X-2.421 Y-8.492 E0.06863 F483.591
G1 X-4.757 Y-6.858 F1200.000
G1 X-5.598 Y-6.018 E0.07697 F483.591
G92 E0
G1 X-4.718 Y-3.996 F1200.000
G1 X-4.190 Y-5.632 F1200.000
G1 X-2.338 Y-6.366 F1200.000
G1 X-1.764 Y-5.865 F1200.000
G1 X-1.599 Y-5.532 F1200.000
G1 X-1.499 Y-5.401 F1200.000
G1 X-1.426 Y-5.326 F1200.000
G1 X2.192 Y-1.876 F1200.000
G1 X5.598 Y-5.281 E0.03381 F483.591
G1 X5.598 Y-4.579 E0.03874
G1 X2.313 Y-1.295 E0.07135
G1 X1.253 Y-0.234 F1200.000
G1 X1.718 Y-0.700 E0.07598 F483.591
G1 X1.922 Y-0.202 E0.07975
G1 X5.598 Y-3.878 E0.11624
G1 X5.598 Y-3.176 E0.12117
G1 X1.728 Y0.694 E0.15960
G1 X2.399 Y0.725 F1200.000
G1 X5.598 Y-2.474 E0.19136 F483.591
G1 X5.598 Y-1.772 E0.19629
G1 X2.086 Y1.740 E0.23115
G1 X2.650 Y1.877 E0.23523
G1 X5.598 Y-1.070 E0.26450
G1 X5.598 Y-0.368 E0.26943
G1 X3.352 Y1.877 E0.29172
G1 X3.301 Y0.850 F1200.000
G1 X3.301 Y0.850 F1200.000
G1 X1.647 Y0.549 F1200.000
G1 X1.392 Y0.804 E0.29422 F491.260
G92 E0
G1 X2.797 Y-0.538 F1200.000
G1 X2.797 Y-0.538 F1200.000
G1 X-1.238 Y0.861 F1200.000
G1 X-1.463 Y1.085 E0.00220 F491.260
G92 E0
G1 X-2.963 Y-0.420 F1200.000
G1 X-3.398 Y-0.947 F1200.000
G1 X-3.145 Y-1.269 F1200.000
G1 X-3.144 Y-1.269 F1200.000
G1 X-1.522 Y-2.264 F1200.000
G1 X-1.282 Y-2.504 E0.00291 F395.741
G1 X-1.850 Y-2.793 E0.00838
G1 X-2.107 Y-2.536 E0.01149
G1 X-2.107 Y-2.536 F1200.000
G1 X-1.850 Y-2.793 E0.01460 F395.757
G1 X-1.282 Y-2.504 E0.02007
G1 X-1.522 Y-2.264 E0.02298
G92 E0
G1 X3.244 Y-2.285 F1200.000
G1 X3.244 Y-2.285 F1200.000
G1 X1.724 Y-2.786 F1200.000
G1 X1.974 Y-3.036 E0.00245 F491.260
G92 E0
G1 X1.477 Y-5.720 F1200.000
G1 X1.769 Y-6.301 F1200.000
G1 X1.568 Y-6.433 F1200.000
G1 X1.510 Y-6.474 F1200.000
G1 X1.455 Y-6.520 F1200.000
G1 X1.206 Y-8.163 F1200.000
G1 X1.449 Y-8.406 E0.00311 F375.484
G1 X0.631 Y-8.492 E0.01055
G1 X0.300 Y-8.162 E0.01478
G1 X-0.273 Y-8.492 E0.02076
G1 X-0.609 Y-8.156 E0.02506
G1 X-1.177 Y-8.492 E0.03103
G1 X-1.434 Y-8.235 E0.03432
G92 E0
G1 X-1.426 Y-5.401 F1200.000
G1 X-2.756 Y-6.639 F1200.000
G1 X-4.190 Y-5.632 F1200.000
G1 X-4.277 Y-4.510 F1200.000
G1 X-3.975 Y-4.204 F1200.000
G1 X-3.952 Y-4.186 F1200.000
G1 X-3.685 Y-3.996 F1200.000
G1 X-3.268 Y-2.086 F1200.000
G1 X-5.534 Y0.179 E0.03204 F339.531
G1 X-2.446 Y1.291 F1200.000
G1 X-5.534 Y4.378 E0.07570 F339.531
G1 X-5.534 Y3.329 E0.08620
G1 X-1.765 Y-0.440 E0.13949
G1 X-2.282 Y-0.973 E0.14692
G1 X-5.534 Y2.279 E0.19290
G1 X-5.534 Y1.229 E0.20340
G1 X-2.303 Y-2.002 E0.24909
G1 X-1.653 Y-1.602 E0.25672
G1 X-2.072 Y-1.182 E0.26265
G1 X-3.314 Y1.151 F1200.000
G1 X-3.911 Y2.156 F1200.000
G1 X-3.120 Y2.247 F1200.000
G1 X-3.019 Y2.248 F1200.000
G1 X-3.002 Y2.249 F1200.000
G1 X-2.959 Y2.254 F1200.000
G1 X-1.842 Y2.786 F1200.000
G1 X-1.435 Y2.379 E0.26840 F339.531
G1 X-2.072 Y1.966 E0.27599
G1 X-5.534 Y5.428 E0.32495
G1 X-5.407 Y6.352 E0.33427
G1 X-2.243 Y3.187 E0.37902
G1 X-1.648 Y3.642 E0.38651
G1 X-4.876 Y6.869 E0.43216
G1 X-4.333 Y7.377 E0.43959
G1 X-1.491 Y4.535 E0.47977
G1 X-1.195 Y5.288 E0.48787
G1 X-3.791 Y7.884 E0.52458
G1 X-3.248 Y8.391 E0.53200
G1 X-0.914 Y6.057 E0.56502
G1 X-0.521 Y6.714 E0.57267
G1 X-2.237 Y8.430 E0.59694
G1 X-1.187 Y8.430 E0.60744
G1 X-0.189 Y7.432 E0.62155
G1 X-0.137 Y8.430 E0.63154
G1 X5.432 Y2.860 E0.71030
G1 X5.515 Y3.827 E0.72000
G1 X0.913 Y8.430 E0.78509
G1 X1.962 Y8.430 E0.79559
G1 X5.515 Y4.876 E0.84584
G1 X5.515 Y5.926 E0.85633
G1 X4.565 Y6.877 E0.86978
G1 X1.635 Y4.558 F1200.000
G1 X3.333 Y2.860 E0.89378 F339.531
G1 X4.382 Y2.860 E0.90428
G1 X0.735 Y6.508 E0.95586
G92 E0
G1 Z0.300 F1200.000
G1 X-1.238 Y1.068 F1200.000
G1 X-1.483 Y0.824 E0.00239 F491.260
G92 E0
G1 X-2.963 Y-0.420 F1200.000
G1 X-2.963 Y-0.420 F1200.000
G1 X1.346 Y0.439 F1200.000
G1 X1.625 Y0.718 E0.00272 F491.260
G92 E0
G1 X2.797 Y-0.538 F1200.000
G1 X3.660 Y-0.526 F1200.000
G1 X3.739 Y-0.633 F1200.000
G1 X3.911 Y-0.884 F1200.000
G1 X3.177 Y-1.202 F1200.000
G1 X1.964 Y-2.848 F1200.000
G1 X1.698 Y-3.114 E0.00260 F491.260
G92 E0
G1 X3.244 Y-2.285 F1200.000
G1 X3.244 Y-2.285 F1200.000
G1 X-1.282 Y-2.297 F1200.000
G1 X-1.661 Y-2.675 E0.00370 F491.260
G1 X-1.661 Y-2.676 F1200.000
G1 X-1.282 Y-2.296 E0.00741 F490.148
G92 E0
G1 X-1.569 Y-5.329 F1200.000
G1 X-1.542 Y-5.445 F1200.000
G1 X-1.599 Y-5.532 F1200.000
G1 X-1.678 Y-5.378 F1200.000
G1 X-2.027 Y-4.640 F1200.000
G1 X-4.596 Y-7.210 E0.02517 F490.148
G1 X-4.242 Y-7.548 E0.02856
G1 X-1.116 Y-4.423 E0.05918
G1 X-0.549 Y-4.547 E0.06321
G1 X-3.888 Y-7.886 E0.09592
G1 X-3.533 Y-8.225 E0.09931
G1 X-0.546 Y-5.238 E0.12857
G1 X-0.550 Y-5.934 E0.13340
G1 X-3.109 Y-8.492 E0.15846
G1 X-2.416 Y-8.492 E0.16326
G1 X-1.805 Y-7.881 E0.16924
G1 X-1.724 Y-8.492 E0.17352
G1 X-1.376 Y-8.144 E0.17693
G1 X-1.031 Y-8.492 E0.18032
G1 X-0.692 Y-8.153 E0.18364
G1 X-0.339 Y-8.492 E0.18704
G1 X-0.005 Y-8.158 E0.19031
G1 X0.354 Y-8.492 E0.19370
G1 X0.683 Y-8.163 E0.19693
G1 X1.046 Y-8.492 E0.20033
G1 X1.375 Y-8.163 E0.20356
G1 X1.672 Y-7.867 F1200.000
G1 X5.598 Y-3.941 E0.24202 F490.148
G1 X5.598 Y-4.633 E0.24681
G1 X1.738 Y-8.492 E0.28462
G1 X2.431 Y-8.492 E0.28942
G1 X5.598 Y-5.326 E0.32044
G1 X5.598 Y-6.018 F1200.000
G1 X4.643 Y-6.973 E0.32979 F490.148
G1 X0.525 Y-5.551 F1200.000
G1 X1.213 Y-4.863 E0.33653 F490.148
G1 X1.880 Y-4.889 E0.34116
G1 X0.538 Y-6.231 E0.35430
G1 X0.612 Y-6.849 E0.35862
G1 X2.305 Y-5.156 E0.37521
G1 X2.731 Y-5.422 E0.37869
G1 X0.888 Y-7.266 E0.39674
G1 X1.315 Y-7.531 E0.40023
G1 X5.598 Y-3.248 E0.44218
G1 X5.598 Y-2.556 E0.44698
G1 X2.988 Y-5.165 E0.47254
G1 X2.825 Y-4.636 E0.47638
G1 X5.598 Y-1.863 E0.50354
G1 X5.598 Y-1.171 E0.50833
G1 X2.547 Y-4.222 E0.53822
G1 X2.154 Y-3.922 E0.54165
G1 X5.598 Y-0.478 E0.57538
G1 X5.410 Y0.026 E0.57911
G1 X2.144 Y-3.239 E0.61111
G1 X1.911 Y-2.780 E0.61467
G1 X1.598 Y-3.093 E0.61773
G1 X2.275 Y-2.416 F1200.000
G1 X5.064 Y0.373 E0.64506 F490.148
G1 X4.718 Y0.719 E0.64845
G1 X2.361 Y-1.638 E0.67154
G1 X2.173 Y-1.825 F1200.000
G1 X1.887 Y-2.111 E0.67434 F490.148
G1 X2.129 Y-1.177 F1200.000
G1 X4.371 Y1.065 E0.69630 F490.148
G1 X4.025 Y1.411 E0.69970
G1 X1.774 Y-0.840 E0.72175
G1 X1.315 Y-0.607 E0.72532
G1 X1.732 Y-0.189 E0.72941
G1 X1.955 Y0.034 F1200.000
G1 X3.679 Y1.758 E0.74630 F490.148
G1 X3.106 Y1.877 E0.75035
G1 X2.336 Y1.107 E0.75789
G1 X2.078 Y1.542 E0.76140
G1 X2.414 Y1.877 E0.76468
G1 X1.925 Y0.697 F1200.000
G1 X1.565 Y0.336 E0.76822 F490.148
G1 X1.110 Y0.573 E0.77177
G1 X1.408 Y0.872 E0.77470
G92 E0
G1 X-3.144 Y-1.269 F1200.000
G1 X-3.685 Y-3.996 F1200.000
G1 X-2.971 Y-4.892 F1200.000
G1 X-4.950 Y-6.872 E0.01939 F490.148
G1 X-5.297 Y-6.526 E0.02278
G1 X-2.075 Y-3.304 E0.05434
G1 X-2.581 Y-3.117 E0.05807
G1 X-5.598 Y-6.134 E0.08763
G1 X-5.598 Y-5.441 E0.09243
G1 X-3.273 Y-3.117 E0.11520
G1 X-3.965 Y-3.117 E0.12000
G1 X-5.598 Y-4.749 E0.13598
G1 X-5.598 Y-4.057 E0.14078
G1 X-4.658 Y-3.117 E0.14999
G1 X-5.350 Y-3.117 E0.15478
G1 X-5.598 Y-3.364 E0.15721
G1 X-1.450 Y-8.389 F1200.000
G1 X-1.207 Y-8.146 E0.16034 F372.519
G1 X-0.642 Y-8.492 E0.16638
G1 X-0.306 Y-8.156 E0.17071
G1 X0.269 Y-8.492 E0.17678
G1 X0.599 Y-8.162 E0.18104
G1 X1.180 Y-8.492 E0.18713
G1 X1.438 Y-8.235 E0.19045
G92 E0
G1 X-1.426 Y-5.326 F1200.000
G1 X-2.809 Y-6.672 F1200.000
G1 X-4.258 Y-5.368 F1200.000
G1 X-4.277 Y-4.510 F1200.000
G1 X-3.975 Y-4.204 F1200.000
G1 X-3.952 Y-4.186 F1200.000
G1 X-3.685 Y-3.996 F1200.000
G1 X-2.950 Y-2.086 F1200.000
G1 X-2.093 Y-1.229 E0.01212 F339.531
G1 X-1.738 Y0.185 F1200.000
G1 X-3.789 Y-1.865 E0.04112 F339.531
G1 X-4.318 Y-1.336 E0.04861
G1 X-2.232 Y0.750 E0.07811
G1 X-2.443 Y1.599 F1200.000
G1 X-4.848 Y-0.806 E0.11212 F339.531
G1 X-5.378 Y-0.276 E0.11961
G1 X-2.277 Y2.825 E0.16346
G1 X-1.895 Y4.266 F1200.000
G1 X-5.534 Y0.628 E0.21491 F339.531
G1 X-5.534 Y1.687 E0.22551
G1 X-0.522 Y6.699 E0.29638
G1 X-1.077 Y6.143 E0.30423
G1 X-4.791 Y6.668 F1200.000
G1 X-5.534 Y5.925 E0.31473 F339.531
G1 X-5.534 Y4.866 E0.32532
G1 X-1.970 Y8.430 E0.37572
G1 X-0.910 Y8.430 E0.38631
G1 X-5.534 Y3.806 E0.45170
G1 X-5.534 Y2.747 E0.46229
G1 X0.149 Y8.430 E0.54266
G1 X1.209 Y8.430 E0.55325
G1 X0.156 Y7.377 E0.56813
G1 X0.831 Y6.992 E0.57590
G1 X2.268 Y8.430 E0.59623
G1 X3.285 Y8.387 E0.60641
G1 X0.729 Y5.830 E0.64256
G1 X1.063 Y5.105 E0.65055
G1 X3.827 Y7.869 E0.68964
G1 X4.369 Y7.351 E0.69713
G1 X1.545 Y4.528 E0.73706
G1 X1.559 Y3.482 E0.74752
G1 X4.909 Y6.832 E0.79489
G1 X5.439 Y6.303 E0.80239
G1 X2.122 Y2.986 E0.84930
G1 X3.056 Y2.860 E0.85872
G1 X5.515 Y5.319 E0.89350
G1 X5.515 Y4.260 E0.90409
G1 X4.116 Y2.860 E0.92388
G1 X5.175 Y2.860 E0.93448
G1 X5.515 Y3.200 E0.93929
G92 E0
G1 Z0.400 F1200.000
G1 X3.352 Y1.877 F1200.000
G1 X5.598 Y-0.368 E0.02723 F396.026
G1 X5.598 Y-1.070 E0.03325
G1 X2.650 Y1.877 E0.06899
G1 X2.086 Y1.740 E0.07396
G1 X5.598 Y-1.772 E0.11654
G1 X5.598 Y-2.474 E0.12256
G1 X2.399 Y0.725 E0.16134
G1 X1.728 Y0.694 F1200.000
G1 X5.598 Y-3.176 E0.20826 F396.026
G1 X5.598 Y-3.878 E0.21428
G1 X1.922 Y-0.202 E0.25884
G1 X1.718 Y-0.700 E0.26345
G1 X1.253 Y-0.234 E0.26910
G1 X2.313 Y-1.295 F1200.000
G1 X5.598 Y-4.579 E0.30892 F396.026
G1 X5.598 Y-5.281 E0.31494
G1 X2.192 Y-1.876 E0.35623
G1 X1.689 Y-2.777 F1200.000
G1 X5.368 Y-6.455 E0.40083 F396.026
G1 X5.017 Y-6.806 E0.40508
G1 X2.943 Y-4.732 E0.43023
G1 X2.903 Y-5.394 E0.43592
G1 X4.662 Y-7.153 E0.45725
G1 X4.305 Y-7.498 E0.46150
G1 X1.735 Y-4.928 E0.49266
G1 X0.961 Y-4.855 E0.49933
G1 X3.947 Y-7.842 E0.53554
G1 X3.589 Y-8.186 E0.53979
G1 X0.517 Y-5.113 E0.57704
G1 X0.536 Y-5.835 E0.58323
G1 X3.194 Y-8.492 E0.61545
G1 X2.492 Y-8.492 E0.62147
G1 X0.596 Y-6.596 E0.64446
G1 X-0.551 Y-6.152 F1200.000
G1 X-2.124 Y-4.578 E0.66354 F396.026
G1 X-2.543 Y-4.861 E0.66787
G1 X-0.712 Y-6.693 E0.69008
G1 X-1.080 Y-7.026 E0.69434
G1 X-4.989 Y-3.117 E0.74173
G1 X-5.598 Y-3.210 E0.74701
G1 X-1.386 Y-7.422 E0.79808
G1 X-1.671 Y-7.839 E0.80241
G1 X-5.598 Y-3.912 E0.85002
G1 X-5.598 Y-4.614 E0.85604
G1 X-1.719 Y-8.492 E0.90306
G1 X-1.363 Y-8.147 E0.90732
G1 X-1.017 Y-8.492 E0.91150
G1 X-0.652 Y-8.156 E0.91576
G1 X-0.315 Y-8.492 E0.91985
G1 X0.054 Y-8.160 E0.92411
G1 X0.386 Y-8.492 E0.92814
G1 X0.759 Y-8.163 E0.93240
G1 X1.088 Y-8.492 E0.93640
G1 X1.461 Y-8.163 E0.94066
G1 X1.790 Y-8.492 E0.94465
G92 E0
G1 X1.455 Y-6.520 F1200.000
G1 X1.666 Y-6.370 F1200.000
G1 X1.614 Y-6.034 F1200.000
G1 X1.499 Y-5.842 F1200.000
G1 X1.405 Y-5.845 F1200.000
G1 X-0.546 Y-5.454 F1200.000
G1 X-1.554 Y-4.447 E0.01221 F396.026
G1 X-0.991 Y-4.307 E0.01718
G1 X-0.549 Y-4.750 E0.02254
G92 E0
G1 X-1.426 Y-5.326 F1200.000
G1 X-1.499 Y-5.401 F1200.000
G1 X-1.542 Y-5.445 F1200.000
G1 X-1.569 Y-5.329 F1200.000
G1 X-2.313 Y-3.687 F1200.000
G1 X-2.884 Y-3.117 E0.00691 F396.026
G1 X-3.585 Y-3.117 E0.01293
G1 X-2.677 Y-4.025 E0.02394
G1 X-2.900 Y-4.504 E0.02847
G1 X-4.287 Y-3.117 E0.04529
G92 E0
G1 X-3.685 Y-3.996 F1200.000
G1 X-3.685 Y-3.996 F1200.000
G1 X-2.108 Y-2.535 F1200.000
G1 X-1.849 Y-2.794 E0.00315 F396.026
G1 X-1.280 Y-2.506 E0.00861
G1 X-1.524 Y-2.262 E0.01156
G92 E0
G1 X3.244 Y-2.285 F1200.000
G1 X3.244 Y-2.285 F1200.000
G1 X2.516 Y-2.902 F1200.000
G1 X5.598 Y-5.983 E0.03736 F396.026
G92 E0
G1 X2.854 Y-7.613 F1200.000
G1 X2.852 Y-7.607 F1200.000
