; generated by Slic3r 1.2.9 on 2019-11-21 at 11:39:08

; external perimeters extrusion width = 0.20mm
; perimeters extrusion width = 0.34mm
; infill extrusion width = 0.34mm
; solid infill extrusion width = 0.34mm
; top infill extrusion width = 0.34mm

M104 S200 ; set temperature
G28 ; home all axes
M109 S200 ; wait for temperature to be reached
G21 ; set units to millimeters
G90 ; use absolute coordinates
M82 ; use absolute distances for extrusion
G92 E0
G1 Z0.100 F1800.000
G1 X-4.099 Y0.487 F1800.000
G1 X-4.026 Y0.560 E0.00209 F1800.000
G1 X-3.914 Y0.560 E0.00434
G1 X-4.099 Y0.375 E0.00962
G1 X-4.099 Y0.263 E0.01188
G1 X-3.802 Y0.560 E0.02034
G1 X-3.690 Y0.560 E0.02260
G1 X-4.099 Y0.151 E0.03426
G1 X-4.099 Y0.039 E0.03651
G1 X-3.578 Y0.560 E0.05136
G1 X-3.466 Y0.560 E0.05361
G1 X-4.099 Y-0.073 E0.07165
G1 X-4.099 Y-0.185 E0.07391
G1 X-3.354 Y0.560 E0.09514
G1 X-3.242 Y0.560 E0.09739
G1 X-4.099 Y-0.297 E0.12181
G1 X-4.099 Y-0.409 E0.12407
G1 X-3.130 Y0.560 E0.15168
G1 X-3.018 Y0.560 E0.15393
G1 X-4.099 Y-0.521 E0.18473
G1 X-4.099 Y-0.633 E0.18699
G1 X-2.906 Y0.560 E0.22098
G1 X-2.794 Y0.560 E0.22323
G1 X-4.099 Y-0.745 E0.26041
G1 X-4.099 Y-0.856 E0.26267
G1 X-2.683 Y0.560 E0.30304
G1 X-2.571 Y0.560 E0.30529
G1 X-4.099 Y-0.968 E0.34885
G1 X-4.099 Y-1.080 E0.35111
G1 X-2.459 Y0.560 E0.39786
G1 X-2.347 Y0.560 E0.40012
G1 X-4.099 Y-1.192 E0.45006
G1 X-4.099 Y-1.304 E0.45231
G1 X-2.235 Y0.560 E0.50544
G1 X-2.123 Y0.560 E0.50770
G1 X-4.099 Y-1.416 E0.56402
G1 X-4.099 Y-1.528 E0.56628
G1 X-2.011 Y0.560 E0.62579
G1 X-1.899 Y0.560 E0.62804
G1 X-4.099 Y-1.640 E0.69075
G1 X-4.099 Y-1.752 E0.69300
G1 X-1.787 Y0.560 E0.75889
G1 X-1.675 Y0.560 E0.76115
G1 X-4.099 Y-1.864 E0.83023
G1 X-4.099 Y-1.976 E0.83249
G1 X-1.563 Y0.560 E0.90476
G1 X-1.451 Y0.560 E0.90702
G1 X-4.099 Y-2.088 E0.98248
G1 X-4.099 Y-2.200 E0.98474
G1 X-1.339 Y0.560 E1.06339
G1 X-1.227 Y0.560 E1.06565
G1 X-4.099 Y-2.312 E1.14749
G1 X-4.099 Y-2.423 E1.14974
G1 X-1.116 Y0.560 E1.23478
G1 X-1.004 Y0.560 E1.23703
G1 X-4.091 Y-2.528 E1.32504
G1 X-4.011 Y-2.560 E1.32677
G1 X-0.892 Y0.560 E1.41569
G1 X-0.780 Y0.560 E1.41795
G1 X-3.900 Y-2.560 E1.50687
G1 X-3.788 Y-2.560 E1.50913
G1 X-0.668 Y0.560 E1.59805
G1 X-0.556 Y0.560 E1.60031
G1 X-3.676 Y-2.560 E1.68923
G1 X-3.564 Y-2.560 E1.69148
G1 X-0.444 Y0.560 E1.78041
G1 X-0.332 Y0.560 E1.78266
G1 X-3.452 Y-2.560 E1.87158
G1 X-3.340 Y-2.560 E1.87384
G1 X-0.220 Y0.560 E1.96276
G1 X-0.108 Y0.560 E1.96502
G1 X-3.228 Y-2.560 E2.05394
G1 X-3.116 Y-2.560 E2.05620
G1 X0.004 Y0.560 E2.14512
G1 X0.116 Y0.560 E2.14738
G1 X-3.004 Y-2.560 E2.23630
G1 X-2.892 Y-2.560 E2.23855
G1 X0.228 Y0.560 E2.32748
G1 X0.340 Y0.560 E2.32973
G1 X-2.780 Y-2.560 E2.41866
G1 X-2.668 Y-2.560 E2.42091
G1 X0.451 Y0.560 E2.50983
G1 X0.563 Y0.560 E2.51209
G1 X-2.556 Y-2.560 E2.60101
G1 X-2.444 Y-2.560 E2.60327
G1 X0.675 Y0.560 E2.69219
G1 X0.787 Y0.560 E2.69445
G1 X-2.333 Y-2.560 E2.78337
G1 X-2.221 Y-2.560 E2.78562
G1 X0.899 Y0.560 E2.87455
G1 X1.011 Y0.560 E2.87680
G1 X-2.109 Y-2.560 E2.96573
G1 X-1.997 Y-2.560 E2.96798
G1 X1.123 Y0.560 E3.05690
G1 X1.235 Y0.560 E3.05916
G1 X-1.885 Y-2.560 E3.14808
G1 X-1.773 Y-2.560 E3.15034
G1 X1.347 Y0.560 E3.23926
G1 X1.459 Y0.560 E3.24152
G1 X-1.661 Y-2.560 E3.33044
G1 X-1.549 Y-2.560 E3.33269
G1 X1.571 Y0.560 E3.42162
G1 X1.683 Y0.560 E3.42387
G1 X-1.437 Y-2.560 E3.51280
G1 X-1.325 Y-2.560 E3.51505
G1 X1.795 Y0.560 E3.60397
G1 X1.907 Y0.560 E3.60623
G1 X-1.213 Y-2.560 E3.69515
G1 X-1.101 Y-2.560 E3.69741
G1 X2.018 Y0.560 E3.78633
G1 X2.130 Y0.560 E3.78859
G1 X-0.989 Y-2.560 E3.87751
G1 X-0.877 Y-2.560 E3.87977
G1 X2.242 Y0.560 E3.96869
G1 X2.354 Y0.560 E3.97094
G1 X-0.766 Y-2.560 E4.05987
G1 X-0.654 Y-2.560 E4.06212
G1 X2.466 Y0.560 E4.15104
G1 X2.578 Y0.560 E4.15330
G1 X-0.542 Y-2.560 E4.24222
G1 X-0.430 Y-2.560 E4.24448
G1 X2.690 Y0.560 E4.33340
G1 X2.802 Y0.560 E4.33566
G1 X-0.318 Y-2.560 E4.42458
G1 X-0.206 Y-2.560 E4.42684
G1 X2.914 Y0.560 E4.51576
G1 X3.026 Y0.560 E4.51801
G1 X-0.094 Y-2.560 E4.60694
G1 X0.018 Y-2.560 E4.60919
G1 X3.138 Y0.560 E4.69811
G1 X3.250 Y0.560 E4.70037
G1 X0.130 Y-2.560 E4.78929
G1 X0.242 Y-2.560 E4.79155
G1 X3.362 Y0.560 E4.88047
G1 X3.474 Y0.560 E4.88273
G1 X0.354 Y-2.560 E4.97165
G1 X0.466 Y-2.560 E4.97391
G1 X3.586 Y0.560 E5.06283
G1 X3.697 Y0.560 E5.06508
G1 X0.578 Y-2.560 E5.15401
G1 X0.690 Y-2.560 E5.15626
G1 X3.809 Y0.560 E5.24518
G1 X3.921 Y0.560 E5.24744
G1 X0.801 Y-2.560 E5.33636
G1 X0.913 Y-2.560 E5.33862
G1 X4.033 Y0.560 E5.42754
G1 X4.113 Y0.528 E5.42927
G1 X1.025 Y-2.560 E5.51728
G1 X1.137 Y-2.560 E5.51954
G1 X4.121 Y0.424 E5.60457
G1 X4.121 Y0.312 E5.60683
G1 X1.249 Y-2.560 E5.68868
G1 X1.361 Y-2.560 E5.69093
G1 X4.121 Y0.200 E5.76959
G1 X4.121 Y0.088 E5.77184
G1 X1.473 Y-2.560 E5.84731
G1 X1.585 Y-2.560 E5.84957
G1 X4.121 Y-0.024 E5.92184
G1 X4.121 Y-0.136 E5.92410
G1 X1.697 Y-2.560 E5.99318
G1 X1.809 Y-2.560 E5.99544
G1 X4.121 Y-0.248 E6.06134
G1 X4.121 Y-0.360 E6.06359
G1 X1.921 Y-2.560 E6.12630
G1 X2.033 Y-2.560 E6.12855
G1 X4.121 Y-0.472 E6.18807
G1 X4.121 Y-0.584 E6.19032
G1 X2.145 Y-2.560 E6.24665
G1 X2.257 Y-2.560 E6.24890
G1 X4.121 Y-0.696 E6.30204
G1 X4.121 Y-0.808 E6.30429
G1 X2.369 Y-2.560 E6.35424
G1 X2.480 Y-2.560 E6.35649
G1 X4.121 Y-0.920 E6.40325
G1 X4.121 Y-1.031 E6.40550
G1 X2.592 Y-2.560 E6.44907
G1 X2.704 Y-2.560 E6.45132
G1 X4.121 Y-1.143 E6.49170
G1 X4.121 Y-1.255 E6.49395
G1 X2.816 Y-2.560 E6.53114
G1 X2.928 Y-2.560 E6.53339
G1 X4.121 Y-1.367 E6.56738
G1 X4.121 Y-1.479 E6.56964
G1 X3.040 Y-2.560 E6.60044
G1 X3.152 Y-2.560 E6.60270
G1 X4.121 Y-1.591 E6.63031
G1 X4.121 Y-1.703 E6.63257
G1 X3.264 Y-2.560 E6.65699
G1 X3.376 Y-2.560 E6.65924
G1 X4.121 Y-1.815 E6.68048
G1 X4.121 Y-1.927 E6.68273
G1 X3.488 Y-2.560 E6.70077
G1 X3.600 Y-2.560 E6.70303
G1 X4.121 Y-2.039 E6.71788
G1 X4.121 Y-2.151 E6.72014
G1 X3.712 Y-2.560 E6.73180
G1 X3.824 Y-2.560 E6.73405
G1 X4.121 Y-2.263 E6.74252
G1 X4.121 Y-2.375 E6.74478
G1 X3.936 Y-2.560 E6.75006
G1 X4.047 Y-2.560 E6.75232
G1 X4.121 Y-2.487 E6.75440
G92 E0
G1 Z0.200 F1800.000
G1 X3.984 Y0.492 F1800.000
G1 X4.157 Y0.319 E0.02010 F1117.885
G1 X4.157 Y-0.137 E0.05744
G1 X3.528 Y0.492 E0.13036
G1 X3.073 Y0.492 E0.16771
G1 X4.157 Y-0.592 E0.29344
G1 X4.157 Y-1.047 E0.33079
G1 X2.617 Y0.492 E0.50934
G1 X2.162 Y0.492 E0.54669
G1 X4.157 Y-1.503 E0.77805
G1 X4.157 Y-1.958 E0.81540
G1 X1.706 Y0.492 E1.09959
G1 X1.251 Y0.492 E1.13694
G1 X4.157 Y-2.414 E1.47394
G1 X3.780 Y-2.492 E1.50553
G1 X0.796 Y0.492 E1.85161
G1 X0.340 Y0.492 E1.88896
G1 X3.324 Y-2.492 E2.23504
G1 X2.869 Y-2.492 E2.27239
G1 X-0.115 Y0.492 E2.61847
G1 X-0.571 Y0.492 E2.65582
G1 X2.413 Y-2.492 E3.00191
G1 X1.958 Y-2.492 E3.03925
G1 X-1.026 Y0.492 E3.38534
G1 X-1.482 Y0.492 E3.42268
G1 X1.503 Y-2.492 E3.76877
G1 X1.047 Y-2.492 E3.80612
G1 X-1.937 Y0.492 E4.15220
G1 X-2.392 Y0.492 E4.18955
G1 X0.592 Y-2.492 E4.53563
G1 X0.136 Y-2.492 E4.57298
G1 X-2.848 Y0.492 E4.91906
G1 X-3.303 Y0.492 E4.95641
G1 X-0.319 Y-2.492 E5.30249
G1 X-0.775 Y-2.492 E5.33984
G1 X-3.759 Y0.492 E5.68593
G1 X-4.136 Y0.414 E5.71751
G1 X-1.230 Y-2.492 E6.05451
G1 X-1.685 Y-2.492 E6.09186
G1 X-4.136 Y-0.042 E6.37605
G1 X-4.136 Y-0.497 E6.41339
G1 X-2.141 Y-2.492 E6.64476
G1 X-2.596 Y-2.492 E6.68211
G1 X-4.136 Y-0.953 E6.86066
G1 X-4.136 Y-1.408 E6.89801
G1 X-3.052 Y-2.492 E7.02374
G1 X-3.507 Y-2.492 E7.06109
G1 X-4.136 Y-1.863 E7.13400
G1 X-4.136 Y-2.319 E7.17135
G1 X-3.963 Y-2.492 E7.19144
G92 E0
G1 Z0.300 F1800.000
G1 X-4.067 Y0.492 F1800.000
G1 X-4.241 Y0.319 E0.01966 F1142.647
G1 X-4.241 Y-0.127 E0.05541
G1 X-3.622 Y0.492 E0.12562
G1 X-3.176 Y0.492 E0.16137
G1 X-4.241 Y-0.572 E0.28213
G1 X-4.241 Y-1.018 E0.31788
G1 X-2.731 Y0.492 E0.48920
G1 X-2.285 Y0.492 E0.52495
G1 X-4.241 Y-1.463 E0.74682
G1 X-4.241 Y-1.909 E0.78257
G1 X-1.839 Y0.492 E1.05499
G1 X-1.394 Y0.492 E1.09074
G1 X-4.241 Y-2.355 E1.41372
G1 X-3.932 Y-2.492 E1.44079
G1 X-0.948 Y0.492 E1.77937
G1 X-0.503 Y0.492 E1.81512
G1 X-3.487 Y-2.492 E2.15370
G1 X-3.041 Y-2.492 E2.18945
G1 X-0.057 Y0.492 E2.52803
G1 X0.388 Y0.492 E2.56378
G1 X-2.596 Y-2.492 E2.90236
G1 X-2.150 Y-2.492 E2.93811
G1 X0.834 Y0.492 E3.27669
G1 X1.279 Y0.492 E3.31244
G1 X-1.705 Y-2.492 E3.65102
G1 X-1.259 Y-2.492 E3.68677
G1 X1.725 Y0.492 E4.02535
G1 X2.171 Y0.492 E4.06110
G1 X-0.814 Y-2.492 E4.39968
G1 X-0.368 Y-2.492 E4.43543
G1 X2.616 Y0.492 E4.77401
G1 X3.062 Y0.492 E4.80976
G1 X0.078 Y-2.492 E5.14834
G1 X0.523 Y-2.492 E5.18409
G1 X3.507 Y0.492 E5.52267
G1 X3.953 Y0.492 E5.55842
G1 X0.969 Y-2.492 E5.89700
G1 X1.414 Y-2.492 E5.93275
G1 X4.261 Y0.355 E6.25573
G1 X4.261 Y-0.091 E6.29147
G1 X1.860 Y-2.492 E6.56390
G1 X2.305 Y-2.492 E6.59965
G1 X4.261 Y-0.537 E6.82152
G1 X4.261 Y-0.982 E6.85727
G1 X2.751 Y-2.492 E7.02859
G1 X3.196 Y-2.492 E7.06434
G1 X4.261 Y-1.428 E7.18511
G1 X4.261 Y-1.873 E7.22085
G1 X3.642 Y-2.492 E7.29107
G1 X4.088 Y-2.492 E7.32682
G1 X4.261 Y-2.319 E7.34648
G92 E0
G1 Z0.400 F1800.000
G1 X4.192 Y0.492 F1800.000
G1 X4.365 Y0.319 E0.02003 F1121.634
G1 X4.365 Y-0.135 E0.05713
G1 X3.738 Y0.492 E0.12962
G1 X3.284 Y0.492 E0.16672
G1 X4.365 Y-0.589 E0.29168
G1 X4.365 Y-1.043 E0.32878
G1 X2.830 Y0.492 E0.50621
G1 X2.376 Y0.492 E0.54331
G1 X4.365 Y-1.497 E0.77320
G1 X4.365 Y-1.951 E0.81030
G1 X1.922 Y0.492 E1.09265
G1 X1.468 Y0.492 E1.12975
G1 X4.365 Y-2.405 E1.46457
G1 X3.998 Y-2.492 E1.49537
G1 X1.014 Y0.492 E1.84029
G1 X0.560 Y0.492 E1.87739
G1 X3.544 Y-2.492 E2.22232
G1 X3.091 Y-2.492 E2.25942
G1 X0.106 Y0.492 E2.60434
G1 X-0.348 Y0.492 E2.64144
G1 X2.637 Y-2.492 E2.98637
G1 X2.183 Y-2.492 E3.02347
G1 X-0.801 Y0.492 E3.36839
G1 X-1.255 Y0.492 E3.40549
G1 X1.729 Y-2.492 E3.75042
G1 X1.275 Y-2.492 E3.78752
G1 X-1.709 Y0.492 E4.13244
G1 X-2.163 Y0.492 E4.16954
G1 X0.821 Y-2.492 E4.51447
G1 X0.367 Y-2.492 E4.55157
G1 X-2.617 Y0.492 E4.89649
G1 X-3.071 Y0.492 E4.93359
G1 X-0.087 Y-2.492 E5.27852
G1 X-0.541 Y-2.492 E5.31562
G1 X-3.525 Y0.492 E5.66054
G1 X-3.979 Y0.492 E5.69764
G1 X-0.995 Y-2.492 E6.04257
G1 X-1.449 Y-2.492 E6.07967
G1 X-4.345 Y0.405 E6.41449
G1 X-4.345 Y-0.049 E6.45159
G1 X-1.902 Y-2.492 E6.73394
G1 X-2.356 Y-2.492 E6.77104
G1 X-4.345 Y-0.503 E7.00093
G1 X-4.345 Y-0.957 E7.03803
G1 X-2.810 Y-2.492 E7.21545
G1 X-3.264 Y-2.492 E7.25255
G1 X-4.345 Y-1.411 E7.37751
G1 X-4.345 Y-1.865 E7.41461
G1 X-3.718 Y-2.492 E7.48710
G1 X-4.172 Y-2.492 E7.52420
G1 X-4.345 Y-2.319 E7.54423
G92 E0
G1 Z0.500 F1800.000
G1 X-4.450 Y0.319 F1800.000
G1 X-4.277 Y0.492 E0.01961 F1145.435
G1 X-3.832 Y0.492 E0.05518
G1 X-4.450 Y-0.126 E0.12510
G1 X-4.450 Y-0.570 E0.16068
G1 X-3.388 Y0.492 E0.28090
G1 X-2.943 Y0.492 E0.31648
G1 X-4.450 Y-1.015 E0.48701
G1 X-4.450 Y-1.459 E0.52259
G1 X-2.499 Y0.492 E0.74343
G1 X-2.054 Y0.492 E0.77900
G1 X-4.450 Y-1.904 E1.05015
G1 X-4.450 Y-2.348 E1.08572
G1 X-1.610 Y0.492 E1.40718
G1 X-1.165 Y0.492 E1.44276
G1 X-4.149 Y-2.492 E1.78051
G1 X-3.705 Y-2.492 E1.81609
G1 X-0.721 Y0.492 E2.15385
G1 X-0.276 Y0.492 E2.18942
G1 X-3.261 Y-2.492 E2.52718
G1 X-2.816 Y-2.492 E2.56275
G1 X0.168 Y0.492 E2.90051
G1 X0.613 Y0.492 E2.93608
G1 X-2.372 Y-2.492 E3.27384
G1 X-1.927 Y-2.492 E3.30942
G1 X1.057 Y0.492 E3.64718
G1 X1.502 Y0.492 E3.68275
G1 X-1.483 Y-2.492 E4.02051
G1 X-1.038 Y-2.492 E4.05608
G1 X1.946 Y0.492 E4.39384
G1 X2.390 Y0.492 E4.42941
G1 X-0.594 Y-2.492 E4.76717
G1 X-0.149 Y-2.492 E4.80275
G1 X2.835 Y0.492 E5.14051
G1 X3.279 Y0.492 E5.17608
G1 X0.295 Y-2.492 E5.51384
G1 X0.740 Y-2.492 E5.54941
G1 X3.724 Y0.492 E5.88717
G1 X4.168 Y0.492 E5.92274
G1 X1.184 Y-2.492 E6.26050
G1 X1.629 Y-2.492 E6.29607
G1 X4.469 Y0.348 E6.61753
G1 X4.469 Y-0.096 E6.65311
G1 X2.073 Y-2.492 E6.92426
G1 X2.518 Y-2.492 E6.95983
G1 X4.469 Y-0.541 E7.18068
G1 X4.469 Y-0.985 E7.21625
G1 X2.962 Y-2.492 E7.38679
G1 X3.407 Y-2.492 E7.42236
G1 X4.469 Y-1.430 E7.54259
G1 X4.469 Y-1.874 E7.57816
G1 X3.851 Y-2.492 E7.64808
G1 X4.296 Y-2.492 E7.68365
G1 X4.469 Y-2.319 E7.70327
G92 E0
G1 Z0.600 F1800.000
G1 X4.399 Y0.492 F1800.000
G1 X4.573 Y0.319 E0.01997 F1125.117
G1 X4.573 Y-0.134 E0.05684
G1 X3.947 Y0.492 E0.12895
G1 X3.494 Y0.492 E0.16581
G1 X4.573 Y-0.586 E0.29006
G1 X4.573 Y-1.039 E0.32693
G1 X3.042 Y0.492 E0.50332
G1 X2.589 Y0.492 E0.54019
G1 X4.573 Y-1.491 E0.76873
G1 X4.573 Y-1.944 E0.80559
G1 X2.137 Y0.492 E1.08627
G1 X1.684 Y0.492 E1.12314
G1 X4.573 Y-2.396 E1.45595
G1 X4.216 Y-2.492 E1.48604
G1 X1.232 Y0.492 E1.82990
G1 X0.779 Y0.492 E1.86677
G1 X3.764 Y-2.492 E2.21063
G1 X3.311 Y-2.492 E2.24750
G1 X0.327 Y0.492 E2.59135
G1 X-0.126 Y0.492 E2.62822
G1 X2.859 Y-2.492 E2.97208
G1 X2.406 Y-2.492 E3.00895
G1 X-0.578 Y0.492 E3.35281
G1 X-1.031 Y0.492 E3.38968
G1 X1.954 Y-2.492 E3.73354
G1 X1.501 Y-2.492 E3.77041
G1 X-1.483 Y0.492 E4.11427
G1 X-1.936 Y0.492 E4.15114
G1 X1.049 Y-2.492 E4.49499
G1 X0.596 Y-2.492 E4.53186
G1 X-2.388 Y0.492 E4.87572
G1 X-2.841 Y0.492 E4.91259
G1 X0.144 Y-2.492 E5.25645
G1 X-0.309 Y-2.492 E5.29332
G1 X-3.293 Y0.492 E5.63718
G1 X-3.746 Y0.492 E5.67405
G1 X-0.761 Y-2.492 E6.01791
G1 X-1.214 Y-2.492 E6.05477
G1 X-4.198 Y0.492 E6.39863
G1 X-4.555 Y0.396 E6.42872
G1 X-1.666 Y-2.492 E6.76154
G1 X-2.119 Y-2.492 E6.79840
G1 X-4.555 Y-0.056 E7.07908
G1 X-4.555 Y-0.509 E7.11594
G1 X-2.571 Y-2.492 E7.34447
G1 X-3.024 Y-2.492 E7.38134
G1 X-4.555 Y-0.961 E7.55773
G1 X-4.555 Y-1.414 E7.59460
G1 X-3.476 Y-2.492 E7.71885
G1 X-3.929 Y-2.492 E7.75572
G1 X-4.555 Y-1.866 E7.82783
G1 X-4.555 Y-2.319 E7.86470
G1 X-4.381 Y-2.492 E7.88466
G92 E0
G1 Z0.700 F1800.000
G1 X-4.659 Y0.319 F1800.000
G1 X-4.486 Y0.492 E0.02032 F1105.508
G1 X-4.026 Y0.492 E0.05851
G1 X-4.659 Y-0.142 E0.13284
G1 X-4.659 Y-0.602 E0.17103
G1 X-3.565 Y0.492 E0.29936
G1 X-3.105 Y0.492 E0.33755
G1 X-4.659 Y-1.063 E0.51989
G1 X-4.659 Y-1.523 E0.55808
G1 X-2.644 Y0.492 E0.79443
G1 X-2.183 Y0.492 E0.83262
G1 X-4.659 Y-1.984 E1.12297
G1 X-4.659 Y-2.444 E1.16116
G1 X-1.723 Y0.492 E1.50552
G1 X-1.262 Y0.492 E1.54371
G1 X-4.247 Y-2.492 E1.89367
G1 X-3.786 Y-2.492 E1.93186
G1 X-0.802 Y0.492 E2.28182
G1 X-0.341 Y0.492 E2.32001
G1 X-3.326 Y-2.492 E2.66996
G1 X-2.865 Y-2.492 E2.70815
G1 X0.119 Y0.492 E3.05811
G1 X0.580 Y0.492 E3.09630
G1 X-2.404 Y-2.492 E3.44626
G1 X-1.944 Y-2.492 E3.48445
G1 X1.040 Y0.492 E3.83440
G1 X1.501 Y0.492 E3.87259
G1 X-1.483 Y-2.492 E4.22255
G1 X-1.023 Y-2.492 E4.26074
G1 X1.961 Y0.492 E4.61070
G1 X2.422 Y0.492 E4.64889
G1 X-0.562 Y-2.492 E4.99885
G1 X-0.102 Y-2.492 E5.03703
G1 X2.882 Y0.492 E5.38699
G1 X3.343 Y0.492 E5.42518
G1 X0.359 Y-2.492 E5.77514
G1 X0.819 Y-2.492 E5.81333
G1 X3.803 Y0.492 E6.16329
G1 X4.264 Y0.492 E6.20147
G1 X1.280 Y-2.492 E6.55143
G1 X1.740 Y-2.492 E6.58962
G1 X4.677 Y0.444 E6.93398
G1 X4.677 Y-0.016 E6.97217
G1 X2.201 Y-2.492 E7.26253
G1 X2.661 Y-2.492 E7.30072
G1 X4.677 Y-0.477 E7.53707
G1 X4.677 Y-0.937 E7.57526
G1 X3.122 Y-2.492 E7.75760
G1 X3.582 Y-2.492 E7.79579
G1 X4.677 Y-1.398 E7.92413
G1 X4.677 Y-1.858 E7.96232
G1 X4.043 Y-2.492 E8.03664
G1 X4.503 Y-2.492 E8.07483
G1 X4.677 Y-2.319 E8.09516
G92 E0
G1 Z0.800 F1800.000
G1 X2.279 Y-2.319 F1800.000
G1 X2.452 Y-2.492 E0.02062 F1089.681
G1 X2.919 Y-2.492 E0.05992
G1 X2.279 Y-1.852 E0.13613
G1 X2.279 Y-1.384 E0.17543
G1 X3.387 Y-2.492 E0.30722
G1 X3.854 Y-2.492 E0.34653
G1 X2.279 Y-0.917 E0.53391
G1 X2.279 Y-0.450 E0.57321
G1 X4.321 Y-2.492 E0.81618
G1 X4.764 Y-2.468 E0.85354
G1 X2.279 Y0.017 E1.14926
G1 X2.295 Y0.468 E1.18723
G1 X4.781 Y-2.017 E1.48295
G1 X4.781 Y-1.550 E1.52226
G1 X2.739 Y0.492 E1.76523
G1 X3.206 Y0.492 E1.80453
G1 X4.781 Y-1.083 E1.99191
G1 X4.781 Y-0.616 E2.03122
G1 X3.673 Y0.492 E2.16301
G1 X4.140 Y0.492 E2.20232
G1 X4.781 Y-0.148 E2.27852
G1 X4.781 Y0.319 E2.31783
G1 X4.607 Y0.492 E2.33844
G92 E0
G1 X2.208 Y0.563 F1800.000
G1 X0.208 Y0.563 F1800.000
G1 X-0.248 Y0.563 F1800.000
G1 X-2.248 Y0.563 F1800.000
G1 X-2.492 Y0.492 F1800.000
G1 X-2.318 Y0.319 E0.02039 F1101.705
G1 X-2.318 Y-0.143 E0.05884
G1 X-2.954 Y0.492 E0.13362
G1 X-3.416 Y0.492 E0.17207
G1 X-2.318 Y-0.605 E0.30122
G1 X-2.318 Y-1.068 E0.33968
G1 X-3.878 Y0.492 E0.52321
G1 X-4.340 Y0.492 E0.56166
G1 X-2.318 Y-1.530 E0.79958
G1 X-2.318 Y-1.992 E0.83803
G1 X-4.763 Y0.453 E1.12573
G1 X-4.764 Y-0.008 E1.16410
G1 X-2.319 Y-2.453 E1.45180
G1 X-2.742 Y-2.492 E1.48715
G1 X-4.764 Y-0.470 E1.72506
