; generated by Slic3r 1.2.9 on 2019-11-13 at 13:23:14

; external perimeters extrusion width = 0.20mm
; perimeters extrusion width = 0.34mm
; infill extrusion width = 0.34mm
; solid infill extrusion width = 0.34mm
; top infill extrusion width = 0.34mm

M104 S200 ; set temperature
G28 ; home all axes
M109 S200 ; wait for temperature to be reached
G21 ; set units to millimeters
G90 ; use absolute coordinates
M82 ; use absolute distances for extrusion
G92 E0
G1 Z0.100 F1200.000
G1 X-2.479 Y0.862 F1200.000
G1 X-2.406 Y0.935 E0.00208 F1200.000
G1 X-2.294 Y0.935 E0.00432
G1 X-2.479 Y0.750 E0.00957
G1 X-2.479 Y0.638 E0.01182
G1 X-2.183 Y0.935 E0.02024
G1 X-2.071 Y0.935 E0.02248
G1 X-2.479 Y0.527 E0.03407
G1 X-2.479 Y0.415 E0.03631
G1 X-1.960 Y0.935 E0.05108
G1 X-1.848 Y0.935 E0.05332
G1 X-2.479 Y0.304 E0.07125
G1 X-2.479 Y0.192 E0.07349
G1 X-1.737 Y0.935 E0.09460
G1 X-1.625 Y0.935 E0.09684
G1 X-2.479 Y0.081 E0.12111
G1 X-2.479 Y-0.031 E0.12335
G1 X-1.513 Y0.935 E0.15080
G1 X-1.402 Y0.935 E0.15304
G1 X-2.479 Y-0.143 E0.18365
G1 X-2.479 Y-0.254 E0.18589
G1 X-1.290 Y0.935 E0.21968
G1 X-1.179 Y0.935 E0.22192
G1 X-2.479 Y-0.366 E0.25887
G1 X-2.479 Y-0.477 E0.26112
G1 X-1.067 Y0.935 E0.30124
G1 X-0.955 Y0.935 E0.30348
G1 X-2.479 Y-0.589 E0.34678
G1 X-2.479 Y-0.700 E0.34902
G1 X-0.844 Y0.935 E0.39548
G1 X-0.732 Y0.935 E0.39773
G1 X-2.479 Y-0.812 E0.44736
G1 X-2.465 Y-0.909 E0.44934
G1 X-0.621 Y0.935 E0.50173
G1 X-0.509 Y0.935 E0.50398
G1 X-2.379 Y-0.935 E0.55710
G1 X-2.267 Y-0.935 E0.55935
G1 X-0.398 Y0.935 E0.61247
G1 X-0.286 Y0.935 E0.61471
G1 X-2.156 Y-0.935 E0.66784
G1 X-2.044 Y-0.935 E0.67008
G1 X-0.174 Y0.935 E0.72321
G1 X-0.063 Y0.935 E0.72545
G1 X-1.933 Y-0.935 E0.77858
G1 X-1.821 Y-0.935 E0.78082
G1 X0.049 Y0.935 E0.83395
G1 X0.160 Y0.935 E0.83619
G1 X-1.709 Y-0.935 E0.88932
G1 X-1.598 Y-0.935 E0.89156
G1 X0.272 Y0.935 E0.94468
G1 X0.383 Y0.935 E0.94693
G1 X-1.486 Y-0.935 E1.00005
G1 X-1.375 Y-0.935 E1.00230
G1 X0.495 Y0.935 E1.05542
G1 X0.607 Y0.935 E1.05766
G1 X-1.263 Y-0.935 E1.11079
G1 X-1.152 Y-0.935 E1.11303
G1 X0.718 Y0.935 E1.16616
G1 X0.830 Y0.935 E1.16840
G1 X-1.040 Y-0.935 E1.22153
G1 X-0.928 Y-0.935 E1.22377
G1 X0.941 Y0.935 E1.27690
G1 X1.053 Y0.935 E1.27914
G1 X-0.817 Y-0.935 E1.33227
G1 X-0.705 Y-0.935 E1.33451
G1 X1.165 Y0.935 E1.38763
G1 X1.276 Y0.935 E1.38988
G1 X-0.594 Y-0.935 E1.44300
G1 X-0.482 Y-0.935 E1.44525
G1 X1.388 Y0.935 E1.49837
G1 X1.499 Y0.935 E1.50061
G1 X-0.371 Y-0.935 E1.55374
G1 X-0.259 Y-0.935 E1.55598
G1 X1.611 Y0.935 E1.60911
G1 X1.722 Y0.935 E1.61135
G1 X-0.147 Y-0.935 E1.66448
G1 X-0.036 Y-0.935 E1.66672
G1 X1.834 Y0.935 E1.71985
G1 X1.946 Y0.935 E1.72209
G1 X0.076 Y-0.935 E1.77522
G1 X0.187 Y-0.935 E1.77746
G1 X2.057 Y0.935 E1.83058
G1 X2.169 Y0.935 E1.83283
G1 X0.299 Y-0.935 E1.88595
G1 X0.410 Y-0.935 E1.88819
G1 X2.280 Y0.935 E1.94132
G1 X2.392 Y0.935 E1.94356
G1 X0.522 Y-0.935 E1.99669
G1 X0.634 Y-0.935 E1.99893
G1 X2.478 Y0.909 E2.05133
G1 X2.492 Y0.812 E2.05331
G1 X0.745 Y-0.935 E2.10294
G1 X0.857 Y-0.935 E2.10518
G1 X2.492 Y0.701 E2.15165
G1 X2.492 Y0.589 E2.15389
G1 X0.968 Y-0.935 E2.19719
G1 X1.080 Y-0.935 E2.19943
G1 X2.492 Y0.477 E2.23956
G1 X2.492 Y0.366 E2.24180
G1 X1.192 Y-0.935 E2.27876
G1 X1.303 Y-0.935 E2.28100
G1 X2.492 Y0.254 E2.31479
G1 X2.492 Y0.143 E2.31703
G1 X1.415 Y-0.935 E2.34764
G1 X1.526 Y-0.935 E2.34988
G1 X2.492 Y0.031 E2.37733
G1 X2.492 Y-0.081 E2.37957
G1 X1.638 Y-0.935 E2.40385
G1 X1.749 Y-0.935 E2.40609
G1 X2.492 Y-0.192 E2.42719
G1 X2.492 Y-0.304 E2.42944
G1 X1.861 Y-0.935 E2.44737
G1 X1.973 Y-0.935 E2.44961
G1 X2.492 Y-0.415 E2.46438
G1 X2.492 Y-0.527 E2.46662
G1 X2.084 Y-0.935 E2.47821
G1 X2.196 Y-0.935 E2.48045
G1 X2.492 Y-0.638 E2.48888
G1 X2.492 Y-0.750 E2.49112
G1 X2.307 Y-0.935 E2.49637
G1 X2.419 Y-0.935 E2.49862
G1 X2.492 Y-0.862 E2.50070
G92 E0
G1 Z0.200 F1200.000
G1 X2.355 Y0.867 F1200.000
G1 X2.528 Y0.694 E0.02027 F738.760
G1 X2.528 Y0.234 E0.05828
G1 X1.896 Y0.867 E0.13231
G1 X1.436 Y0.867 E0.17031
G1 X2.528 Y-0.225 E0.29809
G1 X2.528 Y-0.685 E0.33610
G1 X0.977 Y0.867 E0.51762
G1 X0.517 Y0.867 E0.55563
G1 X2.251 Y-0.867 E0.75851
G1 X1.792 Y-0.867 E0.79652
G1 X0.058 Y0.867 E0.99941
G1 X-0.402 Y0.867 E1.03741
G1 X1.333 Y-0.867 E1.24030
G1 X0.873 Y-0.867 E1.27831
G1 X-0.861 Y0.867 E1.48119
G1 X-1.320 Y0.867 E1.51920
G1 X0.414 Y-0.867 E1.72208
G1 X-0.046 Y-0.867 E1.76009
G1 X-1.780 Y0.867 E1.96298
G1 X-2.239 Y0.867 E2.00098
G1 X-0.505 Y-0.867 E2.20387
G1 X-0.965 Y-0.867 E2.24188
G1 X-2.516 Y0.685 E2.42340
G1 X-2.516 Y0.225 E2.46141
G1 X-1.424 Y-0.867 E2.58918
G1 X-1.883 Y-0.867 E2.62719
G1 X-2.516 Y-0.234 E2.70121
G1 X-2.516 Y-0.694 E2.73922
G1 X-2.343 Y-0.867 E2.75949
G92 E0
G1 Z0.300 F1200.000
G1 X-2.621 Y0.694 F1200.000
G1 X-2.448 Y0.867 E0.02093 F715.545
G1 X-1.973 Y0.867 E0.06144
G1 X-2.621 Y0.219 E0.13967
G1 X-2.621 Y-0.255 E0.18018
G1 X-1.499 Y0.867 E0.31570
G1 X-1.025 Y0.867 E0.35622
G1 X-2.621 Y-0.729 E0.54904
G1 X-2.284 Y-0.867 E0.58009
G1 X-0.550 Y0.867 E0.78956
G1 X-0.076 Y0.867 E0.83007
G1 X-1.810 Y-0.867 E1.03954
G1 X-1.336 Y-0.867 E1.08006
G1 X0.398 Y0.867 E1.28952
G1 X0.873 Y0.867 E1.33004
G1 X-0.861 Y-0.867 E1.53950
G1 X-0.387 Y-0.867 E1.58002
G1 X1.347 Y0.867 E1.78948
G1 X1.821 Y0.867 E1.83000
G1 X0.087 Y-0.867 E2.03946
G1 X0.562 Y-0.867 E2.07998
G1 X2.296 Y0.867 E2.28945
G1 X2.632 Y0.729 E2.32050
G1 X1.036 Y-0.867 E2.51332
G1 X1.510 Y-0.867 E2.55383
G1 X2.632 Y0.255 E2.68936
G1 X2.632 Y-0.219 E2.72987
G1 X1.985 Y-0.867 E2.80810
G1 X2.459 Y-0.867 E2.84861
G1 X2.632 Y-0.694 E2.86954
G92 E0
G1 Z0.400 F1200.000
G1 X2.563 Y0.867 F1200.000
G1 X2.736 Y0.694 E0.02015 F743.297
G1 X2.736 Y0.237 E0.05769
G1 X2.106 Y0.867 E0.13094
G1 X1.650 Y0.867 E0.16849
G1 X2.736 Y-0.219 E0.29483
G1 X2.736 Y-0.676 E0.33238
G1 X1.193 Y0.867 E0.51182
G1 X0.736 Y0.867 E0.54936
G1 X2.471 Y-0.867 E0.75101
G1 X2.014 Y-0.867 E0.78855
G1 X0.280 Y0.867 E0.99020
G1 X-0.177 Y0.867 E1.02774
G1 X1.557 Y-0.867 E1.22939
G1 X1.101 Y-0.867 E1.26693
G1 X-0.633 Y0.867 E1.46858
G1 X-1.090 Y0.867 E1.50613
G1 X0.644 Y-0.867 E1.70777
G1 X0.187 Y-0.867 E1.74532
G1 X-1.547 Y0.867 E1.94696
G1 X-2.003 Y0.867 E1.98451
G1 X-0.269 Y-0.867 E2.18615
G1 X-0.726 Y-0.867 E2.22370
G1 X-2.460 Y0.867 E2.42534
G1 X-2.726 Y0.676 E2.45225
G1 X-1.182 Y-0.867 E2.63168
G1 X-1.639 Y-0.867 E2.66923
G1 X-2.726 Y0.219 E2.79557
G1 X-2.726 Y-0.237 E2.83312
G1 X-2.096 Y-0.867 E2.90636
G1 X-2.552 Y-0.867 E2.94391
G1 X-2.726 Y-0.694 E2.96406
G92 E0
G1 Z0.500 F1200.000
G1 X1.396 Y0.694 F1200.000
G1 X1.569 Y0.867 E0.02083 F719.011
G1 X2.041 Y0.867 E0.06095
G1 X1.396 Y0.222 E0.13853
G1 X1.396 Y-0.250 E0.17865
G1 X2.513 Y0.867 E0.31297
G1 X2.840 Y0.722 E0.34339
G1 X1.396 Y-0.722 E0.51706
G1 X1.723 Y-0.867 E0.54748
G1 X2.840 Y0.250 E0.68180
G1 X2.840 Y-0.222 E0.72192
G1 X2.195 Y-0.867 E0.79950
G1 X2.667 Y-0.867 E0.83962
G1 X2.840 Y-0.694 E0.86045
G92 E0
G1 X1.325 Y-0.938 F1200.000
G1 X1.325 Y-0.938 F1200.000
G1 X-0.012 Y-0.938 F1200.000
G1 X-1.349 Y-0.938 F1200.000
G1 X-1.419 Y-0.694 F1200.000
G1 X-1.592 Y-0.867 E0.02058 F727.658
G1 X-2.059 Y-0.867 E0.05976
G1 X-1.419 Y-0.227 E0.13575
G1 X-1.419 Y0.239 E0.17492
G1 X-2.525 Y-0.867 E0.30631
G1 X-2.830 Y-0.706 E0.33529
G1 X-1.419 Y0.706 E0.50290
G1 X-1.724 Y0.867 E0.53188
G1 X-2.830 Y-0.239 E0.66327
G1 X-2.830 Y0.227 E0.70245
G1 X-2.191 Y0.867 E0.77843
G1 X-2.657 Y0.867 E0.81761
G1 X-2.830 Y0.694 E0.83819
G92 E0
G1 Z0.600 F1200.000
G1 X1.406 Y-0.867 F1200.000
G1 X1.233 Y-0.694 E0.02279 F657.107
G1 X1.233 Y-0.177 E0.07083
G1 X1.922 Y-0.867 E0.16156
G1 X2.439 Y-0.867 E0.20960
G1 X1.233 Y0.339 E0.36827
G1 X1.247 Y0.841 E0.41500
G1 X2.930 Y-0.841 E0.63635
G1 X2.944 Y-0.339 E0.68307
G1 X1.738 Y0.867 E0.84174
G1 X2.254 Y0.867 E0.88978
G1 X2.944 Y0.177 E0.98052
G1 X2.944 Y0.694 E1.02856
G1 X2.771 Y0.867 E1.05135
G92 E0
G1 X1.162 Y0.938 F1200.000
G1 X1.162 Y0.938 F1200.000
G1 X-0.014 Y0.938 F1200.000
G1 X-1.191 Y0.938 F1200.000
G1 X-1.435 Y0.867 F1200.000
G1 X-1.261 Y0.694 E0.02251 F665.270
G1 X-1.261 Y0.184 E0.06938
G1 X-1.945 Y0.867 E0.15818
G1 X-2.455 Y0.867 E0.20505
G1 X-1.261 Y-0.327 E0.36012
G1 X-1.266 Y-0.832 E0.40655
G1 X-2.930 Y0.832 E0.62271
G1 X-2.935 Y0.327 E0.66914
G1 X-1.741 Y-0.867 E0.82421
G1 X-2.252 Y-0.867 E0.87108
G1 X-2.935 Y-0.184 E0.95988
G1 X-2.935 Y-0.694 E1.00675
G1 X-2.762 Y-0.867 E1.02926
G92 E0
G1 Z0.700 F1200.000
G1 X1.303 Y0.867 F1200.000
G1 X1.129 Y0.694 E0.02084 F718.583
G1 X1.129 Y0.221 E0.06101
G1 X1.775 Y0.867 E0.13867
G1 X2.247 Y0.867 E0.17884
G1 X1.129 Y-0.251 E0.31331
G1 X1.129 Y-0.723 E0.35348
G1 X2.720 Y0.867 E0.54476
G1 X3.048 Y0.723 E0.57525
G1 X1.458 Y-0.867 E0.76653
G1 X1.930 Y-0.867 E0.80670
G1 X3.048 Y0.251 E0.94117
G1 X3.048 Y-0.221 E0.98134
G1 X2.403 Y-0.867 E1.05900
G1 X2.875 Y-0.867 E1.09917
G1 X3.048 Y-0.694 E1.12001
G92 E0
G1 X1.059 Y-0.938 F1200.000
G1 X1.059 Y-0.938 F1200.000
G1 X-0.020 Y-0.938 F1200.000
G1 X-1.100 Y-0.938 F1200.000
G1 X-1.170 Y-0.694 F1200.000
G1 X-1.343 Y-0.867 E0.02053 F729.428
G1 X-1.809 Y-0.867 E0.05952
G1 X-1.170 Y-0.228 E0.13519
G1 X-1.170 Y0.237 E0.17417
G1 X-2.274 Y-0.867 E0.30498
G1 X-2.739 Y-0.867 E0.34396
G1 X-1.170 Y0.702 E0.52990
G1 X-1.471 Y0.867 E0.55861
G1 X-3.040 Y-0.702 E0.74455
G1 X-3.040 Y-0.237 E0.78354
G1 X-1.936 Y0.867 E0.91434
G1 X-2.401 Y0.867 E0.95333
G1 X-3.040 Y0.228 E1.02899
G1 X-3.040 Y0.694 E1.06798
G1 X-2.866 Y0.867 E1.08851
G92 E0
G1 Z0.800 F1200.000
G1 X1.040 Y-0.694 F1200.000
G1 X1.213 Y-0.867 E0.02206 F678.787
G1 X1.713 Y-0.867 E0.06708
G1 X1.040 Y-0.194 E0.15282
G1 X1.040 Y0.306 E0.19784
G1 X2.213 Y-0.867 E0.34724
G1 X2.713 Y-0.867 E0.39226
G1 X1.040 Y0.806 E0.60533
G1 X1.479 Y0.867 E0.64526
G1 X3.152 Y-0.806 E0.85833
G1 X3.152 Y-0.306 E0.90335
G1 X1.979 Y0.867 E1.05275
G1 X2.479 Y0.867 E1.09777
G1 X3.152 Y0.194 E1.18350
G1 X3.152 Y0.694 E1.22852
G1 X2.979 Y0.867 E1.25059
G92 E0
G1 X0.969 Y0.938 F1200.000
G1 X0.969 Y0.938 F1200.000
G1 X-0.035 Y0.938 F1200.000
G1 X-1.039 Y0.938 F1200.000
G1 X-1.283 Y0.867 F1200.000
G1 X-1.110 Y0.694 E0.02157 F694.247
G1 X-1.110 Y0.205 E0.06461
G1 X-1.772 Y0.867 E0.14705
G1 X-2.261 Y0.867 E0.19009
G1 X-1.110 Y-0.284 E0.33339
G1 X-1.110 Y-0.773 E0.37643
G1 X-2.750 Y0.867 E0.58059
G1 X-3.144 Y0.773 E0.61632
G1 X-1.504 Y-0.867 E0.82048
G1 X-1.993 Y-0.867 E0.86352
G1 X-3.144 Y0.284 E1.00682
G1 X-3.144 Y-0.205 E1.04986
G1 X-2.482 Y-0.867 E1.13230
G1 X-2.971 Y-0.867 E1.17533
G1 X-3.144 Y-0.694 E1.19691
G92 E0
G1 Z0.900 F1200.000
G1 X0.903 Y0.694 F1200.000
G1 X1.076 Y0.867 E0.02063 F725.875
G1 X1.544 Y0.867 E0.06000
G1 X0.903 Y0.226 E0.13631
G1 X0.903 Y-0.241 E0.17568
G1 X2.011 Y0.867 E0.30766
G1 X2.479 Y0.867 E0.34703
G1 X0.903 Y-0.709 E0.53469
G1 X1.212 Y-0.867 E0.56396
G1 X2.947 Y0.867 E0.77044
G1 X3.256 Y0.709 E0.79970
G1 X1.680 Y-0.867 E0.98736
G1 X2.148 Y-0.867 E1.02673
G1 X3.256 Y0.241 E1.15872
G1 X3.256 Y-0.226 E1.19809
G1 X2.615 Y-0.867 E1.27440
G1 X3.083 Y-0.867 E1.31377
G1 X3.256 Y-0.694 E1.33440
G92 E0
G1 X0.833 Y-0.938 F1200.000
G1 X0.833 Y-0.938 F1200.000
G1 X-0.079 Y-0.938 F1200.000
G1 X-0.990 Y-0.938 F1200.000
G1 X-1.060 Y-0.694 F1200.000
G1 X-1.233 Y-0.867 E0.01973 F759.164
G1 X-1.680 Y-0.867 E0.05572
G1 X-1.060 Y-0.247 E0.12635
G1 X-1.060 Y0.200 E0.16234
G1 X-2.128 Y-0.867 E0.28387
G1 X-2.575 Y-0.867 E0.31986
G1 X-1.060 Y0.647 E0.49229
G1 X-1.288 Y0.867 E0.51775
G1 X-3.022 Y-0.867 E0.71518
G1 X-3.249 Y-0.647 E0.74063
G1 X-1.735 Y0.867 E0.91306
G1 X-2.182 Y0.867 E0.94906
G1 X-3.249 Y-0.200 E1.07058
G1 X-3.249 Y0.247 E1.10658
G1 X-2.629 Y0.867 E1.17721
G1 X-3.076 Y0.867 E1.21320
G1 X-3.249 Y0.694 E1.23293
G92 E0
G1 Z1.000 F1200.000
G1 X0.710 Y-0.694 F1200.000
G1 X0.884 Y-0.867 E0.01979 F756.611
G1 X1.332 Y-0.867 E0.05603
G1 X0.710 Y-0.245 E0.12707
G1 X0.710 Y0.203 E0.16330
G1 X1.781 Y-0.867 E0.28559
G1 X2.229 Y-0.867 E0.32182
G1 X0.710 Y0.652 E0.49535
G1 X0.944 Y0.867 E0.52100
G1 X2.678 Y-0.867 E0.71909
G1 X3.127 Y-0.867 E0.75533
G1 X1.392 Y0.867 E0.95343
G1 X1.841 Y0.867 E0.98966
G1 X3.360 Y-0.652 E1.16319
G1 X3.360 Y-0.203 E1.19943
G1 X2.290 Y0.867 E1.32171
G1 X2.738 Y0.867 E1.35795
G1 X3.360 Y0.245 E1.42899
G1 X3.360 Y0.694 E1.46522
G1 X3.187 Y0.867 E1.48502
G92 E0
G1 X0.640 Y0.938 F1200.000
G1 X0.640 Y0.938 F1200.000
G1 X-0.145 Y0.938 F1200.000
G1 X-0.929 Y0.938 F1200.000
G1 X-1.173 Y0.867 F1200.000
G1 X-1.000 Y0.694 E0.02064 F725.667
G1 X-1.000 Y0.226 E0.06003
G1 X-1.641 Y0.867 E0.13638
G1 X-2.108 Y0.867 E0.17577
G1 X-1.000 Y-0.242 E0.30782
G1 X-1.000 Y-0.709 E0.34722
G1 X-2.576 Y0.867 E0.53498
G1 X-3.044 Y0.867 E0.57437
G1 X-1.310 Y-0.867 E0.78092
G1 X-1.777 Y-0.867 E0.82031
G1 X-3.354 Y0.709 E1.00807
G1 X-3.354 Y0.242 E1.04746
G1 X-2.245 Y-0.867 E1.17952
G1 X-2.713 Y-0.867 E1.21891
G1 X-3.354 Y-0.226 E1.29525
G1 X-3.354 Y-0.694 E1.33465
G1 X-3.181 Y-0.867 E1.35528
G92 E0
G1 Z1.100 F1200.000
G1 X0.775 Y0.867 F1200.000
G1 X0.602 Y0.694 E0.02084 F718.775
G1 X0.602 Y0.222 E0.06099
G1 X1.247 Y0.867 E0.13861
G1 X1.719 Y0.867 E0.17876
G1 X0.602 Y-0.251 E0.31315
G1 X0.602 Y-0.723 E0.35331
G1 X2.192 Y0.867 E0.54449
G1 X2.664 Y0.867 E0.58464
G1 X0.930 Y-0.867 E0.79316
G1 X1.402 Y-0.867 E0.83331
G1 X3.136 Y0.867 E1.04184
G1 X3.464 Y0.723 E1.07230
G1 X1.874 Y-0.867 E1.26348
G1 X2.346 Y-0.867 E1.30363
G1 X3.464 Y0.251 E1.43803
G1 X3.464 Y-0.222 E1.47818
G1 X2.819 Y-0.867 E1.55580
G1 X3.291 Y-0.867 E1.59595
G1 X3.464 Y-0.694 E1.61679
G92 E0
G1 X0.531 Y-0.938 F1200.000
G1 X0.531 Y-0.938 F1200.000
G1 X-0.163 Y-0.938 F1200.000
G1 X-0.857 Y-0.938 F1200.000
G1 X-0.927 Y-0.694 F1200.000
G1 X-1.100 Y-0.867 E0.02162 F692.820
G1 X-1.590 Y-0.867 E0.06483
G1 X-0.927 Y-0.204 E0.14757
G1 X-0.927 Y0.286 E0.19078
G1 X-2.080 Y-0.867 E0.33463
G1 X-2.570 Y-0.867 E0.37785
G1 X-0.927 Y0.776 E0.58281
G1 X-1.326 Y0.867 E0.61889
G1 X-3.060 Y-0.867 E0.83523
G1 X-3.459 Y-0.776 E0.87131
G1 X-1.816 Y0.867 E1.07627
G1 X-2.306 Y0.867 E1.11949
G1 X-3.459 Y-0.286 E1.26334
G1 X-3.459 Y0.204 E1.30655
G1 X-2.795 Y0.867 E1.38928
G1 X-3.285 Y0.867 E1.43250
G1 X-3.459 Y0.694 E1.45412
G92 E0
G1 Z1.200 F1200.000
G1 X0.534 Y-0.694 F1200.000
G1 X0.707 Y-0.867 E0.02168 F690.811
G1 X1.198 Y-0.867 E0.06515
G1 X0.534 Y-0.202 E0.14830
G1 X0.534 Y0.289 E0.19177
G1 X1.690 Y-0.867 E0.33639
G1 X2.181 Y-0.867 E0.37986
G1 X0.534 Y0.780 E0.58595
G1 X0.938 Y0.867 E0.62255
G1 X2.672 Y-0.867 E0.83951
G1 X3.164 Y-0.867 E0.88298
G1 X1.429 Y0.867 E1.09995
G1 X1.921 Y0.867 E1.14341
G1 X3.568 Y-0.780 E1.34951
G1 X3.568 Y-0.289 E1.39298
G1 X2.412 Y0.867 E1.53760
G1 X2.903 Y0.867 E1.58107
G1 X3.568 Y0.202 E1.66422
G1 X3.568 Y0.694 E1.70769
G1 X3.395 Y0.867 E1.72937
G92 E0
G1 X0.463 Y0.938 F1200.000
G1 X0.463 Y0.938 F1200.000
G1 X-0.152 Y0.938 F1200.000
G1 X-0.768 Y0.938 F1200.000
G1 X-1.011 Y0.867 F1200.000
G1 X-0.838 Y0.694 E0.02017 F742.730
G1 X-0.838 Y0.237 E0.05777
G1 X-1.468 Y0.867 E0.13111
G1 X-1.925 Y0.867 E0.16871
G1 X-0.838 Y-0.220 E0.29523
G1 X-0.838 Y-0.677 E0.33284
G1 X-2.382 Y0.867 E0.51253
G1 X-2.839 Y0.867 E0.55014
G1 X-1.105 Y-0.867 E0.75194
G1 X-1.562 Y-0.867 E0.78954
G1 X-3.296 Y0.867 E0.99134
G1 X-3.563 Y0.677 E1.01830
G1 X-2.019 Y-0.867 E1.19800
G1 X-2.476 Y-0.867 E1.23560
G1 X-3.563 Y0.220 E1.36212
G1 X-3.563 Y-0.237 E1.39973
G1 X-2.933 Y-0.867 E1.47307
G1 X-3.390 Y-0.867 E1.51067
G1 X-3.563 Y-0.694 E1.53084
G92 E0
G1 Z1.300 F1200.000
G1 X0.482 Y0.694 F1200.000
G1 X0.655 Y0.867 E0.02020 F741.470
G1 X1.113 Y0.867 E0.05793
G1 X0.482 Y0.236 E0.13149
G1 X0.482 Y-0.222 E0.16922
G1 X1.571 Y0.867 E0.29613
G1 X2.029 Y0.867 E0.33386
G1 X0.482 Y-0.679 E0.51414
G1 X0.752 Y-0.867 E0.54125
G1 X2.486 Y0.867 E0.74339
G1 X2.944 Y0.867 E0.78112
G1 X1.210 Y-0.867 E0.98326
G1 X1.668 Y-0.867 E1.02099
G1 X3.402 Y0.867 E1.22314
G1 X3.672 Y0.679 E1.25025
G1 X2.125 Y-0.867 E1.43052
G1 X2.583 Y-0.867 E1.46825
G1 X3.672 Y0.222 E1.59517
G1 X3.672 Y-0.236 E1.63290
G1 X3.041 Y-0.867 E1.70646
G1 X3.499 Y-0.867 E1.74419
G1 X3.672 Y-0.694 E1.76439
G92 E0
G1 X0.412 Y-0.938 F1200.000
G1 X0.412 Y-0.938 F1200.000
G1 X-0.122 Y-0.938 F1200.000
G1 X-0.656 Y-0.938 F1200.000
G1 X-0.726 Y-0.694 F1200.000
G1 X-0.899 Y-0.867 E0.02123 F705.562
G1 X-1.380 Y-0.867 E0.06290
G1 X-0.726 Y-0.213 E0.14305
G1 X-0.726 Y0.268 E0.18472
G1 X-1.862 Y-0.867 E0.32380
G1 X-2.343 Y-0.867 E0.36547
