; generated by Slic3r 1.2.9 on 2019-12-04 at 15:13:55

; external perimeters extrusion width = 0.20mm
; perimeters extrusion width = 0.34mm
; infill extrusion width = 0.34mm
; solid infill extrusion width = 0.34mm
; top infill extrusion width = 0.34mm

M104 S200 ; set temperature
G28 ; home all axes
M109 S200 ; wait for temperature to be reached
G21 ; set units to millimeters
G90 ; use absolute coordinates
M82 ; use absolute distances for extrusion
G92 E0
G1 Z0.100 F1200.000
G1 X0.920 Y-0.323 F1200.000
G1 X1.116 Y-0.127 E0.00031 F1200.000
G1 X1.526 Y-0.174 F1200.000
G1 X1.151 Y-0.548 E0.00090 F1200.000
G1 X1.443 Y-0.713 E0.00127
G1 X3.822 Y1.666 E0.00501
G1 X4.050 Y1.438 E0.00537
G1 X1.747 Y-0.866 E0.00899
G1 X1.995 Y-1.073 E0.00935
G1 X4.278 Y1.210 E0.01293
G1 X4.507 Y0.982 E0.01329
G1 X2.189 Y-1.336 E0.01693
G1 X2.322 Y-1.659 E0.01732
G1 X4.735 Y0.753 E0.02111
G1 X4.963 Y0.525 E0.02147
G1 X2.126 Y-2.312 E0.02593
G1 X1.845 Y-2.137 E0.02630
G1 X2.190 Y-1.791 E0.02684
G1 X1.833 Y-1.692 E0.02725
G1 X1.532 Y-1.993 E0.02773
G1 X1.246 Y-1.823 F1200.000
G1 X1.466 Y-1.603 E0.02807 F1200.000
G1 X1.206 Y-2.776 F1200.000
G1 X1.416 Y-2.566 E0.02840 F1200.000
G1 X1.752 Y-2.685 E0.02880
G1 X1.396 Y-3.042 E0.02936
G1 X1.728 Y-3.166 E0.02975
G1 X2.110 Y-2.784 E0.03035
G1 X2.327 Y-2.567 F1200.000
G1 X5.191 Y0.297 E0.03485 F1200.000
G1 X5.419 Y0.069 E0.03521
G1 X2.094 Y-3.256 E0.04044
G1 X2.270 Y-3.537 F1200.000
G1 X5.648 Y-0.159 E0.04574 F1200.000
G1 X5.649 Y-0.615 E0.04625
G1 X2.230 Y-4.033 E0.05162
G1 X2.497 Y-4.223 E0.05199
G1 X5.649 Y-1.071 E0.05694
G1 X5.649 Y-1.527 E0.05744
G1 X2.693 Y-4.483 E0.06209
G1 X2.847 Y-4.785 E0.06247
G1 X5.649 Y-1.984 E0.06687
G1 X5.649 Y-2.440 E0.06738
G1 X2.939 Y-5.150 E0.07163
G1 X2.719 Y-5.370 F1200.000
G1 X0.817 Y-7.272 E0.07462 F1200.000
G1 X1.115 Y-7.431 E0.07500
G1 X5.649 Y-2.896 E0.08212
G1 X5.649 Y-3.353 E0.08263
G1 X1.373 Y-7.629 E0.08935
G1 X1.597 Y-7.861 E0.08971
G1 X5.649 Y-3.809 E0.09607
G1 X5.649 Y-4.266 E0.09658
G1 X1.707 Y-8.208 E0.10277
G1 X1.827 Y-8.544 E0.10317
G1 X5.649 Y-4.722 E0.10918
G1 X5.649 Y-5.178 E0.10968
G1 X2.284 Y-8.544 E0.11497
G1 X2.740 Y-8.544 E0.11548
G1 X5.649 Y-5.635 E0.12005
G1 X5.649 Y-6.091 F1200.000
G1 X4.766 Y-6.974 E0.12144 F1200.000
G1 X2.438 Y-5.194 F1200.000
G1 X0.633 Y-6.999 E0.12427 F1200.000
G1 X0.524 Y-6.653 E0.12468
G1 X2.158 Y-5.019 E0.12724
G1 X1.877 Y-4.843 E0.12761
G1 X0.492 Y-6.228 E0.12979
G1 X-0.573 Y-6.380 F1200.000
G1 X-2.737 Y-8.544 E0.13319 F1200.000
G1 X-3.193 Y-8.544 E0.13370
G1 X-0.498 Y-5.849 E0.13793
G1 X-0.495 Y-5.390 E0.13844
G1 X-3.455 Y-8.350 E0.14309
G1 X-3.689 Y-8.127 E0.14345
G1 X-0.496 Y-4.934 E0.14847
G1 X-0.498 Y-4.479 E0.14897
G1 X-3.922 Y-7.904 E0.15435
G1 X-4.156 Y-7.681 E0.15471
G1 X-0.499 Y-4.024 E0.16046
G1 X-1.326 Y-4.394 F1200.000
G1 X-4.389 Y-7.458 E0.16527 F1200.000
G1 X-4.623 Y-7.235 E0.16563
G1 X-1.868 Y-4.480 E0.16996
G1 X-2.569 Y-3.812 F1200.000
G1 X-5.316 Y-6.559 E0.17428 F1200.000
G1 X-5.088 Y-6.787 E0.17463
G1 X-2.916 Y-4.615 E0.17805
G1 X-2.847 Y-5.002 F1200.000
G1 X-4.856 Y-7.012 E0.18120 F1200.000
G1 X-5.544 Y-6.331 F1200.000
G1 X-2.265 Y-3.051 E0.18636 F1200.000
G1 X-2.042 Y-3.285 E0.18672
G1 X-2.599 Y-3.842 E0.18759
G1 X-2.735 Y-3.066 F1200.000
G1 X-5.649 Y-5.979 E0.19217 F1200.000
G1 X-5.649 Y-5.523 E0.19268
G1 X-3.192 Y-3.066 E0.19654
G1 X-3.648 Y-3.066 E0.19705
G1 X-5.649 Y-5.066 E0.20019
G1 X-5.649 Y-4.610 E0.20070
G1 X-4.104 Y-3.066 E0.20312
G1 X-4.561 Y-3.066 E0.20363
G1 X-5.649 Y-4.154 E0.20534
G1 X-5.649 Y-3.697 E0.20585
G1 X-5.017 Y-3.066 E0.20684
G1 X-5.473 Y-3.066 E0.20735
G1 X-5.649 Y-3.241 E0.20762
G92 E0
G1 X-4.718 Y-3.996 F1200.000
G1 X-4.718 Y-3.996 F1200.000
G1 X-4.012 Y-1.754 F1200.000
G1 X-1.933 Y0.326 E0.00327 F1200.000
G1 X-1.559 Y0.249 E0.00369
G1 X-3.787 Y-1.979 E0.00719
G1 X-3.555 Y-2.199 E0.00755
G1 X-1.007 Y0.349 E0.01155
G1 X-1.036 Y1.223 F1200.000
G1 X-1.526 Y0.733 E0.01232 F1200.000
G1 X-1.590 Y1.120 E0.01276
G1 X-4.238 Y-1.528 E0.01692
G1 X-4.464 Y-1.302 E0.01727
G1 X-2.294 Y0.868 E0.02068
G1 X-2.375 Y1.238 F1200.000
G1 X-4.690 Y-1.076 E0.02432 F1200.000
G1 X-4.915 Y-0.851 E0.02468
G1 X-1.042 Y3.023 E0.03076
G1 X-1.618 Y2.899 E0.03142
G1 X-5.141 Y-0.625 E0.03695
G1 X-5.647 Y0.224 F1200.000
G1 X-1.502 Y4.369 E0.04346 F1200.000
G1 X-1.040 Y4.831 F1200.000
G1 X-0.689 Y5.182 E0.04402 F1200.000
G1 X-1.120 Y5.202 E0.04450
G1 X-5.647 Y0.676 E0.05161
G1 X-5.647 Y1.127 E0.05211
G1 X-0.737 Y6.037 E0.05983
G1 X-0.437 Y6.789 F1200.000
G1 X-5.647 Y1.579 E0.06801 F1200.000
G1 X-5.647 Y2.030 E0.06851
G1 X0.866 Y8.543 E0.07875
G1 X0.414 Y8.543 E0.07925
G1 X-5.647 Y2.482 E0.08877
G1 X-5.647 Y2.933 E0.08927
G1 X-0.037 Y8.543 E0.09809
G1 X-0.489 Y8.543 E0.09859
G1 X-5.647 Y3.385 E0.10669
G1 X-5.647 Y3.836 E0.10720
G1 X-0.941 Y8.543 E0.11459
G1 X-1.392 Y8.543 E0.11509
G1 X-5.647 Y4.288 E0.12178
G1 X-5.647 Y4.739 E0.12228
G1 X-1.844 Y8.543 E0.12826
G1 X-2.295 Y8.543 E0.12876
G1 X-5.647 Y5.191 E0.13402
G1 X-5.647 Y5.642 E0.13452
G1 X-2.747 Y8.543 E0.13908
G1 X-5.071 Y6.670 F1200.000
G1 X-5.647 Y6.094 E0.13999 F1200.000
G1 X-2.308 Y3.111 F1200.000
G1 X-5.593 Y-0.173 E0.14515 F1200.000
G1 X-5.367 Y-0.399 E0.14550
G1 X-2.124 Y2.844 E0.15060
G1 X-2.146 Y3.273 F1200.000
G1 X-1.061 Y4.359 E0.15230 F1200.000
G1 X-0.911 Y4.057 E0.15268
G1 X-0.558 Y4.410 E0.15323
G1 X0.879 Y4.492 F1200.000
G1 X4.102 Y7.715 E0.15830 F1200.000
G1 X4.332 Y7.494 E0.15865
G1 X1.183 Y4.345 E0.16360
G1 X1.453 Y4.163 F1200.000
G1 X4.563 Y7.274 E0.16849 F1200.000
G1 X4.794 Y7.053 E0.16884
G1 X1.290 Y3.548 E0.17435
G1 X1.571 Y3.378 E0.17472
G1 X5.024 Y6.831 E0.18014
G1 X5.250 Y6.605 E0.18050
G1 X1.822 Y3.178 E0.18588
G1 X2.047 Y2.951 E0.18624
G1 X5.475 Y6.380 E0.19163
G1 X5.628 Y6.081 E0.19200
G1 X2.261 Y2.713 E0.19729
G1 X2.402 Y2.855 E0.19751
G1 X2.746 Y2.747 E0.19791
G1 X5.628 Y5.630 E0.20244
G1 X5.628 Y5.178 E0.20294
G1 X3.198 Y2.747 E0.20676
G1 X3.649 Y2.747 E0.20727
G1 X5.628 Y4.727 E0.21038
G1 X5.628 Y4.275 E0.21088
G1 X4.101 Y2.747 E0.21328
G1 X4.552 Y2.747 E0.21378
G1 X5.628 Y3.824 E0.21547
G1 X5.628 Y3.372 E0.21597
G1 X5.004 Y2.747 E0.21695
G1 X5.455 Y2.747 E0.21746
G1 X5.628 Y2.921 E0.21773
G92 E0
G1 X3.401 Y3.677 F1200.000
G1 X3.401 Y3.677 F1200.000
G1 X1.951 Y1.621 F1200.000
G1 X2.259 Y1.929 E0.00048 F1200.000
G1 X2.715 Y1.929 E0.00099
G1 X2.160 Y1.373 E0.00186
G1 X2.309 Y1.066 E0.00224
G1 X3.172 Y1.929 E0.00360
G1 X3.594 Y1.894 E0.00407
G1 X1.816 Y0.116 E0.00686
G1 X1.546 Y0.303 F1200.000
G1 X1.969 Y0.726 E0.00753 F1200.000
G1 X1.627 Y0.841 F1200.000
G1 X1.232 Y0.445 E0.00815 F1200.000
G1 X0.987 Y0.657 E0.00851
G1 X1.295 Y0.965 E0.00899
G1 X0.965 Y2.419 F1200.000
G1 X1.188 Y2.642 E0.00934 F1200.000
G1 X0.980 Y3.690 F1200.000
G1 X1.232 Y3.943 E0.00974 F1200.000
G1 X0.996 Y5.061 F1200.000
G1 X3.871 Y7.936 E0.01426 F1200.000
G1 X3.640 Y8.156 E0.01461
G1 X0.752 Y5.269 E0.01915
G1 X0.741 Y5.709 E0.01964
G1 X3.409 Y8.377 E0.02383
G1 X3.123 Y8.543 E0.02420
G1 X0.494 Y5.913 E0.02833
G1 X0.621 Y6.492 E0.02899
G1 X2.672 Y8.543 E0.03221
G1 X2.220 Y8.543 E0.03271
G1 X0.251 Y6.573 E0.03581
G1 X0.196 Y6.970 F1200.000
G1 X1.769 Y8.543 E0.03828 F1200.000
G1 X1.317 Y8.543 E0.03878
G1 X0.075 Y7.300 E0.04073
G92 E0
G1 X-2.956 Y2.258 F1200.000
G1 X-3.900 Y2.217 F1200.000
G1 X-4.001 Y1.427 F1200.000
G1 X-4.026 Y0.569 F1200.000
G1 X-4.018 Y0.548 F1200.000
G1 X-3.346 Y0.255 F1200.000
G1 X-1.193 Y-1.191 F1200.000
G1 X-1.624 Y-1.623 E0.00068 F1200.000
G1 X-1.228 Y-2.367 F1200.000
G1 X-1.571 Y-2.709 E0.00122 F1200.000
G1 X-2.013 Y-2.460 E0.00178
G1 X-2.190 Y-2.636 E0.00206
G1 X-2.652 Y-2.199 F1200.000
G1 X-1.524 Y-1.071 E0.00383 F1200.000
G1 X-2.001 Y-1.097 E0.00436
G1 X-3.103 Y-2.199 E0.00609
G92 E0
G1 X-1.426 Y-5.326 F1200.000
G1 X-1.426 Y-5.326 F1200.000
G1 X0.470 Y-4.881 F1200.000
G1 X0.724 Y-4.627 E0.00040 F1200.000
G1 X1.024 Y-4.783 E0.00078
G1 X0.465 Y-5.342 E0.00165
G1 X0.478 Y-5.785 E0.00215
G1 X1.470 Y-4.793 E0.00371
G1 X1.803 Y-8.112 F1200.000
G1 X1.371 Y-8.544 E0.00439 F1200.000
G1 X1.347 Y-8.112 E0.00487
G1 X0.914 Y-8.544 E0.00554
G1 X0.890 Y-8.112 E0.00603
G1 X0.458 Y-8.544 E0.00670
G1 X0.435 Y-8.110 E0.00719
G1 X0.002 Y-8.544 E0.00787
G1 X-0.018 Y-8.107 E0.00835
G1 X-0.455 Y-8.544 E0.00904
G1 X-0.472 Y-8.104 E0.00953
G1 X-0.911 Y-8.544 E0.01022
G1 X-0.923 Y-8.099 E0.01071
G1 X-1.367 Y-8.544 E0.01141
G1 X-1.374 Y-8.093 E0.01191
G1 X-1.824 Y-8.544 E0.01262
G1 X-2.280 Y-8.544 E0.01313
G1 X-1.727 Y-7.991 E0.01400
G92 E0
G1 Z0.200 F1200.000
G1 X-1.635 Y-7.855 F1200.000
G1 X-5.648 Y-3.843 E0.02522 F763.944
G1 X-5.648 Y-3.393 E0.02722
G1 X-1.438 Y-7.603 E0.05368
G1 X-1.273 Y-7.318 E0.05514
G1 X-5.525 Y-3.066 E0.08186
G1 X-5.075 Y-3.066 E0.08386
G1 X-1.074 Y-7.068 E0.10901
G1 X-0.516 Y-6.276 F1200.000
G1 X-2.209 Y-4.583 E0.11965 F763.944
G1 X-2.479 Y-4.762 E0.12109
G1 X-0.625 Y-6.617 E0.13275
G1 X-0.830 Y-6.861 E0.13417
G1 X-2.713 Y-4.979 E0.14600
G1 X-2.919 Y-4.772 F1200.000
G1 X-4.625 Y-3.066 E0.15672 F763.944
G1 X-4.175 Y-3.066 E0.15872
G1 X-2.827 Y-4.415 E0.16720
G1 X-2.683 Y-4.109 E0.16870
G1 X-3.725 Y-3.066 E0.17525
G1 X-3.276 Y-3.066 E0.17725
G1 X-2.483 Y-3.859 E0.18223
G1 X-2.212 Y-3.681 E0.18367
G1 X-2.826 Y-3.066 E0.18753
G1 X-2.420 Y-3.023 E0.18935
G1 X-2.269 Y-3.174 E0.19029
G1 X-1.962 Y-2.870 F1200.000
G1 X-2.127 Y-2.705 E0.19133 F763.944
G1 X-1.853 Y-2.391 E0.19318
G1 X-1.501 Y-2.743 E0.19539
G1 X-1.210 Y-2.445 E0.19724
G1 X-1.443 Y-2.213 E0.19870
G1 X-1.405 Y-1.113 F1200.000
G1 X-1.193 Y-1.325 E0.20004 F763.944
G1 X-1.385 Y-1.578 E0.20145
G1 X-1.915 Y-1.048 E0.20477
G1 X-1.622 Y-0.451 F1200.000
G1 X-5.647 Y3.574 E0.23007 F763.944
G1 X-5.647 Y3.129 E0.23205
G1 X-1.888 Y-0.630 E0.25567
G1 X-2.104 Y-0.859 E0.25707
G1 X-5.647 Y2.684 E0.27934
G1 X-5.647 Y2.239 E0.28132
G1 X-1.693 Y-1.715 E0.30617
G1 X-1.991 Y-1.862 E0.30765
G1 X-5.647 Y1.794 E0.33063
G1 X-5.647 Y1.349 E0.33260
G1 X-2.243 Y-2.055 E0.35400
G1 X-2.401 Y-2.341 E0.35545
G1 X-5.647 Y0.904 E0.37585
G1 X-5.647 Y0.459 E0.37783
G1 X-2.989 Y-2.199 E0.39453
G1 X-3.531 Y-2.102 E0.39698
G1 X-5.647 Y0.014 E0.41028
G1 X-1.713 Y0.530 F1200.000
G1 X-2.141 Y0.958 E0.41297 F763.944
G1 X-1.848 Y1.110 E0.41443
G1 X-1.448 Y0.710 E0.41695
G1 X-1.133 Y0.841 F1200.000
G1 X-1.429 Y1.136 E0.41881 F763.944
G1 X-1.104 Y1.256 E0.42035
G1 X-0.924 Y1.076 E0.42148
G1 X-0.835 Y0.097 F1200.000
G1 X-1.103 Y0.366 E0.42317 F763.944
G1 X-1.440 Y0.258 E0.42474
G1 X-1.067 Y-0.116 E0.42709
G1 X-1.332 Y-0.295 E0.42851
G1 X-5.647 Y4.019 E0.45563
G1 X-5.647 Y4.464 E0.45761
G1 X-2.364 Y1.181 E0.47824
G1 X-2.268 Y1.530 E0.47985
G1 X-5.647 Y4.909 E0.50109
G1 X-5.647 Y5.354 E0.50307
G1 X-2.103 Y1.810 E0.52534
G1 X-1.883 Y2.035 E0.52674
G1 X-5.647 Y5.799 E0.55039
G1 X-5.638 Y6.236 E0.55234
G1 X-2.314 Y2.911 E0.57323
G1 X-2.133 Y3.175 F1200.000
G1 X-5.416 Y6.458 E0.59387 F763.944
G1 X-5.193 Y6.680 E0.59527
G1 X-1.885 Y3.372 E0.61606
G1 X-1.627 Y3.559 E0.61748
G1 X-4.963 Y6.895 E0.63845
G1 X-4.733 Y7.110 E0.63985
G1 X-1.358 Y3.735 E0.66106
G1 X-1.077 Y3.899 E0.66251
G1 X-4.503 Y7.325 E0.68404
G1 X-4.273 Y7.540 E0.68544
G1 X-1.326 Y4.593 E0.70397
G1 X-1.049 Y4.761 E0.70541
G1 X-4.043 Y7.755 E0.72423
G1 X-3.813 Y7.970 E0.72563
G1 X-1.109 Y5.266 E0.74263
G1 X-0.886 Y5.488 E0.74403
G1 X-3.583 Y8.185 E0.76098
G1 X-3.353 Y8.400 E0.76238
G1 X-0.639 Y5.686 E0.77944
G1 X-0.648 Y6.140 F1200.000
G1 X-3.051 Y8.543 E0.79454 F763.944
G1 X-2.606 Y8.543 E0.79652
G1 X-0.394 Y6.331 E0.81042
G1 X-0.399 Y6.781 E0.81242
G1 X-2.161 Y8.543 E0.82349
G1 X-1.716 Y8.543 E0.82547
G1 X-0.191 Y7.018 E0.83505
G1 X-0.091 Y7.363 E0.83665
G1 X-1.271 Y8.543 E0.84406
G1 X-0.826 Y8.543 E0.84604
G1 X4.970 Y2.747 E0.88246
G1 X5.415 Y2.747 E0.88444
G1 X-0.381 Y8.543 E0.92087
G1 X0.064 Y8.543 E0.92284
G1 X5.628 Y2.979 E0.95782
G1 X5.628 Y3.424 E0.95979
G1 X0.509 Y8.543 E0.99197
G1 X0.954 Y8.543 E0.99395
G1 X5.628 Y3.869 E1.02332
G1 X5.628 Y4.314 E1.02530
G1 X1.399 Y8.543 E1.05188
G1 X1.844 Y8.543 E1.05386
G1 X5.628 Y4.758 E1.07765
G1 X5.628 Y5.203 E1.07962
G1 X2.289 Y8.543 E1.10061
G1 X2.734 Y8.543 E1.10259
G1 X5.628 Y5.648 E1.12078
G1 X5.628 Y6.093 E1.12276
G1 X4.844 Y6.878 E1.12769
G1 X0.762 Y5.620 F1200.000
G1 X3.635 Y2.747 E1.14574 F763.944
G1 X3.425 Y1.928 F1200.000
G1 X5.648 Y-0.295 E1.15971 F763.944
G1 X5.648 Y-0.745 E1.16171
G1 X2.975 Y1.928 E1.17851
G1 X2.525 Y1.928 E1.18051
G1 X5.648 Y-1.195 E1.20014
G1 X5.648 Y-1.645 E1.20214
G1 X2.076 Y1.928 E1.22459
G1 X2.280 Y1.273 E1.22764
G1 X5.648 Y-2.094 E1.24881
G1 X5.648 Y-2.544 E1.25080
G1 X2.365 Y0.739 E1.27144
G1 X2.043 Y0.611 F1200.000
G1 X5.648 Y-2.994 E1.29410 F763.944
G1 X5.648 Y-3.444 E1.29610
G1 X1.298 Y0.906 E1.32344
G1 X0.983 Y-0.128 F1200.000
G1 X1.556 Y-0.701 E1.32705 F763.944
G1 X1.468 Y-0.163 E1.32947
G1 X5.648 Y-4.343 E1.35575
G1 X5.648 Y-3.894 E1.35774
G1 X1.909 Y-0.155 E1.38124
G1 X2.301 Y-1.446 F1200.000
G1 X5.648 Y-4.793 E1.40228 F763.944
G1 X5.648 Y-5.243 E1.40428
G1 X2.220 Y-1.815 E1.42582
G1 X1.646 Y-1.691 E1.42844
G1 X5.648 Y-5.693 E1.45359
G1 X5.648 Y-6.143 E1.45559
G1 X2.333 Y-2.827 E1.47643
G1 X1.798 Y-2.742 E1.47884
G1 X5.465 Y-6.409 E1.50188
G1 X5.240 Y-6.634 E1.50330
G1 X2.200 Y-3.594 E1.52240
G1 X1.746 Y-3.141 F1200.000
G1 X1.213 Y-2.607 E1.52576 F763.944
G92 E0
G1 X1.403 Y-5.735 F1200.000
G1 X1.403 Y-5.735 F1200.000
G1 X0.496 Y-4.589 F1200.000
G1 X3.871 Y-7.964 E0.02121 F763.944
G1 X4.100 Y-7.743 E0.02262
G1 X1.169 Y-4.813 E0.04104
G1 X1.608 Y-4.801 E0.04299
G1 X4.329 Y-7.523 E0.06010
G1 X4.558 Y-7.302 E0.06151
G1 X2.669 Y-5.413 E0.07339
G1 X2.958 Y-5.252 F1200.000
G1 X4.788 Y-7.082 E0.08488 F763.944
G1 X5.015 Y-6.859 E0.08630
G1 X2.873 Y-4.717 E0.09976
G92 E0
G1 X1.477 Y-5.720 F1200.000
G1 X1.477 Y-5.720 F1200.000
G1 X1.466 Y-5.785 F1200.000
G1 X1.403 Y-5.735 F1200.000
G1 X0.473 Y-5.016 F1200.000
G1 X3.641 Y-8.184 E0.01991 F763.944
G1 X3.412 Y-8.405 E0.02133
G1 X0.475 Y-5.467 E0.03979
G1 X0.481 Y-5.924 E0.04182
G1 X3.100 Y-8.543 E0.05828
G1 X2.650 Y-8.543 E0.06028
G1 X0.504 Y-6.396 E0.07377
G1 X1.455 Y-6.520 F1200.000
G1 X1.915 Y-6.397 F1200.000
G1 X2.248 Y-6.617 F1200.000
G1 X2.272 Y-6.631 F1200.000
G1 X2.037 Y-6.927 F1200.000
G1 X1.713 Y-8.056 F1200.000
G1 X2.201 Y-8.543 E0.07683 F763.944
G1 X1.751 Y-8.543 E0.07883
G1 X1.321 Y-8.113 E0.08153
G1 X1.301 Y-8.543 E0.08345
G1 X0.871 Y-8.113 E0.08615
G1 X0.851 Y-8.543 E0.08806
G1 X0.420 Y-8.112 E0.09077
G1 X0.401 Y-8.543 E0.09269
G1 X-0.032 Y-8.109 E0.09542
G1 X-0.048 Y-8.543 E0.09735
G1 X-0.485 Y-8.106 E0.10009
G1 X-0.498 Y-8.543 E0.10203
G1 X-0.939 Y-8.102 E0.10480
G1 X-0.948 Y-8.543 E0.10677
G1 X-1.395 Y-8.096 E0.10957
G1 X-1.398 Y-8.543 F1200.000
G1 X-5.648 Y-4.293 E0.13629 F763.944
G1 X-5.648 Y-4.742 E0.13829
G1 X-1.848 Y-8.543 E0.16217
G1 X-2.297 Y-8.543 E0.16417
G1 X-5.648 Y-5.192 E0.18523
G1 X-5.648 Y-5.642 E0.18723
G1 X-2.747 Y-8.543 E0.20546
G1 X-4.882 Y-6.858 F1200.000
G1 X-5.648 Y-6.092 E0.21028 F763.944
G92 E0
G1 X-4.718 Y-5.818 F1200.000
G1 X-4.212 Y-5.601 F1200.000
G1 X-4.190 Y-5.632 F1200.000
G1 X-3.730 Y-5.441 F1200.000
G1 X-1.902 Y-4.440 F1200.000
G1 X-0.498 Y-5.844 E0.00882 F763.944
G1 X-0.496 Y-5.396 E0.01081
G1 X-1.496 Y-4.396 E0.01710
G1 X-1.120 Y-4.323 E0.01880
G1 X-0.498 Y-4.945 E0.02271
G1 X-0.499 Y-4.494 E0.02472
G1 X-0.827 Y-4.165 E0.02678
G92 E0
G1 X-2.963 Y-0.420 F1200.000
G1 X-3.429 Y-0.603 F1200.000
G1 X-3.866 Y-0.369 F1200.000
G1 X-4.026 Y0.569 F1200.000
G1 X-4.015 Y1.175 F1200.000
G1 X-3.314 Y1.151 F1200.000
G1 X-1.610 Y2.207 F1200.000
G1 X-2.245 Y2.842 E0.00399 F763.944
G1 X-1.861 Y2.903 E0.00572
G1 X-1.313 Y2.355 E0.00916
G1 X-1.073 Y2.560 E0.01056
G1 X-1.452 Y2.939 E0.01294
G1 X-1.123 Y3.055 E0.01449
G1 X-0.900 Y2.832 E0.01590
G1 X-0.786 Y4.053 F1200.000
G1 X-1.090 Y4.357 E0.01781 F763.944
G1 X-0.728 Y4.440 E0.01946
G1 X-0.551 Y4.263 E0.02057
G1 X-0.751 Y4.908 F1200.000
G1 X-1.021 Y5.178 E0.02227 F763.944
G1 X0.668 Y4.824 F1200.000
G1 X0.994 Y4.498 E0.02431 F763.944
G1 X1.151 Y4.786 E0.02577
G1 X3.190 Y2.747 E0.03859
G1 X2.745 Y2.747 E0.04056
G1 X1.486 Y4.006 E0.04847
G1 X1.105 Y3.942 E0.05019
G1 X1.605 Y3.442 E0.05334
G1 X1.015 Y2.698 F1200.000
G1 X1.194 Y2.518 E0.05447 F763.944
G92 E0
G1 X1.715 Y5.693 F1200.000
G1 X2.363 Y5.955 F1200.000
