; generated by Slic3r 1.2.9 on 2019-12-04 at 11:47:07

; external perimeters extrusion width = 0.20mm
; perimeters extrusion width = 0.34mm
; infill extrusion width = 0.34mm
; solid infill extrusion width = 0.34mm
; top infill extrusion width = 0.34mm

M104 S200 ; set temperature
G28 ; home all axes
M109 S200 ; wait for temperature to be reached
G21 ; set units to millimeters
G90 ; use absolute coordinates
M82 ; use absolute distances for extrusion
G92 E0
G1 Z0.100 F1800.000
G1 X0.920 Y-0.323 F1800.000
G1 X1.116 Y-0.127 E0.00556 F1800.000
G1 X1.526 Y-0.174 F1800.000
G1 X1.151 Y-0.548 E0.01615 F1800.000
G1 X1.443 Y-0.713 E0.02285
G1 X3.822 Y1.666 E0.09014
G1 X4.050 Y1.438 E0.09659
G1 X1.747 Y-0.866 E0.16174
G1 X1.995 Y-1.073 E0.16822
G1 X4.278 Y1.210 E0.23280
G1 X4.507 Y0.982 E0.23925
G1 X2.189 Y-1.336 E0.30481
G1 X2.322 Y-1.659 E0.31180
G1 X4.735 Y0.753 E0.38004
G1 X4.963 Y0.525 E0.38649
G1 X2.126 Y-2.312 E0.46673
G1 X1.845 Y-2.137 E0.47336
G1 X2.190 Y-1.791 E0.48313
G1 X1.833 Y-1.692 E0.49055
G1 X1.532 Y-1.993 E0.49906
G1 X1.238 Y-1.831 F1800.000
G1 X1.466 Y-1.603 E0.50550 F1800.000
G1 X1.202 Y-2.779 F1800.000
G1 X1.416 Y-2.566 E0.51154 F1800.000
G1 X1.752 Y-2.685 E0.51869
G1 X1.398 Y-3.040 E0.52872
G1 X1.728 Y-3.166 E0.53579
G1 X2.110 Y-2.784 E0.54661
G1 X2.327 Y-2.567 F1800.000
G1 X5.191 Y0.297 E0.62763 F1800.000
G1 X5.419 Y0.069 E0.63408
G1 X2.094 Y-3.256 E0.72813
G1 X2.270 Y-3.537 F1800.000
G1 X5.648 Y-0.159 E0.82365 F1800.000
G1 X5.649 Y-0.615 E0.83275
G1 X2.230 Y-4.033 E0.92944
G1 X2.497 Y-4.223 E0.93599
G1 X5.649 Y-1.071 E1.02513
G1 X5.649 Y-1.527 E1.03426
G1 X2.693 Y-4.483 E1.11786
G1 X2.847 Y-4.785 E1.12465
G1 X5.649 Y-1.984 E1.20389
G1 X5.649 Y-2.440 E1.21302
G1 X2.939 Y-5.150 E1.28967
G1 X2.719 Y-5.370 F1800.000
G1 X0.817 Y-7.272 E1.34345 F1800.000
G1 X1.115 Y-7.431 E1.35020
G1 X5.649 Y-2.896 E1.47845
G1 X5.649 Y-3.353 E1.48758
G1 X1.373 Y-7.629 E1.60852
G1 X1.597 Y-7.861 E1.61498
G1 X5.649 Y-3.809 E1.72957
G1 X5.649 Y-4.266 E1.73870
G1 X1.707 Y-8.208 E1.85019
G1 X1.827 Y-8.544 E1.85733
G1 X5.649 Y-4.722 E1.96543
G1 X5.649 Y-5.178 E1.97455
G1 X2.284 Y-8.544 E2.06974
G1 X2.740 Y-8.544 E2.07887
G1 X5.649 Y-5.635 E2.16114
G1 X5.649 Y-6.091 F1800.000
G1 X4.766 Y-6.974 E2.18611 F1800.000
G1 X2.438 Y-5.194 F1800.000
G1 X0.633 Y-6.999 E2.23717 F1800.000
G1 X0.524 Y-6.653 E2.24444
G1 X2.158 Y-5.019 E2.29066
G1 X1.877 Y-4.843 E2.29729
G1 X0.492 Y-6.228 E2.33645
G1 X-0.573 Y-6.380 F1800.000
G1 X-2.737 Y-8.544 E2.39766 F1800.000
G1 X-3.193 Y-8.544 E2.40679
G1 X-0.498 Y-5.849 E2.48300
G1 X-0.495 Y-5.390 E2.49219
G1 X-3.455 Y-8.350 E2.57591
G1 X-3.689 Y-8.127 E2.58237
G1 X-0.496 Y-4.934 E2.67266
G1 X-0.498 Y-4.479 E2.68176
G1 X-3.922 Y-7.904 E2.77862
G1 X-4.156 Y-7.681 E2.78507
G1 X-0.499 Y-4.024 E2.88849
G1 X-1.326 Y-4.394 F1800.000
G1 X-4.389 Y-7.458 E2.97514 F1800.000
G1 X-4.623 Y-7.235 E2.98160
G1 X-1.868 Y-4.480 E3.05950
G1 X-2.569 Y-3.812 F1800.000
G1 X-5.316 Y-6.559 E3.13721 F1800.000
G1 X-5.088 Y-6.787 E3.14367
G1 X-2.916 Y-4.615 E3.20510
G1 X-2.847 Y-5.002 F1800.000
G1 X-4.856 Y-7.012 E3.26194 F1800.000
G1 X-5.544 Y-6.331 F1800.000
G1 X-2.264 Y-3.051 E3.35470 F1800.000
G1 X-2.042 Y-3.285 E3.36116
G1 X-2.599 Y-3.842 E3.37691
G1 X-2.735 Y-3.066 F1800.000
G1 X-5.649 Y-5.979 E3.45933 F1800.000
G1 X-5.649 Y-5.523 E3.46845
G1 X-3.192 Y-3.066 E3.53796
G1 X-3.648 Y-3.066 E3.54709
G1 X-5.649 Y-5.066 E3.60368
G1 X-5.649 Y-4.610 E3.61281
G1 X-4.104 Y-3.066 E3.65650
G1 X-4.561 Y-3.066 E3.66562
G1 X-5.649 Y-4.154 E3.69640
G1 X-5.649 Y-3.697 E3.70553
G1 X-5.017 Y-3.066 E3.72340
G1 X-5.473 Y-3.066 E3.73253
G1 X-5.649 Y-3.241 E3.73749
G92 E0
G1 X-4.718 Y-3.996 F1800.000
G1 X-4.718 Y-3.996 F1800.000
G1 X-4.012 Y-1.754 F1800.000
G1 X-1.933 Y0.326 E0.05881 F1800.000
G1 X-1.559 Y0.249 E0.06646
G1 X-3.787 Y-1.979 E0.12947
G1 X-3.555 Y-2.199 E0.13586
G1 X-1.007 Y0.349 E0.20792
G1 X-1.036 Y1.223 F1800.000
G1 X-1.526 Y0.733 E0.22178 F1800.000
G1 X-1.590 Y1.120 E0.22963
G1 X-4.238 Y-1.528 E0.30454
G1 X-4.464 Y-1.302 E0.31092
G1 X-2.294 Y0.868 E0.37230
G1 X-2.375 Y1.238 F1800.000
G1 X-4.690 Y-1.076 E0.43777 F1800.000
G1 X-4.915 Y-0.851 E0.44415
G1 X-1.042 Y3.023 E0.55371
G1 X-1.618 Y2.899 E0.56549
G1 X-5.141 Y-0.625 E0.66515
G1 X-5.647 Y0.224 F1800.000
G1 X-1.502 Y4.369 E0.78237 F1800.000
G1 X-1.040 Y4.831 F1800.000
G1 X-0.689 Y5.182 E0.79229 F1800.000
G1 X-1.120 Y5.202 E0.80092
G1 X-5.647 Y0.676 E0.92895
G1 X-5.647 Y1.127 E0.93798
G1 X-0.737 Y6.037 E1.07685
G1 X-0.437 Y6.789 F1800.000
G1 X-5.647 Y1.579 E1.22421 F1800.000
G1 X-5.647 Y2.030 E1.23324
G1 X0.866 Y8.543 E1.41743
G1 X0.414 Y8.543 E1.42646
G1 X-5.647 Y2.482 E1.59788
G1 X-5.647 Y2.933 E1.60691
G1 X-0.037 Y8.543 E1.76556
G1 X-0.489 Y8.543 E1.77459
G1 X-5.647 Y3.385 E1.92047
G1 X-5.647 Y3.836 E1.92950
G1 X-0.941 Y8.543 E2.06261
G1 X-1.392 Y8.543 E2.07164
G1 X-5.647 Y4.288 E2.19198
G1 X-5.647 Y4.739 E2.20101
G1 X-1.844 Y8.543 E2.30858
G1 X-2.295 Y8.543 E2.31761
G1 X-5.647 Y5.191 E2.41241
G1 X-5.647 Y5.642 E2.42144
G1 X-2.747 Y8.543 E2.50346
G1 X-5.071 Y6.670 F1800.000
G1 X-5.647 Y6.094 E2.51974 F1800.000
G1 X-2.308 Y3.111 F1800.000
G1 X-5.593 Y-0.173 E2.61264 F1800.000
G1 X-5.367 Y-0.399 E2.61903
G1 X-2.124 Y2.844 E2.71075
G1 X-2.146 Y3.273 F1800.000
G1 X-1.061 Y4.359 E2.74146 F1800.000
G1 X-0.911 Y4.057 E2.74821
G1 X-0.558 Y4.410 E2.75820
G1 X0.879 Y4.492 F1800.000
G1 X4.102 Y7.715 E2.84936 F1800.000
G1 X4.332 Y7.494 E2.85574
G1 X1.183 Y4.345 E2.94482
G1 X1.453 Y4.163 F1800.000
G1 X4.563 Y7.274 E3.03280 F1800.000
G1 X4.794 Y7.053 E3.03919
G1 X1.290 Y3.548 E3.13831
G1 X1.571 Y3.378 E3.14489
G1 X5.024 Y6.831 E3.24255
G1 X5.250 Y6.605 E3.24894
G1 X1.822 Y3.178 E3.34589
G1 X2.047 Y2.951 E3.35228
G1 X5.475 Y6.380 E3.44924
G1 X5.628 Y6.081 E3.45595
G1 X2.260 Y2.713 E3.55122
G1 X2.402 Y2.855 E3.55523
G1 X2.746 Y2.747 E3.56243
G1 X5.628 Y5.630 E3.64396
G1 X5.628 Y5.178 E3.65299
G1 X3.198 Y2.747 E3.72174
G1 X3.649 Y2.747 E3.73077
G1 X5.628 Y4.727 E3.78676
G1 X5.628 Y4.275 E3.79579
G1 X4.101 Y2.747 E3.83900
G1 X4.552 Y2.747 E3.84803
G1 X5.628 Y3.824 E3.87848
G1 X5.628 Y3.372 E3.88751
G1 X5.004 Y2.747 E3.90518
G1 X5.455 Y2.747 E3.91421
G1 X5.628 Y2.921 E3.91911
G92 E0
G1 X3.401 Y3.677 F1800.000
G1 X3.401 Y3.677 F1800.000
G1 X1.951 Y1.621 F1800.000
G1 X2.259 Y1.929 E0.00871 F1800.000
G1 X2.715 Y1.929 E0.01784
G1 X2.160 Y1.373 E0.03356
G1 X2.309 Y1.066 E0.04039
G1 X3.172 Y1.929 E0.06479
G1 X3.594 Y1.894 E0.07326
G1 X1.816 Y0.116 E0.12355
G1 X1.546 Y0.303 F1800.000
G1 X1.969 Y0.726 E0.13553 F1800.000
G1 X1.627 Y0.841 F1800.000
G1 X1.232 Y0.445 E0.14671 F1800.000
G1 X0.987 Y0.657 E0.15318
G1 X1.295 Y0.965 E0.16189
G1 X0.965 Y2.419 F1800.000
G1 X1.188 Y2.642 E0.16820 F1800.000
G1 X0.980 Y3.690 F1800.000
G1 X1.232 Y3.942 E0.17533 F1800.000
G1 X0.996 Y5.061 F1800.000
G1 X3.871 Y7.936 E0.25663 F1800.000
G1 X3.640 Y8.156 E0.26302
G1 X0.752 Y5.269 E0.34470
G1 X0.740 Y5.708 E0.35349
G1 X3.409 Y8.377 E0.42898
G1 X3.123 Y8.543 E0.43558
G1 X0.494 Y5.913 E0.50996
G1 X0.621 Y6.492 E0.52182
G1 X2.672 Y8.543 E0.57981
G1 X2.220 Y8.543 E0.58884
G1 X0.251 Y6.573 E0.64454
G1 X0.195 Y6.969 F1800.000
G1 X1.769 Y8.543 E0.68904 F1800.000
G1 X1.317 Y8.543 E0.69807
G1 X0.076 Y7.301 E0.73319
G92 E0
G1 X-2.956 Y2.258 F1800.000
G1 X-3.900 Y2.217 F1800.000
G1 X-4.001 Y1.427 F1800.000
G1 X-4.026 Y0.569 F1800.000
G1 X-4.018 Y0.548 F1800.000
G1 X-3.346 Y0.255 F1800.000
G1 X-1.193 Y-1.191 F1800.000
G1 X-1.624 Y-1.623 E0.01221 F1800.000
G1 X-1.228 Y-2.367 F1800.000
G1 X-1.571 Y-2.709 E0.02189 F1800.000
G1 X-2.013 Y-2.460 E0.03205
G1 X-2.190 Y-2.636 E0.03703
G1 X-2.652 Y-2.199 F1800.000
G1 X-1.524 Y-1.071 E0.06895 F1800.000
G1 X-2.001 Y-1.097 E0.07851
G1 X-3.103 Y-2.199 E0.10969
G92 E0
G1 X-1.426 Y-5.326 F1800.000
G1 X-1.426 Y-5.326 F1800.000
G1 X0.470 Y-4.881 F1800.000
G1 X0.724 Y-4.627 E0.00719 F1800.000
G1 X1.024 Y-4.783 E0.01396
G1 X0.465 Y-5.342 E0.02979
G1 X0.478 Y-5.785 E0.03866
G1 X1.470 Y-4.793 E0.06671
G1 X1.803 Y-8.112 F1800.000
G1 X1.371 Y-8.544 E0.07893 F1800.000
G1 X1.347 Y-8.112 E0.08759
G1 X0.914 Y-8.544 E0.09981
G1 X0.890 Y-8.112 E0.10846
G1 X0.458 Y-8.544 E0.12068
G1 X0.435 Y-8.110 E0.12937
G1 X0.002 Y-8.544 E0.14163
G1 X-0.018 Y-8.107 E0.15037
G1 X-0.455 Y-8.544 E0.16272
G1 X-0.472 Y-8.104 E0.17151
G1 X-0.911 Y-8.544 E0.18394
G1 X-0.923 Y-8.099 E0.19283
G1 X-1.367 Y-8.544 E0.20541
G1 X-1.374 Y-8.093 E0.21441
G1 X-1.824 Y-8.544 E0.22714
G1 X-2.280 Y-8.544 E0.23627
G1 X-1.727 Y-7.991 E0.25191
G92 E0
G1 Z0.200 F1800.000
G1 X-1.635 Y-7.855 F1800.000
G1 X-5.648 Y-3.843 E0.45396 F1145.915
G1 X-5.648 Y-3.393 E0.48994
G1 X-1.438 Y-7.603 E0.96622
G1 X-1.273 Y-7.318 E0.99256
G1 X-5.525 Y-3.066 E1.47353
G1 X-5.075 Y-3.066 E1.50951
G1 X-1.074 Y-7.068 E1.96219
G1 X-0.516 Y-6.276 F1800.000
G1 X-2.209 Y-4.583 E2.15373 F1145.915
G1 X-2.479 Y-4.762 E2.17969
G1 X-0.625 Y-6.617 E2.38950
G1 X-0.830 Y-6.861 E2.41504
G1 X-2.713 Y-4.979 E2.62802
G1 X-2.919 Y-4.772 F1800.000
G1 X-4.625 Y-3.066 E2.82101 F1145.915
G1 X-4.175 Y-3.066 E2.85699
G1 X-2.827 Y-4.415 E3.00951
G1 X-2.683 Y-4.109 E3.03656
G1 X-3.725 Y-3.066 E3.15446
G1 X-3.276 Y-3.066 E3.19044
G1 X-2.483 Y-3.859 E3.28007
G1 X-2.212 Y-3.681 E3.30606
G1 X-2.826 Y-3.066 E3.37554
G1 X-2.420 Y-3.023 E3.40823
G1 X-2.269 Y-3.174 E3.42530
G1 X-1.962 Y-2.870 F1800.000
G1 X-2.127 Y-2.705 E3.44392 F1145.915
G1 X-1.853 Y-2.391 E3.47728
G1 X-1.501 Y-2.743 E3.51708
G1 X-1.212 Y-2.443 E3.55037
G1 X-1.441 Y-2.214 E3.57633
G1 X-1.405 Y-1.113 F1800.000
G1 X-1.193 Y-1.325 E3.60031 F1145.915
G1 X-1.385 Y-1.578 E3.62571
G1 X-1.915 Y-1.048 E3.68561
G1 X-1.622 Y-0.451 F1800.000
G1 X-5.647 Y3.574 E4.14096 F1145.915
G1 X-5.647 Y3.129 E4.17656
G1 X-1.888 Y-0.630 E4.60181
G1 X-2.104 Y-0.859 E4.62700
G1 X-5.647 Y2.684 E5.02782
G1 X-5.647 Y2.239 E5.06342
G1 X-1.693 Y-1.715 E5.51074
G1 X-1.991 Y-1.862 E5.53732
G1 X-5.647 Y1.794 E5.95093
G1 X-5.647 Y1.349 E5.98653
G1 X-2.243 Y-2.055 E6.37158
G1 X-2.401 Y-2.342 E6.39779
G1 X-5.647 Y0.904 E6.76497
G1 X-5.647 Y0.459 E6.80057
G1 X-2.989 Y-2.199 E7.10129
G1 X-3.531 Y-2.102 E7.14534
G1 X-5.647 Y0.014 E7.38473
G1 X-1.713 Y0.530 F1800.000
G1 X-2.141 Y0.958 E7.43311 F1145.915
G1 X-1.848 Y1.110 E7.45951
G1 X-1.448 Y0.710 E7.50479
G1 X-1.133 Y0.841 F1800.000
G1 X-1.429 Y1.136 E7.53824 F1145.915
G1 X-1.104 Y1.256 E7.56597
G1 X-0.924 Y1.076 E7.58635
G1 X-0.835 Y0.097 F1800.000
G1 X-1.103 Y0.366 E7.61673 F1145.915
G1 X-1.440 Y0.258 E7.64503
G1 X-1.067 Y-0.116 E7.68730
G1 X-1.332 Y-0.295 E7.71294
G1 X-5.647 Y4.019 E8.20104
G1 X-5.647 Y4.464 E8.23664
G1 X-2.364 Y1.181 E8.60806
G1 X-2.268 Y1.530 E8.63703
G1 X-5.647 Y4.909 E9.01928
G1 X-5.647 Y5.354 E9.05488
G1 X-2.103 Y1.810 E9.45578
G1 X-1.883 Y2.035 E9.48095
G1 X-5.647 Y5.799 E9.90679
G1 X-5.638 Y6.236 E9.94173
G1 X-2.314 Y2.911 E10.31790
G1 X-2.133 Y3.175 F1800.000
G1 X-5.416 Y6.458 E10.68934 F1145.915
G1 X-5.193 Y6.680 E10.71451
G1 X-1.885 Y3.372 E11.08881
G1 X-1.627 Y3.559 E11.11430
G1 X-4.963 Y6.895 E11.49178
G1 X-4.733 Y7.110 E11.51697
G1 X-1.358 Y3.735 E11.89884
G1 X-1.077 Y3.899 E11.92486
G1 X-4.503 Y7.325 E12.31247
G1 X-4.273 Y7.540 E12.33766
G1 X-1.326 Y4.593 E12.67109
G1 X-1.049 Y4.761 E12.69702
G1 X-4.043 Y7.755 E13.03583
G1 X-3.813 Y7.970 E13.06102
G1 X-1.109 Y5.266 E13.36698
G1 X-0.886 Y5.488 E13.39215
G1 X-3.583 Y8.185 E13.69738
G1 X-3.353 Y8.400 E13.72257
G1 X-0.639 Y5.686 E14.02966
G1 X-0.648 Y6.140 F1800.000
G1 X-3.051 Y8.543 E14.30143 F1145.915
G1 X-2.606 Y8.543 E14.33703
G1 X-0.394 Y6.331 E14.58724
G1 X-0.398 Y6.780 E14.62320
G1 X-2.161 Y8.543 E14.82256
G1 X-1.716 Y8.543 E14.85816
G1 X-0.190 Y7.017 E15.03079
G1 X-0.091 Y7.363 E15.05961
G1 X-1.271 Y8.543 E15.19303
G1 X-0.826 Y8.543 E15.22863
G1 X4.970 Y2.747 E15.88428
G1 X5.415 Y2.747 E15.91988
G1 X-0.381 Y8.543 E16.57554
G1 X0.064 Y8.543 E16.61114
G1 X5.628 Y2.979 E17.24063
G1 X5.628 Y3.424 E17.27623
G1 X0.509 Y8.543 E17.85539
G1 X0.954 Y8.543 E17.89099
G1 X5.628 Y3.869 E18.41979
G1 X5.628 Y4.314 E18.45539
G1 X1.399 Y8.543 E18.93386
G1 X1.844 Y8.543 E18.96946
G1 X5.628 Y4.758 E19.39757
G1 X5.628 Y5.203 E19.43317
G1 X2.289 Y8.543 E19.81095
G1 X2.734 Y8.543 E19.84655
G1 X5.628 Y5.648 E20.17398
G1 X5.628 Y6.093 E20.20958
G1 X4.844 Y6.878 E20.29830
G1 X0.762 Y5.620 F1800.000
G1 X3.635 Y2.747 E20.62331 F1145.915
G1 X3.425 Y1.928 F1800.000
G1 X5.648 Y-0.295 E20.87481 F1145.915
G1 X5.648 Y-0.745 E20.91079
G1 X2.975 Y1.928 E21.21318
G1 X2.525 Y1.928 E21.24916
G1 X5.648 Y-1.195 E21.60244
G1 X5.648 Y-1.645 E21.63842
G1 X2.076 Y1.928 E22.04259
G1 X2.280 Y1.273 E22.09747
G1 X5.648 Y-2.094 E22.47845
G1 X5.648 Y-2.544 E22.51443
G1 X2.365 Y0.739 E22.88588
G1 X2.043 Y0.611 F1800.000
G1 X5.648 Y-2.994 E23.29376 F1145.915
G1 X5.648 Y-3.444 E23.32974
G1 X1.287 Y0.917 E23.82312
G1 X0.983 Y-0.128 F1800.000
G1 X1.556 Y-0.701 E23.88802 F1145.915
G1 X1.468 Y-0.163 E23.93167
G1 X5.648 Y-4.343 E24.40461
G1 X5.648 Y-3.894 E24.44059
G1 X1.909 Y-0.155 E24.86356
G1 X2.301 Y-1.446 F1800.000
G1 X5.648 Y-4.793 E25.24220 F1145.915
G1 X5.648 Y-5.243 E25.27818
G1 X2.220 Y-1.815 E25.66604
G1 X1.646 Y-1.691 E25.71303
G1 X5.648 Y-5.693 E26.16583
G1 X5.648 Y-6.143 E26.20182
G1 X2.333 Y-2.827 E26.57689
G1 X1.798 Y-2.742 E26.62024
G1 X5.465 Y-6.409 E27.03511
G1 X5.240 Y-6.634 E27.06056
G1 X2.200 Y-3.595 E27.40442
G1 X1.746 Y-3.141 F1800.000
G1 X1.213 Y-2.608 E27.46472 F1145.915
G92 E0
G1 X1.403 Y-5.735 F1800.000
G1 X1.403 Y-5.735 F1800.000
G1 X0.499 Y-4.592 F1800.000
G1 X3.871 Y-7.964 E0.38148 F1145.915
G1 X4.100 Y-7.743 E0.40693
G1 X1.169 Y-4.813 E0.73849
G1 X1.608 Y-4.801 E0.77356
G1 X4.329 Y-7.523 E1.08147
G1 X4.558 Y-7.302 E1.10692
G1 X2.670 Y-5.413 E1.32062
G1 X2.959 Y-5.252 F1800.000
G1 X4.788 Y-7.082 E1.52756 F1145.915
G1 X5.015 Y-6.859 E1.55301
G1 X2.873 Y-4.717 E1.79529
G92 E0
G1 X1.477 Y-5.720 F1800.000
G1 X1.477 Y-5.720 F1800.000
G1 X1.466 Y-5.785 F1800.000
G1 X1.403 Y-5.735 F1800.000
G1 X0.468 Y-5.011 F1800.000
G1 X3.641 Y-8.184 E0.35903 F1145.915
G1 X3.412 Y-8.405 E0.38448
G1 X0.473 Y-5.466 E0.71695
G1 X0.488 Y-5.930 E0.75410
G1 X3.100 Y-8.543 E1.04965
G1 X2.650 Y-8.543 E1.08564
G1 X0.504 Y-6.396 E1.32848
G1 X1.455 Y-6.520 F1800.000
G1 X1.773 Y-6.307 F1800.000
G1 X2.081 Y-6.515 F1800.000
G1 X2.272 Y-6.631 F1800.000
G1 X2.037 Y-6.927 F1800.000
G1 X1.713 Y-8.056 F1800.000
G1 X2.201 Y-8.543 E1.38359 F1145.915
G1 X1.751 Y-8.543 E1.41958
G1 X1.321 Y-8.113 E1.46824
G1 X1.301 Y-8.543 E1.50268
G1 X0.871 Y-8.113 E1.55134
G1 X0.851 Y-8.543 E1.58579
G1 X0.420 Y-8.112 E1.63454
G1 X0.401 Y-8.543 E1.66905
G1 X-0.032 Y-8.109 E1.71813
G1 X-0.048 Y-8.543 E1.75285
G1 X-0.485 Y-8.106 E1.80225
G1 X-0.498 Y-8.543 E1.83719
G1 X-0.939 Y-8.102 E1.88710
G1 X-0.948 Y-8.543 E1.92240
G1 X-1.395 Y-8.096 E1.97295
G1 X-1.398 Y-8.543 F1800.000
G1 X-5.648 Y-4.293 E2.45379 F1145.915
G1 X-5.648 Y-4.742 E2.48977
G1 X-1.848 Y-8.543 E2.91972
G1 X-2.298 Y-8.543 E2.95570
G1 X-5.648 Y-5.192 E3.33476
G1 X-5.648 Y-5.642 E3.37074
G1 X-2.747 Y-8.543 E3.69891
G1 X-4.882 Y-6.858 F1800.000
G1 X-5.648 Y-6.092 E3.78561 F1145.915
G92 E0
G1 X-4.718 Y-5.818 F1800.000
G1 X-4.212 Y-5.601 F1800.000
G1 X-4.190 Y-5.632 F1800.000
G1 X-3.730 Y-5.441 F1800.000
G1 X-1.902 Y-4.440 F1800.000
G1 X-0.501 Y-5.841 E0.15858 F1145.915
G1 X-0.501 Y-5.392 E0.19456
G1 X-1.496 Y-4.396 E0.30718
G1 X-1.118 Y-4.325 E0.33797
G1 X-0.501 Y-4.942 E0.40780
G1 X-0.501 Y-4.492 E0.44379
G1 X-0.827 Y-4.165 E0.48073
G92 E0
G1 X-2.963 Y-0.420 F1800.000
G1 X-3.429 Y-0.603 F1800.000
G1 X-3.866 Y-0.369 F1800.000
G1 X-4.026 Y0.569 F1800.000
G1 X-4.015 Y1.175 F1800.000
G1 X-3.314 Y1.151 F1800.000
G1 X-1.610 Y2.207 F1800.000
G1 X-2.245 Y2.842 E0.07180 F1145.915
G1 X-1.861 Y2.903 E0.10287
G1 X-1.313 Y2.355 E0.16489
G1 X-1.073 Y2.560 E0.19014
G1 X-1.452 Y2.939 E0.23296
G1 X-1.123 Y3.055 E0.26087
G1 X-0.900 Y2.832 E0.28612
G1 X-0.786 Y4.053 F1800.000
G1 X-1.090 Y4.357 E0.32051 F1145.915
G1 X-0.729 Y4.441 E0.35017
G1 X-0.552 Y4.264 E0.37012
G1 X-0.751 Y4.908 F1800.000
G1 X-1.021 Y5.178 E0.40069 F1145.915
G1 X0.668 Y4.824 F1800.000
G1 X0.994 Y4.498 E0.43753 F1145.915
G1 X1.151 Y4.786 E0.46376
G1 X3.190 Y2.747 E0.69441
G1 X2.745 Y2.747 E0.73001
G1 X1.486 Y4.006 E0.87236
G1 X1.105 Y3.942 E0.90328
G1 X1.605 Y3.442 E0.95984
G1 X1.015 Y2.698 F1800.000
