; generated by Slic3r 1.3.1-dev on 2019-09-25 at 17:08:37

; external perimeters extrusion width = 0.33mm (0.48mm^3/s)
; perimeters extrusion width = 0.34mm (0.49mm^3/s)
; infill extrusion width = 0.34mm (0.49mm^3/s)
; solid infill extrusion width = 0.34mm (0.07mm^3/s)
; top infill extrusion width = 0.34mm (0.07mm^3/s)

G28 ; Home all axes 
M109 S200 ; wait for temperature to be reached
G21 ; set units to millimeters
G90 ; use absolute coordinates
M82 ; use absolute distances for extrusion
G1 Z10 F500; move plate down
G1 Z1.0 F500;
G92 E0
; Filament gcode

T1
; Filament gcode

G21 ; set units to millimeters
G90 ; use absolute coordinates
M82 ; use absolute distances for extrusion
G92 E0
G92 E0
G1 Z0.250 F480.000
G1 X-5.131 Y6.626 F480.000
G1 F420
G1 X-5.592 Y6.195 E0.07892
G1 X-5.592 Y-0.086 E0.86401
G1 X-3.504 Y-2.144 E1.23053
G1 X-2.506 Y-2.144 E1.35531
G1 X-2.421 Y-2.184 E1.36696
G1 X-2.223 Y-1.893 E1.41101
G1 X-1.353 Y-1.482 E1.53128
G1 X-1.309 Y-1.452 E1.53795
G1 X-1.248 Y-1.364 E1.55131
G1 X-1.247 Y-1.162 E1.57657
G1 X-1.363 Y-1.169 E1.59108
G1 X-1.720 Y-1.098 E1.63661
G1 X-1.818 Y-1.096 E1.64887
G1 X-2.139 Y-1.167 E1.68996
G1 X-2.285 Y-0.965 E1.72113
G1 X-1.997 Y-0.613 E1.77797
G1 X-1.840 Y-0.487 E1.80309
G1 X-1.267 Y-0.170 E1.88494
G1 X-0.915 Y0.106 E1.94080
G1 X-0.883 Y0.155 E1.94820
G1 X-0.842 Y0.301 E1.96710
G1 X-0.857 Y0.408 E1.98064
G1 X-1.148 Y0.261 E2.02140
G1 X-1.322 Y0.210 E2.04409
G1 X-1.626 Y0.193 E2.08216
G1 X-2.082 Y0.289 E2.14035
G1 X-1.633 Y0.714 E2.21764
G1 X-1.182 Y0.901 E2.27866
G1 X-1.047 Y1.020 E2.30121
G1 X-0.977 Y1.141 E2.31867
G1 X-1.033 Y1.205 E2.32920
G1 X-1.309 Y1.091 E2.36659
G1 X-1.470 Y1.064 E2.38694
G1 X-1.738 Y1.067 E2.42050
G1 X-1.841 Y1.041 E2.43373
G1 X-2.053 Y0.929 E2.46370
G1 X-2.222 Y0.764 E2.49331
G1 X-2.457 Y0.850 E2.52450
G1 X-2.395 Y1.386 E2.59202
G1 X-2.334 Y1.571 E2.61634
G1 X-2.249 Y1.742 E2.64021
G1 X-2.140 Y1.899 E2.66409
G1 X-2.009 Y2.038 E2.68796
G1 X-1.857 Y2.160 E2.71234
G1 X-1.407 Y2.385 E2.77519
G1 X-1.179 Y2.564 E2.81150
G1 X-1.090 Y2.666 E2.82833
G1 X-0.946 Y2.909 E2.86373
G1 X-0.932 Y2.972 E2.87179
G1 X-0.945 Y3.092 E2.88679
G1 X-1.142 Y2.948 E2.91733
G1 X-1.513 Y2.855 E2.96513
G1 X-1.791 Y2.848 E2.99988
G1 X-1.908 Y2.868 E3.01462
G1 X-2.192 Y2.777 E3.05187
G1 X-2.346 Y2.873 E3.07461
G1 X-2.373 Y3.071 E3.09955
G1 X-2.023 Y3.371 E3.15716
G1 X-1.719 Y3.594 E3.20435
G1 X-1.403 Y3.801 E3.25158
G1 X-0.755 Y4.156 E3.34389
G1 X-0.595 Y4.301 E3.37088
G1 X-0.622 Y4.370 E3.38015
G1 X-0.668 Y4.390 E3.38650
G1 X-0.802 Y4.372 E3.40333
G1 X-0.963 Y4.301 E3.42533
G1 X-1.716 Y4.317 E3.51950
G1 X-1.329 Y4.699 E3.58746
G1 X-0.796 Y4.969 E3.66218
G1 X-0.749 Y5.017 E3.67057
G1 X-0.715 Y5.151 E3.68792
G1 X-0.915 Y5.120 E3.71318
G1 X-1.335 Y5.163 E3.76603
G1 X-0.834 Y5.652 E3.85365
G1 X-0.620 Y5.775 E3.88448
G1 X-0.641 Y5.861 E3.89557
G1 X-0.757 Y5.866 E3.91017
G1 X-0.833 Y6.104 E3.94137
G1 X-0.446 Y6.393 E4.00171
G1 X-0.308 Y6.528 E4.02590
G1 X-0.503 Y6.683 E4.05708
G1 X-0.430 Y6.920 E4.08806
G1 X-0.321 Y6.922 E4.10167
G1 X-0.258 Y7.011 E4.11523
G1 X-0.166 Y7.418 E4.16741
G1 X0.116 Y7.421 E4.20268
G1 X0.218 Y7.048 E4.25108
G1 X0.246 Y7.027 E4.25540
G1 X0.611 Y6.954 E4.30193
G1 X0.335 Y6.714 E4.34757
G1 X0.274 Y6.626 E4.36098
G1 X0.784 Y6.528 E4.42588
G1 X0.359 Y6.155 E4.49654
G1 X0.450 Y6.038 E4.51507
G1 X0.692 Y5.874 E4.55163
G1 X0.851 Y5.705 E4.58064
G1 X0.805 Y5.523 E4.60408
G1 X0.615 Y5.412 E4.63157
G1 X0.776 Y5.350 E4.65311
G1 X1.017 Y5.164 E4.69110
G1 X1.410 Y4.694 E4.76777
G1 X0.864 Y4.801 E4.83736
G1 X0.727 Y4.803 E4.85450
G1 X0.721 Y4.737 E4.86278
G1 X0.745 Y4.655 E4.87336
G1 X0.807 Y4.589 E4.88469
G1 X1.145 Y4.459 E4.93000
G1 X1.509 Y4.225 E4.98404
G1 X1.593 Y4.113 E5.00158
G1 X1.540 Y3.914 E5.02731
G1 X1.350 Y3.857 E5.05209
G1 X1.077 Y3.903 E5.08678
G1 X0.898 Y3.888 E5.10925
G1 X0.885 Y3.794 E5.12110
G1 X1.224 Y3.671 E5.16621
G1 X1.643 Y3.428 E5.22671
G1 X2.009 Y3.116 E5.28686
G1 X2.270 Y2.802 E5.33786
G1 X5.574 Y2.802 E5.75088
G1 X5.574 Y6.194 E6.17487
G1 X3.174 Y8.488 E6.58983
G1 X-3.140 Y8.488 E7.37910
G1 X-5.098 Y6.657 E7.71426
G92 E0
G1 X-4.717 Y5.815 F480.000
G1 X-3.707 Y5.377 F480.000
G1 X-3.653 Y5.113 F480.000
G1 X-3.652 Y4.554 F480.000
G1 X-3.997 Y3.897 F480.000
G1 X-4.107 Y2.985 F480.000
G1 X-3.890 Y2.217 F480.000
G1 X-4.090 Y0.542 F480.000
G1 X-3.778 Y-0.551 F480.000
G1 X-2.046 Y-2.817 F480.000
G1 F420
G1 X-2.438 Y-2.969 E0.03823
G92 E0
G1 X-7.646 Y-0.946 F480.000
G1 X-8.718 Y-0.996 F480.000
G1 X-8.718 Y-7.101 F480.000
G1 X-7.718 Y-7.101 F480.000
G1 X-1.892 Y-2.777 F480.000
G1 F420
G1 X-1.553 Y-2.684 E0.04398
G1 X-1.459 Y-2.630 E0.05757
G1 X-1.301 Y-2.469 E0.08569
G1 X-1.263 Y-2.399 E0.09560
G1 X-1.289 Y-2.319 E0.10605
G1 X-1.352 Y-2.274 E0.11577
G1 X-1.451 Y-2.268 E0.12816
G1 X-1.738 Y-2.431 E0.16944
G1 X-1.924 Y-2.490 E0.19383
G1 X-2.154 Y-2.512 E0.22265
G1 X-2.045 Y-2.819 E0.26326
G1 X-1.936 Y-2.789 E0.27747
G92 E0
G1 X-2.384 Y-2.424 F480.000
G1 X2.299 Y0.489 F480.000
G1 X1.673 Y1.908 F480.000
G1 F420
G1 X1.363 Y2.083 E0.03906
G1 X1.018 Y2.412 E0.09133
G92 E0
G1 X1.156 Y2.603 F480.000
G1 F420
G1 X1.168 Y2.621 E0.00267
G1 X0.871 Y2.731 E0.04229
G1 X1.030 Y2.429 E0.08500
G1 X1.130 Y2.567 E0.10623
G92 E0
G1 X1.172 Y2.626 F480.000
G1 F420
G1 X1.566 Y2.533 E0.04867
G1 X2.007 Y2.504 E0.10189
G1 X2.184 Y2.429 E0.12505
G1 X2.272 Y2.460 E0.13628
G1 X2.336 Y2.520 E0.14689
G1 X2.377 Y2.802 E0.18113
G92 E0
G1 X7.699 Y0.708 F480.000
G1 X1.844 Y1.998 F480.000
G1 F420
G1 X1.673 Y1.908 E0.01386
G92 E0
G1 X2.299 Y0.489 F480.000
G1 X-2.692 Y-7.613 F480.000
G1 X-1.828 Y-7.909 F480.000
G1 F420
G1 X-1.612 Y-7.729 E0.03518
G1 X-1.554 Y-7.655 E0.04692
G1 X-1.404 Y-7.369 E0.08726
G1 X-1.281 Y-7.183 E0.11517
G1 X-1.135 Y-7.012 E0.14325
G1 X-0.969 Y-6.861 E0.17133
G1 X-0.806 Y-6.744 E0.19635
G1 X-0.727 Y-6.648 E0.21196
G1 X-0.603 Y-6.400 E0.24667
G1 X-0.555 Y-6.122 E0.28184
G1 X-0.555 Y-4.021 E0.54452
G1 X-0.748 Y-4.211 E0.57834
G1 X-1.040 Y-4.374 E0.62012
G1 X-1.366 Y-4.450 E0.66197
G1 X-1.660 Y-4.436 E0.69879
G1 X-1.866 Y-4.504 E0.72590
G1 X-2.280 Y-4.717 E0.78409
G1 X-2.467 Y-4.854 E0.81309
G1 X-2.715 Y-5.089 E0.85580
G1 X-2.907 Y-5.083 E0.87982
G1 X-2.997 Y-4.923 E0.90274
G1 X-2.929 Y-4.487 E0.95785
G1 X-2.860 Y-4.285 E0.98459
G1 X-2.698 Y-3.974 E1.02841
G1 X-2.499 Y-3.760 E1.06496
G1 X-2.369 Y-3.671 E1.08461
G1 X-2.090 Y-3.550 E1.12265
G1 X-2.052 Y-3.501 E1.13033
G1 X-2.041 Y-3.427 E1.13979
G1 X-2.096 Y-3.349 E1.15176
G1 X-2.312 Y-3.157 E1.18787
G1 X-2.315 Y-3.121 E1.19238
G1 X-5.593 Y-3.121 E1.60217
G1 X-5.593 Y-6.192 E1.98605
G1 X-3.189 Y-8.488 E2.40157
G1 X3.207 Y-8.488 E3.20106
G1 X5.593 Y-6.193 E3.61497
G1 X5.593 Y-0.195 E4.36465
G1 X3.513 Y1.873 E4.73129
G1 X1.902 Y1.873 E4.93266
G1 X1.877 Y1.790 E4.94353
G1 X2.075 Y1.621 E4.97609
G1 X2.197 Y1.469 E5.00049
G1 X2.296 Y1.300 E5.02489
G1 X2.369 Y1.119 E5.04929
G1 X2.415 Y0.930 E5.07369
G1 X2.438 Y0.683 E5.10463
G1 X2.295 Y0.551 E5.12894
G1 X2.155 Y0.538 E5.14655
G1 X1.888 Y0.680 E5.18438
G1 X1.022 Y0.976 E5.29876
G1 X0.979 Y0.968 E5.30421
G1 X0.931 Y0.928 E5.31202
G1 X0.961 Y0.846 E5.32288
G1 X1.085 Y0.657 E5.35109
G1 X1.262 Y0.517 E5.37942
G1 X1.703 Y0.307 E5.44048
G1 X2.089 Y-0.020 E5.50372
G1 X1.937 Y-0.260 E5.53927
G1 X1.679 Y-0.186 E5.57295
G1 X1.380 Y-0.240 E5.61089
G1 X1.232 Y-0.232 E5.62944
G1 X1.018 Y-0.165 E5.65738
G1 X0.961 Y-0.246 E5.66974
G1 X1.177 Y-0.465 E5.70820
G1 X1.317 Y-0.564 E5.72967
G1 X1.789 Y-0.794 E5.79524
G1 X1.942 Y-0.905 E5.81890
G1 X2.185 Y-1.171 E5.86389
G1 X2.349 Y-1.491 E5.90889
G1 X2.429 Y-1.774 E5.94557
G1 X2.225 Y-1.908 E5.97606
G1 X1.983 Y-1.760 E6.01147
G1 X1.654 Y-1.742 E6.05270
G1 X1.517 Y-1.713 E6.07023
G1 X1.213 Y-1.533 E6.11441
G1 X1.255 Y-1.697 E6.13560
G1 X1.344 Y-1.823 E6.15495
G1 X1.411 Y-1.869 E6.16507
G1 X1.968 Y-2.106 E6.24068
G1 X2.202 Y-2.264 E6.27599
G1 X2.377 Y-2.489 E6.31165
G1 X2.564 Y-2.904 E6.36846
G1 X2.012 Y-2.835 E6.43788
G1 X1.786 Y-2.776 E6.46712
G1 X1.388 Y-2.619 E6.52059
G1 X1.292 Y-2.635 E6.53272
G1 X1.253 Y-2.696 E6.54177
G1 X1.339 Y-2.861 E6.56502
G1 X1.400 Y-2.936 E6.57716
G1 X1.559 Y-3.063 E6.60258
G1 X2.145 Y-3.191 E6.67755
G1 X2.280 Y-3.291 E6.69860
G1 X2.335 Y-3.432 E6.71743
G1 X2.303 Y-3.565 E6.73452
G1 X2.153 Y-3.789 E6.76825
G1 X2.166 Y-3.890 E6.78096
G1 X2.214 Y-3.946 E6.79012
G1 X2.304 Y-3.981 E6.80227
G1 X2.519 Y-4.124 E6.83453
G1 X2.615 Y-4.225 E6.85192
G1 X2.790 Y-4.480 E6.89065
G1 X2.941 Y-4.819 E6.93701
G1 X3.025 Y-5.244 E6.99110
G1 X3.005 Y-5.352 E7.00488
G1 X2.895 Y-5.466 E7.02471
G1 X2.711 Y-5.461 E7.04769
G1 X1.819 Y-4.902 E7.17929
G1 X1.729 Y-4.864 E7.19142
G1 X1.522 Y-4.832 E7.21763
G1 X1.277 Y-4.867 E7.24855
G1 X1.121 Y-4.868 E7.26806
G1 X0.964 Y-4.840 E7.28800
G1 X0.815 Y-4.783 E7.30793
G1 X0.675 Y-4.697 E7.32845
G1 X0.573 Y-4.590 E7.34698
G1 X0.526 Y-4.719 E7.36414
G1 X0.520 Y-5.285 E7.43491
G1 X0.557 Y-6.452 E7.58087
G1 X0.606 Y-6.743 E7.61769
G1 X0.720 Y-7.007 E7.65370
G1 X0.884 Y-7.223 E7.68758
G1 X1.238 Y-7.411 E7.73771
G1 X1.413 Y-7.549 E7.76555
G1 X1.630 Y-7.783 E7.80544
G1 X1.830 Y-7.922 E7.83587
G1 X1.753 Y-8.167 E7.86802
G1 X-1.755 Y-8.145 E8.30664
G1 X-1.815 Y-7.952 E8.33196
G92 E0
G1 X-2.692 Y-7.613 F480.000
G1 X1.481 Y-6.500 F480.000
G1 X0.859 Y-6.723 F480.000
G1 F420
G1 X1.317 Y-7.182 E0.08108
G1 X1.576 Y-7.373 E0.12130
G1 X1.788 Y-7.601 E0.16023
G1 X2.111 Y-7.825 E0.20940
G1 X2.075 Y-7.940 E0.22446
G92 E0
G1 X1.979 Y-8.248 F480.000
G1 F420
G1 X2.075 Y-7.940 E0.04039
G1 X2.384 Y-8.248 E0.09491
G1 X2.788 Y-8.248 E0.14548
G1 X0.790 Y-6.250 E0.49876
G1 X0.777 Y-5.833 E0.55098
G1 X3.152 Y-8.208 E0.97089
G1 X3.359 Y-8.010 E1.00666
G1 X0.764 Y-5.415 E1.46532
G1 X0.763 Y-5.020 E1.51473
G1 X3.565 Y-7.811 E2.00914
G1 X3.771 Y-7.613 E2.04491
G1 X1.265 Y-5.107 E2.48797
G1 X1.520 Y-5.074 E2.52019
G1 X1.658 Y-5.096 E2.53765
G1 X3.977 Y-7.415 E2.94757
G1 X4.184 Y-7.216 E2.98334
G1 X2.667 Y-5.700 E3.25144
G1 X2.994 Y-5.708 E3.29229
G1 X3.036 Y-5.664 E3.29996
G1 X4.390 Y-7.018 E3.53923
G1 X4.596 Y-6.819 E3.57500
G1 X3.229 Y-5.453 E3.81658
G1 X3.269 Y-5.242 E3.84335
G1 X3.231 Y-5.050 E3.86792
G1 X4.802 Y-6.621 E4.14572
G1 X5.008 Y-6.423 E4.18149
G1 X3.042 Y-4.456 E4.52913
G1 X3.000 Y-4.363 E4.54192
G1 X2.801 Y-4.074 E4.58578
G1 X2.674 Y-3.940 E4.60887
G1 X2.443 Y-3.785 E4.64359
G1 X2.525 Y-3.662 E4.66209
G1 X2.550 Y-3.560 E4.67526
G1 X5.215 Y-6.224 E5.14627
G1 X5.354 Y-6.091 E5.17039
G1 X5.354 Y-5.959 E5.18685
G1 X2.536 Y-3.142 E5.68490
G1 X2.957 Y-3.194 E5.73793
G1 X2.928 Y-3.128 E5.74693
G1 X5.354 Y-5.554 E6.17578
G1 X5.354 Y-5.150 E6.22635
G1 X2.595 Y-2.391 E6.71396
G1 X2.374 Y-2.096 E6.76008
G1 X2.574 Y-1.965 E6.78986
G1 X5.354 Y-4.745 E7.28132
G1 X5.354 Y-4.341 E7.33189
G1 X2.635 Y-1.622 E7.81253
G1 X2.573 Y-1.403 E7.84093
G1 X2.383 Y-1.033 E7.89294
G1 X2.102 Y-0.726 E7.94495
G1 X1.913 Y-0.588 E7.97427
G1 X1.612 Y-0.441 E8.01609
G1 X1.666 Y-0.432 E8.02299
G1 X1.923 Y-0.506 E8.05644
G1 X5.354 Y-3.936 E8.66286
G1 X5.354 Y-3.531 E8.71343
G1 X2.167 Y-0.345 E9.27671
G1 X2.324 Y-0.097 E9.31337
G1 X5.354 Y-3.127 E9.84894
G1 X5.354 Y-2.722 E9.89951
G1 X2.319 Y0.313 E10.43603
G1 X2.399 Y0.320 E10.44606
G1 X2.563 Y0.473 E10.47412
G1 X5.354 Y-2.318 E10.96741
G1 X5.354 Y-1.913 E11.01798
G1 X2.671 Y0.770 E11.49229
G1 X2.652 Y0.969 E11.51730
G1 X2.561 Y1.284 E11.55826
G1 X5.354 Y-1.509 E12.05192
G1 X5.354 Y-1.104 E12.10249
G1 X2.616 Y1.634 E12.58643
G1 X3.021 Y1.634 E12.63700
G1 X5.354 Y-0.699 E13.04942
G1 X5.354 Y-0.295 E13.09999
G1 X5.329 Y-0.270 E13.10444
G92 E0
G1 X4.718 Y-0.559 F480.000
G1 X-1.477 Y-5.331 F480.000
G1 X-0.795 Y-4.511 F480.000
G1 F420
G1 X-0.795 Y-4.920 E0.05115
G1 X-1.085 Y-4.630 E0.10244
G1 X-1.344 Y-4.691 E0.13564
G1 X-1.438 Y-4.687 E0.14742
G1 X-0.795 Y-5.329 E0.26105
G1 X-0.795 Y-5.739 E0.31219
G1 X-1.796 Y-4.737 E0.48922
G1 X-2.067 Y-4.876 E0.52720
G1 X-0.802 Y-6.141 E0.75082
G1 X-0.833 Y-6.324 E0.77404
G1 X-0.898 Y-6.454 E0.79218
G1 X-2.313 Y-5.038 E1.04239
G1 X-2.523 Y-5.237 E1.07857
G1 X-1.101 Y-6.660 E1.33006
G1 X-1.315 Y-6.855 E1.36627
G1 X-2.846 Y-5.324 E1.63680
G1 X-3.050 Y-5.317 E1.66230
G1 X-3.247 Y-4.968 E1.71243
G1 X-3.241 Y-4.929 E1.71732
G1 X-4.809 Y-3.361 E1.99464
G1 X-5.219 Y-3.361 E2.04578
G1 X-1.500 Y-7.080 E2.70320
G1 X-1.655 Y-7.333 E2.74038
G1 X-5.354 Y-3.635 E3.39416
G1 X-5.354 Y-4.044 E3.44530
G1 X-1.813 Y-7.585 E4.07125
G1 X-2.036 Y-7.770 E4.10757
G1 X-5.354 Y-4.453 E4.69400
G1 X-5.354 Y-4.862 E4.74515
G1 X-1.974 Y-8.248 E5.34316
G1 X-2.377 Y-8.248 E5.39344
G1 X-5.354 Y-5.271 E5.91973
G1 X-5.354 Y-5.680 E5.97087
G1 X-2.786 Y-8.248 E6.42483
G1 X-3.093 Y-8.248 E6.46326
G1 X-5.351 Y-6.093 E6.85342
G92 E0
G1 X-3.241 Y-4.929 F480.000
G1 F420
G1 X-3.185 Y-4.576 E0.04477
G1 X-4.400 Y-3.361 E0.25954
G1 X-3.991 Y-3.361 E0.31068
G1 X-3.101 Y-4.251 E0.46802
G1 X-2.968 Y-3.975 E0.50633
G1 X-3.582 Y-3.361 E0.61487
G1 X-3.173 Y-3.361 E0.66602
G1 X-2.801 Y-3.733 E0.73182
G1 X-2.656 Y-3.577 E0.75836
G1 X-2.591 Y-3.533 E0.76817
G1 X-2.764 Y-3.361 E0.79860
G92 E0
G1 X-1.928 Y-1.366 F480.000
G1 F420
G1 X-1.848 Y-1.446 E0.01424
G1 X-2.124 Y-1.579 E0.05251
G1 X-5.353 Y1.650 E0.62333
G1 X-5.353 Y1.241 E0.67443
G1 X-2.393 Y-1.718 E1.19755
G1 X-2.521 Y-1.905 E1.22579
G1 X-2.616 Y-1.905 E1.23765
G1 X-5.353 Y0.832 E1.72148
G1 X-5.353 Y0.423 E1.77259
G1 X-3.024 Y-1.905 E2.18414
G1 X-3.406 Y-1.905 E2.23179
G1 X-5.353 Y0.014 E2.57352
G1 X-5.342 Y0.004 E2.57530
G92 E0
G1 X-2.392 Y0.325 F480.000
G1 F420
G1 X-2.578 Y0.148 E0.03206
G1 X-2.119 Y0.052 E0.09069
G1 X-1.849 Y-0.218 E0.13845
G1 X-1.586 Y-0.072 E0.17604
G1 X-1.612 Y-0.046 E0.18069
G92 E0
G1 X-2.475 Y-0.819 F480.000
G1 F420
G1 X-5.353 Y2.059 E0.50867
G1 X-5.353 Y2.467 E0.55978
G1 X-2.291 Y-0.594 E1.10096
G1 X-2.166 Y-0.441 E1.12560
G1 X-2.093 Y-0.383 E1.13730
G1 X-5.353 Y2.876 E1.71347
G1 X-5.353 Y3.285 E1.76457
G1 X-2.392 Y0.325 E2.28791
G1 X-2.205 Y0.502 E2.32013
G1 X-2.716 Y0.690 E2.38821
G1 X-2.678 Y1.020 E2.42970
G1 X-5.353 Y3.694 E2.90248
G1 X-5.353 Y4.103 E2.95359
G1 X-2.636 Y1.386 E3.43386
G1 X-2.538 Y1.698 E3.47467
G1 X-5.353 Y4.512 E3.97213
G1 X-5.353 Y4.921 E4.02324
G1 X-2.390 Y1.958 E4.54691
G1 X-2.204 Y2.181 E4.58320
G1 X-5.353 Y5.330 E5.13981
G1 X-5.353 Y5.738 E5.19092
G1 X-2.604 Y2.990 E5.67686
G1 X-2.628 Y3.168 E5.69937
G1 X-2.491 Y3.286 E5.72197
G1 X-5.323 Y6.118 E6.22269
G1 X-5.112 Y6.316 E6.25885
G1 X-2.270 Y3.474 E6.76115
G1 X-2.042 Y3.654 E6.79755
G1 X-4.901 Y6.513 E7.30295
G92 E0
G1 X-1.713 Y4.961 F480.000
G1 F420
G1 X-1.560 Y4.808 E0.02708
G1 X-1.766 Y4.605 E0.06322
G92 E0
G1 X-1.646 Y4.076 F480.000
G1 F420
G1 X-1.557 Y3.987 E0.01575
G1 X-1.804 Y3.825 E0.05267
G1 X-2.064 Y4.085 E0.09863
G1 X-2.288 Y4.090 E0.12665
G1 X-2.177 Y4.199 E0.14604
G92 E0
G1 X-2.177 Y4.199 F480.000
G1 F420
G1 X-4.689 Y6.711 E0.44407
G1 X-4.478 Y6.908 E0.48023
G1 X-1.971 Y4.402 E0.92334
G1 X-1.766 Y4.605 E0.95948
G1 X-4.267 Y7.106 E1.40163
G1 X-4.056 Y7.304 E1.43779
G1 X-1.798 Y5.046 E1.83686
G1 X-1.591 Y5.248 E1.87300
G1 X-3.844 Y7.501 E2.27130
G1 X-3.633 Y7.699 E2.30746
G1 X-1.384 Y5.450 E2.70500
G1 X-1.177 Y5.652 E2.74114
G1 X-3.422 Y7.896 E3.13791
G1 X-3.210 Y8.094 E3.17407
G1 X-1.021 Y5.904 E3.56111
G1 X-1.113 Y6.194 E3.59904
G1 X-0.992 Y6.284 E3.61791
G1 X-2.956 Y8.248 E3.96515
G1 X-2.547 Y8.248 E4.01626
G1 X-0.758 Y6.459 E4.33256
G1 X-0.680 Y6.518 E4.34479
G1 X-0.780 Y6.597 E4.36075
G1 X-0.711 Y6.821 E4.39001
G1 X-2.138 Y8.248 E4.64232
G1 X-1.729 Y8.248 E4.69343
G1 X-0.615 Y7.134 E4.89040
G1 X-0.608 Y7.156 E4.89325
G1 X-0.470 Y7.159 E4.91053
G1 X-0.426 Y7.354 E4.93554
G1 X-1.321 Y8.248 E5.09365
G1 X-0.912 Y8.248 E5.14476
G1 X-0.319 Y7.656 E5.24958
G1 X0.085 Y7.660 E5.30009
G1 X-0.503 Y8.248 E5.40406
G92 E0
G1 X0.532 Y7.214 F480.000
G1 F420
G1 X0.415 Y7.237 E0.01494
G1 X0.380 Y7.366 E0.03167
G1 X0.532 Y7.214 E0.05865
G1 X1.043 Y7.111 E0.12380
G1 X-0.094 Y8.248 E0.32481
G1 X0.315 Y8.248 E0.37592
G1 X5.334 Y3.229 E1.26322
G1 X5.334 Y3.638 E1.31433
G1 X0.724 Y8.248 E2.12934
G1 X1.133 Y8.248 E2.18045
G1 X5.334 Y4.047 E2.92319
G1 X5.334 Y4.456 E2.97430
G1 X1.542 Y8.248 E3.64476
G1 X1.950 Y8.248 E3.69587
G1 X5.334 Y4.865 E4.29404
G1 X5.334 Y5.274 E4.34515
G1 X2.359 Y8.248 E4.87105
G1 X2.768 Y8.248 E4.92216
G1 X5.334 Y5.682 E5.37578
