; generated by Slic3r 1.2.9 on 2019-12-04 at 14:30:11

; external perimeters extrusion width = 0.30mm
; perimeters extrusion width = 0.40mm
; infill extrusion width = 0.40mm
; solid infill extrusion width = 0.40mm
; top infill extrusion width = 0.40mm

M104 S200 ; set temperature
G28 ; home all axes
M109 S200 ; wait for temperature to be reached
G21 ; set units to millimeters
G90 ; use absolute coordinates
M82 ; use absolute distances for extrusion
G92 E0
G1 Z0.200 F1200.000
G1 X-2.402 Y0.912 F1200.000
G1 X-2.509 Y0.806 E0.00069 F1200.000
G1 X-2.509 Y0.577 E0.00174
G1 X-2.173 Y0.912 E0.00392
G1 X-1.944 Y0.912 E0.00496
G1 X-2.509 Y0.348 E0.00862
G1 X-2.509 Y0.119 E0.00967
G1 X-1.715 Y0.912 E0.01482
G1 X-1.486 Y0.912 E0.01587
G1 X-2.509 Y-0.110 E0.02249
G1 X-2.509 Y-0.339 E0.02354
G1 X-1.257 Y0.912 E0.03166
G1 X-1.028 Y0.912 E0.03271
G1 X-2.509 Y-0.569 E0.04230
G1 X-2.509 Y-0.798 E0.04335
G1 X-0.799 Y0.912 E0.05443
G1 X-0.570 Y0.912 E0.05548
G1 X-2.395 Y-0.912 E0.06730
G1 X-2.166 Y-0.912 E0.06835
G1 X-0.341 Y0.912 E0.08018
G1 X-0.112 Y0.912 E0.08123
G1 X-1.937 Y-0.912 E0.09305
G1 X-1.708 Y-0.912 E0.09410
G1 X0.117 Y0.912 E0.10592
G1 X0.346 Y0.912 E0.10697
G1 X-1.479 Y-0.912 E0.11880
G1 X-1.250 Y-0.912 E0.11985
G1 X0.575 Y0.912 E0.13167
G1 X0.804 Y0.912 E0.13272
G1 X-1.021 Y-0.912 E0.14454
G1 X-0.791 Y-0.912 E0.14559
G1 X1.033 Y0.912 E0.15742
G1 X1.262 Y0.912 E0.15847
G1 X-0.562 Y-0.912 E0.17029
G1 X-0.333 Y-0.912 E0.17134
G1 X1.491 Y0.912 E0.18316
G1 X1.720 Y0.912 E0.18421
G1 X-0.104 Y-0.912 E0.19604
G1 X0.125 Y-0.912 E0.19709
G1 X1.949 Y0.912 E0.20891
G1 X2.178 Y0.912 E0.20996
G1 X0.354 Y-0.912 E0.22178
G1 X0.583 Y-0.912 E0.22283
G1 X2.407 Y0.912 E0.23466
G1 X2.522 Y0.798 E0.23540
G1 X0.812 Y-0.912 E0.24648
G1 X1.041 Y-0.912 E0.24753
G1 X2.522 Y0.569 E0.25712
G1 X2.522 Y0.340 E0.25817
G1 X1.270 Y-0.912 E0.26629
G1 X1.499 Y-0.912 E0.26734
G1 X2.522 Y0.110 E0.27396
G1 X2.522 Y-0.119 E0.27501
G1 X1.728 Y-0.912 E0.28016
G1 X1.957 Y-0.912 E0.28121
G1 X2.522 Y-0.348 E0.28487
G1 X2.522 Y-0.577 E0.28591
G1 X2.186 Y-0.912 E0.28809
G1 X2.415 Y-0.912 E0.28914
G1 X2.522 Y-0.806 E0.28983
G92 E0
G1 Z0.400 F1200.000
G1 X2.483 Y0.856 F1200.000
G1 X2.673 Y0.666 E0.00276 F1489.192
G1 X2.673 Y0.153 E0.00802
G1 X1.970 Y0.856 E0.01821
G1 X1.457 Y0.856 E0.02348
G1 X2.673 Y-0.360 E0.04111
G1 X2.645 Y-0.844 E0.04609
G1 X0.945 Y0.856 E0.07076
G1 X0.432 Y0.856 E0.07602
G1 X2.143 Y-0.856 E0.10085
G1 X1.631 Y-0.856 E0.10611
G1 X-0.081 Y0.856 E0.13095
G1 X-0.594 Y0.856 E0.13621
G1 X1.118 Y-0.856 E0.16104
G1 X0.605 Y-0.856 E0.16630
G1 X-1.107 Y0.856 E0.19114
G1 X-1.619 Y0.856 E0.19640
G1 X0.092 Y-0.856 E0.22123
G1 X-0.421 Y-0.856 E0.22649
G1 X-2.132 Y0.856 E0.25133
G1 X-2.633 Y0.844 E0.25647
G1 X-0.934 Y-0.856 E0.28114
G1 X-1.446 Y-0.856 E0.28640
G1 X-2.662 Y0.360 E0.30404
G1 X-2.662 Y-0.153 E0.30930
G1 X-1.959 Y-0.856 E0.31949
G1 X-2.472 Y-0.856 E0.32476
G1 X-2.662 Y-0.666 E0.32751
G92 E0
G1 Z0.600 F1200.000
G1 X1.506 Y0.856 F1200.000
G1 X1.316 Y0.666 E0.00311 F1318.341
G1 X1.316 Y0.087 E0.00983
G1 X2.085 Y0.856 E0.02243
G1 X2.665 Y0.856 E0.02915
G1 X1.316 Y-0.493 E0.05125
G1 X1.532 Y-0.856 E0.05615
G1 X2.881 Y0.493 E0.07825
G1 X2.881 Y-0.087 E0.08496
G1 X2.112 Y-0.856 E0.09757
G1 X2.691 Y-0.856 E0.10428
G1 X2.881 Y-0.666 E0.10740
G92 E0
G1 X1.234 Y-0.938 F1200.000
G1 X1.234 Y-0.938 F1200.000
G1 X-0.011 Y-0.938 F1200.000
G1 X-1.257 Y-0.938 F1200.000
G1 X-1.339 Y-0.666 F1200.000
G1 X-1.529 Y-0.856 E0.00308 F1333.245
G1 X-2.102 Y-0.856 E0.00964
G1 X-1.339 Y-0.093 E0.02200
G1 X-1.339 Y0.480 E0.02857
G1 X-2.675 Y-0.856 E0.05021
G1 X-2.871 Y-0.480 E0.05508
G1 X-1.536 Y0.856 E0.07672
G1 X-2.109 Y0.856 E0.08329
G1 X-2.871 Y0.093 E0.09565
G1 X-2.871 Y0.666 E0.10221
G1 X-2.681 Y0.856 E0.10529
G92 E0
G1 Z0.800 F1200.000
G1 X1.291 Y-0.856 F1200.000
G1 X1.101 Y-0.666 E0.00297 F1380.226
G1 X1.101 Y-0.113 E0.00910
G1 X1.844 Y-0.856 E0.02073
G1 X2.397 Y-0.856 E0.02686
G1 X1.101 Y0.441 E0.04716
G1 X1.239 Y0.856 E0.05200
G1 X2.951 Y-0.856 E0.07879
G1 X3.089 Y-0.441 E0.08364
G1 X1.792 Y0.856 E0.10393
G1 X2.346 Y0.856 E0.11006
G1 X3.089 Y0.113 E0.12169
G1 X3.089 Y0.666 E0.12782
G1 X2.899 Y0.856 E0.13079
G92 E0
G1 X1.019 Y0.938 F1200.000
G1 X1.019 Y0.938 F1200.000
G1 X-0.024 Y0.938 F1200.000
G1 X-1.067 Y0.938 F1200.000
G1 X-1.339 Y0.856 F1200.000
G1 X-1.149 Y0.666 E0.00292 F1404.153
G1 X-1.149 Y0.122 E0.00884
G1 X-1.883 Y0.856 E0.02013
G1 X-2.427 Y0.856 E0.02605
G1 X-1.149 Y-0.422 E0.04571
G1 X-1.259 Y-0.856 E0.05058
G1 X-2.971 Y0.856 E0.07692
G1 X-3.081 Y0.422 E0.08179
G1 X-1.803 Y-0.856 E0.10145
G1 X-2.347 Y-0.856 E0.10737
G1 X-3.081 Y-0.122 E0.11866
G1 X-3.081 Y-0.666 E0.12458
G1 X-2.891 Y-0.856 E0.12750
G92 E0
G1 Z1.000 F1200.000
G1 X1.022 Y0.856 F1200.000
G1 X0.832 Y0.666 E0.00292 F1407.938
G1 X0.832 Y0.123 E0.00880
G1 X1.564 Y0.856 E0.02004
G1 X2.106 Y0.856 E0.02593
G1 X0.832 Y-0.419 E0.04549
G1 X0.937 Y-0.856 E0.05037
G1 X2.649 Y0.856 E0.07663
G1 X3.191 Y0.856 E0.08252
G1 X1.480 Y-0.856 E0.10879
G1 X2.022 Y-0.856 E0.11467
G1 X3.297 Y0.419 E0.13424
G1 X3.297 Y-0.123 E0.14012
G1 X2.564 Y-0.856 E0.15136
G1 X3.107 Y-0.856 E0.15725
G1 X3.297 Y-0.666 E0.16016
G92 E0
G1 X0.750 Y-0.938 F1200.000
G1 X0.750 Y-0.938 F1200.000
G1 X-0.106 Y-0.938 F1200.000
G1 X-0.962 Y-0.938 F1200.000
G1 X-1.044 Y-0.666 F1200.000
G1 X-1.234 Y-0.856 E0.00275 F1494.126
G1 X-1.745 Y-0.856 E0.00797
G1 X-1.044 Y-0.155 E0.01811
G1 X-1.044 Y0.356 E0.02334
G1 X-2.256 Y-0.856 E0.04087
G1 X-2.767 Y-0.856 E0.04610
G1 X-1.070 Y0.842 E0.07064
G1 X-1.567 Y0.856 E0.07573
G1 X-3.264 Y-0.842 E0.10028
G1 X-3.290 Y-0.356 E0.10524
G1 X-2.078 Y0.856 E0.12277
G1 X-2.589 Y0.856 E0.12800
G1 X-3.290 Y0.155 E0.13814
G1 X-3.290 Y0.666 E0.14337
G1 X-3.100 Y0.856 E0.14611
G92 E0
G1 Z1.200 F1200.000
G1 X0.768 Y-0.856 F1200.000
G1 X0.578 Y-0.666 E0.00286 F1434.792
G1 X0.578 Y-0.134 E0.00853
G1 X1.301 Y-0.856 E0.01940
G1 X1.833 Y-0.856 E0.02507
G1 X0.578 Y0.399 E0.04396
G1 X0.654 Y0.856 E0.04890
G1 X2.365 Y-0.856 E0.07467
G1 X2.897 Y-0.856 E0.08034
G1 X1.186 Y0.856 E0.10612
G1 X1.718 Y0.856 E0.11178
G1 X3.430 Y-0.856 E0.13756
G1 X3.505 Y-0.399 E0.14249
G1 X2.250 Y0.856 E0.16138
G1 X2.783 Y0.856 E0.16705
G1 X3.505 Y0.134 E0.17793
G1 X3.505 Y0.666 E0.18360
G1 X3.315 Y0.856 E0.18646
G92 E0
G1 X0.497 Y0.938 F1200.000
G1 X0.497 Y0.938 F1200.000
G1 X-0.159 Y0.938 F1200.000
G1 X-0.814 Y0.938 F1200.000
G1 X-1.086 Y0.856 F1200.000
G1 X-0.896 Y0.666 E0.00302 F1358.267
G1 X-0.896 Y0.104 E0.00935
G1 X-1.648 Y0.856 E0.02131
G1 X-2.210 Y0.856 E0.02764
G1 X-0.896 Y-0.459 E0.04855
G1 X-1.061 Y-0.856 E0.05338
G1 X-2.772 Y0.856 E0.08061
G1 X-3.335 Y0.856 E0.08694
G1 X-1.623 Y-0.856 E0.11416
G1 X-2.185 Y-0.856 E0.12049
G1 X-3.500 Y0.459 E0.14140
G1 X-3.500 Y-0.104 E0.14772
G1 X-2.747 Y-0.856 E0.15969
G1 X-3.310 Y-0.856 E0.16601
G1 X-3.500 Y-0.666 E0.16904
G92 E0
G1 Z1.400 F1200.000
G1 X0.663 Y0.856 F1200.000
G1 X0.473 Y0.666 E0.00273 F1503.604
G1 X0.473 Y0.158 E0.00789
G1 X1.171 Y0.856 E0.01792
G1 X1.679 Y0.856 E0.02308
G1 X0.473 Y-0.350 E0.04041
G1 X0.494 Y-0.837 E0.04536
G1 X2.187 Y0.856 E0.06968
G1 X2.695 Y0.856 E0.07484
G1 X0.983 Y-0.856 E0.09944
G1 X1.491 Y-0.856 E0.10460
G1 X3.203 Y0.856 E0.12920
G1 X3.692 Y0.837 E0.13417
G1 X1.999 Y-0.856 E0.15849
G1 X2.507 Y-0.856 E0.16365
G1 X3.713 Y0.350 E0.18098
G1 X3.713 Y-0.158 E0.18614
G1 X3.015 Y-0.856 E0.19617
G1 X3.523 Y-0.856 E0.20133
G1 X3.713 Y-0.666 E0.20406
G92 E0
G1 X0.391 Y-0.938 F1200.000
G1 X0.391 Y-0.938 F1200.000
G1 X-0.097 Y-0.938 F1200.000
G1 X-0.585 Y-0.938 F1200.000
G1 X-0.667 Y-0.666 F1200.000
G1 X-0.857 Y-0.856 E0.00294 F1396.914
G1 X-1.404 Y-0.856 E0.00892
G1 X-0.667 Y-0.119 E0.02031
G1 X-0.667 Y0.428 E0.02629
G1 X-1.951 Y-0.856 E0.04614
G1 X-2.497 Y-0.856 E0.05212
G1 X-0.786 Y0.856 E0.07860
G1 X-1.332 Y0.856 E0.08457
G1 X-3.044 Y-0.856 E0.11105
G1 X-3.591 Y-0.856 E0.11703
G1 X-1.879 Y0.856 E0.14350
G1 X-2.426 Y0.856 E0.14948
G1 X-3.709 Y-0.428 E0.16933
G1 X-3.709 Y0.119 E0.17531
G1 X-2.972 Y0.856 E0.18671
G1 X-3.519 Y0.856 E0.19269
G1 X-3.709 Y0.666 E0.19562
G92 E0
G1 Z1.600 F1200.000
G1 X0.418 Y-0.666 F1200.000
G1 X0.608 Y-0.856 E0.00289 F1421.682
G1 X1.145 Y-0.856 E0.00866
G1 X0.418 Y-0.129 E0.01971
G1 X0.418 Y0.409 E0.02548
G1 X1.682 Y-0.856 E0.04470
G1 X2.219 Y-0.856 E0.05047
G1 X0.508 Y0.856 E0.07648
G1 X1.045 Y0.856 E0.08226
G1 X2.756 Y-0.856 E0.10827
G1 X3.294 Y-0.856 E0.11404
G1 X1.582 Y0.856 E0.14006
G1 X2.119 Y0.856 E0.14583
G1 X3.831 Y-0.856 E0.17184
G1 X3.921 Y-0.409 E0.17675
G1 X2.656 Y0.856 E0.19596
G1 X3.193 Y0.856 E0.20173
G1 X3.921 Y0.129 E0.21278
G1 X3.921 Y0.666 E0.21856
G1 X3.731 Y0.856 E0.22144
G92 E0
G1 X0.336 Y0.938 F1200.000
G1 X0.336 Y0.938 F1200.000
G1 X-0.042 Y0.938 F1200.000
G1 X-0.420 Y0.938 F1200.000
G1 X-0.692 Y0.856 F1200.000
G1 X-0.502 Y0.666 E0.00284 F1447.465
G1 X-0.502 Y0.138 E0.00840
G1 X-1.219 Y0.856 E0.01912
G1 X-1.747 Y0.856 E0.02469
G1 X-0.502 Y-0.389 E0.04327
G1 X-0.563 Y-0.856 E0.04824
G1 X-2.275 Y0.856 E0.07379
G1 X-2.802 Y0.856 E0.07936
G1 X-1.091 Y-0.856 E0.10491
G1 X-1.618 Y-0.856 E0.11048
G1 X-3.330 Y0.856 E0.13602
G1 X-3.857 Y0.856 E0.14159
G1 X-2.146 Y-0.856 E0.16714
G1 X-2.673 Y-0.856 E0.17271
G1 X-3.919 Y0.389 E0.19130
G1 X-3.919 Y-0.138 E0.19687
G1 X-3.201 Y-0.856 E0.20758
G1 X-3.729 Y-0.856 E0.21315
G1 X-3.919 Y-0.666 E0.21598
G92 E0
G1 Z1.800 F1200.000
G1 X0.402 Y0.666 F1200.000
G1 X0.592 Y0.856 E0.00272 F1509.689
G1 X1.097 Y0.856 E0.00784
G1 X0.402 Y0.160 E0.01780
G1 X0.402 Y-0.346 E0.02292
G1 X1.603 Y0.856 E0.04011
G1 X2.109 Y0.856 E0.04523
G1 X0.420 Y-0.834 E0.06942
G1 X0.903 Y-0.856 E0.07432
G1 X2.615 Y0.856 E0.09881
G1 X3.121 Y0.856 E0.10393
G1 X1.409 Y-0.856 E0.12843
G1 X1.915 Y-0.856 E0.13355
G1 X3.627 Y0.856 E0.15805
G1 X4.111 Y0.834 E0.16295
G1 X2.421 Y-0.856 E0.18713
G1 X2.927 Y-0.856 E0.19225
G1 X4.129 Y0.346 E0.20945
G1 X4.129 Y-0.160 E0.21457
G1 X3.433 Y-0.856 E0.22453
G1 X3.939 Y-0.856 E0.22964
G1 X4.129 Y-0.666 E0.23236
G92 E0
G1 X0.320 Y-0.938 F1200.000
G1 X0.320 Y-0.938 F1200.000
G1 X-0.012 Y-0.938 F1200.000
G1 X-0.345 Y-0.938 F1200.000
G1 X-0.427 Y-0.666 F1200.000
G1 X-0.617 Y-0.856 E0.00270 F1517.336
G1 X-1.120 Y-0.856 E0.00777
G1 X-0.427 Y-0.163 E0.01765
G1 X-0.427 Y0.341 E0.02271
G1 X-1.623 Y-0.856 E0.03975
G1 X-2.126 Y-0.856 E0.04482
G1 X-0.441 Y0.830 E0.06883
G1 X-0.918 Y0.856 E0.07364
G1 X-2.630 Y-0.856 E0.09801
G1 X-3.133 Y-0.856 E0.10308
G1 X-1.422 Y0.856 E0.12745
G1 X-1.925 Y0.856 E0.13252
G1 X-3.636 Y-0.856 E0.15690
G1 X-4.114 Y-0.830 E0.16171
G1 X-2.428 Y0.856 E0.18572
G1 X-2.931 Y0.856 E0.19078
G1 X-4.128 Y-0.341 E0.20782
G1 X-4.128 Y0.163 E0.21289
G1 X-3.435 Y0.856 E0.22276
G1 X-3.938 Y0.856 E0.22783
G1 X-4.128 Y0.666 E0.23054
G92 E0
G1 Z2.000 F1200.000
G1 X0.583 Y-0.856 F1200.000
G1 X0.393 Y-0.666 E0.00277 F1484.057
G1 X0.393 Y-0.151 E0.00806
G1 X1.097 Y-0.856 E0.01832
G1 X1.612 Y-0.856 E0.02362
G1 X0.393 Y0.363 E0.04137
G1 X0.424 Y0.847 E0.04636
G1 X2.126 Y-0.856 E0.07115
G1 X2.641 Y-0.856 E0.07645
G1 X0.929 Y0.856 E0.10136
G1 X1.444 Y0.856 E0.10666
G1 X3.156 Y-0.856 E0.13158
G1 X3.670 Y-0.856 E0.13688
G1 X1.959 Y0.856 E0.16180
G1 X2.473 Y0.856 E0.16710
G1 X4.176 Y-0.847 E0.19189
G1 X4.207 Y-0.363 E0.19688
G1 X2.988 Y0.856 E0.21463
G1 X3.502 Y0.856 E0.21992
G1 X4.207 Y0.151 E0.23018
G1 X4.207 Y0.666 E0.23548
G1 X4.017 Y0.856 E0.23824
G92 E0
G1 X0.311 Y0.938 F1200.000
G1 X0.311 Y0.938 F1200.000
G1 X-0.006 Y0.938 F1200.000
G1 X-0.323 Y0.938 F1200.000
G1 X-0.594 Y0.856 F1200.000
G1 X-0.404 Y0.666 E0.00276 F1487.408
G1 X-0.404 Y0.152 E0.00803
G1 X-1.108 Y0.856 E0.01825
G1 X-1.621 Y0.856 E0.02353
G1 X-0.404 Y-0.361 E0.04120
G1 X-0.434 Y-0.845 E0.04618
G1 X-2.135 Y0.856 E0.07089
G1 X-2.648 Y0.856 E0.07617
G1 X-0.936 Y-0.856 E0.10103
G1 X-1.450 Y-0.856 E0.10630
G1 X-3.161 Y0.856 E0.13117
G1 X-3.675 Y0.856 E0.13644
G1 X-1.963 Y-0.856 E0.16130
G1 X-2.477 Y-0.856 E0.16658
G1 X-4.178 Y0.845 E0.19129
G1 X-4.207 Y0.361 E0.19627
G1 X-2.990 Y-0.856 E0.21395
G1 X-3.504 Y-0.856 E0.21922
G1 X-4.207 Y-0.152 E0.22944
G1 X-4.207 Y-0.666 E0.23471
G1 X-4.017 Y-0.856 E0.23747
G92 E0
G1 Z2.200 F1200.000
G1 X0.385 Y0.666 F1200.000
G1 X0.575 Y0.856 E0.00277 F1481.854
G1 X1.090 Y0.856 E0.00808
G1 X0.385 Y0.150 E0.01837
G1 X0.385 Y-0.365 E0.02368
G1 X1.606 Y0.856 E0.04148
G1 X2.121 Y0.856 E0.04679
G1 X0.417 Y-0.848 E0.07164
G1 X0.925 Y-0.856 E0.07687
G1 X2.636 Y0.856 E0.10183
G1 X3.152 Y0.856 E0.10714
G1 X1.440 Y-0.856 E0.13210
G1 X1.956 Y-0.856 E0.13741
G1 X3.667 Y0.856 E0.16237
G1 X4.175 Y0.848 E0.16760
G1 X2.471 Y-0.856 E0.19245
G1 X2.986 Y-0.856 E0.19776
G1 X4.207 Y0.365 E0.21556
G1 X4.207 Y-0.150 E0.22087
G1 X3.502 Y-0.856 E0.23116
G1 X4.017 Y-0.856 E0.23647
G1 X4.207 Y-0.666 E0.23924
G92 E0
G1 X0.303 Y-0.938 F1200.000
G1 X0.303 Y-0.938 F1200.000
G1 X-0.009 Y-0.938 F1200.000
G1 X-0.321 Y-0.938 F1200.000
G1 X-0.403 Y-0.666 F1200.000
G1 X-0.593 Y-0.856 E0.00276 F1487.024
G1 X-1.107 Y-0.856 E0.00804
G1 X-0.403 Y-0.152 E0.01826
G1 X-0.403 Y0.361 E0.02354
G1 X-1.620 Y-0.856 E0.04122
G1 X-2.134 Y-0.856 E0.04650
G1 X-0.433 Y0.845 E0.07122
G1 X-0.936 Y0.856 E0.07639
G1 X-2.647 Y-0.856 E0.10126
G1 X-3.161 Y-0.856 E0.10653
G1 X-1.449 Y0.856 E0.13140
G1 X-1.963 Y0.856 E0.13668
G1 X-3.674 Y-0.856 E0.16155
G1 X-4.177 Y-0.845 E0.16672
G1 X-2.476 Y0.856 E0.19144
G1 X-2.990 Y0.856 E0.19671
G1 X-4.207 Y-0.361 E0.21440
G1 X-4.207 Y0.152 E0.21968
G1 X-3.503 Y0.856 E0.22990
G1 X-4.017 Y0.856 E0.23518
G1 X-4.207 Y0.666 E0.23794
G92 E0
G1 Z2.400 F1200.000
G1 X0.572 Y-0.856 F1200.000
G1 X0.382 Y-0.666 E0.00277 F1480.863
G1 X0.382 Y-0.150 E0.00809
G1 X1.087 Y-0.856 E0.01839
G1 X1.603 Y-0.856 E0.02371
G1 X0.382 Y0.366 E0.04153
G1 X0.414 Y0.849 E0.04652
G1 X2.119 Y-0.856 E0.07139
G1 X2.634 Y-0.856 E0.07671
G1 X0.923 Y0.856 E0.10169
G1 X1.439 Y0.856 E0.10701
G1 X3.150 Y-0.856 E0.13198
G1 X3.666 Y-0.856 E0.13730
G1 X1.954 Y0.856 E0.16227
G1 X2.470 Y0.856 E0.16759
G1 X4.174 Y-0.849 E0.19246
G1 X4.207 Y-0.366 E0.19746
G1 X2.986 Y0.856 E0.21528
G1 X3.501 Y0.856 E0.22060
G1 X4.207 Y0.150 E0.23089
G1 X4.207 Y0.666 E0.23622
G1 X4.017 Y0.856 E0.23899
G92 E0
G1 X0.300 Y0.938 F1200.000
G1 X0.300 Y0.938 F1200.000
G1 X-0.010 Y0.938 F1200.000
G1 X-0.320 Y0.938 F1200.000
G1 X-0.592 Y0.856 F1200.000
G1 X-0.402 Y0.666 E0.00276 F1486.641
G1 X-0.402 Y0.152 E0.00804
G1 X-1.105 Y0.856 E0.01827
G1 X-1.619 Y0.856 E0.02355
G1 X-0.402 Y-0.362 E0.04124
G1 X-0.431 Y-0.846 E0.04622
G1 X-2.133 Y0.856 E0.07095
G1 X-2.646 Y0.856 E0.07623
G1 X-0.935 Y-0.856 E0.10111
G1 X-1.449 Y-0.856 E0.10639
G1 X-3.160 Y0.856 E0.13126
G1 X-3.674 Y0.856 E0.13654
G1 X-1.962 Y-0.856 E0.16142
G1 X-2.476 Y-0.856 E0.16670
G1 X-4.177 Y0.846 E0.19142
G1 X-4.207 Y0.362 E0.19641
G1 X-2.990 Y-0.856 E0.21410
G1 X-3.503 Y-0.856 E0.21938
G1 X-4.207 Y-0.152 E0.22961
G1 X-4.207 Y-0.666 E0.23489
G1 X-4.017 Y-0.856 E0.23765
G92 E0
G1 Z2.600 F1200.000
G1 X2.252 Y0.666 F1200.000
G1 X2.442 Y0.856 E0.00294 F1393.987
G1 X2.989 Y0.856 E0.00895
G1 X2.252 Y0.118 E0.02038
G1 X2.252 Y-0.430 E0.02639
G1 X3.537 Y0.856 E0.04632
G1 X4.085 Y0.856 E0.05232
G1 X2.373 Y-0.856 E0.07885
G1 X2.921 Y-0.856 E0.08486
G1 X4.207 Y0.430 E0.10478
G1 X4.207 Y-0.118 E0.11079
G1 X3.469 Y-0.856 E0.12223
G1 X4.017 Y-0.856 E0.12823
G1 X4.207 Y-0.666 E0.13117
G92 E0
G1 X2.170 Y-0.663 F1200.000
G1 X2.083 Y-0.663 F1200.000
G1 X2.083 Y-0.938 F1200.000
G1 X1.996 Y-0.938 F1200.000
G1 X1.914 Y-0.666 F1200.000
G1 X1.724 Y-0.856 E0.00308 F1331.634
G1 X1.151 Y-0.856 E0.00966
G1 X1.914 Y-0.092 E0.02205
G1 X1.914 Y0.481 E0.02863
G1 X0.577 Y-0.856 E0.05032
G1 X0.378 Y-0.481 E0.05519
G1 X1.715 Y0.856 E0.07688
G1 X1.142 Y0.856 E0.08346
G1 X0.378 Y0.092 E0.09585
G1 X0.378 Y0.666 E0.10243
G1 X0.568 Y0.856 E0.10551
G1 X-0.401 Y-0.666 F1200.000
G1 X-0.591 Y-0.856 E0.10827 F1486.437
G1 X-1.105 Y-0.856 E0.11356
G1 X-0.401 Y-0.152 E0.12378
G1 X-0.401 Y0.362 E0.12907
G1 X-1.618 Y-0.856 E0.14676
G1 X-2.132 Y-0.856 E0.15204
G1 X-0.431 Y0.846 E0.17678
G1 X-0.934 Y0.856 E0.18195
G1 X-2.646 Y-0.856 E0.20683
G1 X-3.160 Y-0.856 E0.21211
G1 X-1.448 Y0.856 E0.23699
G1 X-1.962 Y0.856 E0.24228
G1 X-3.673 Y-0.856 E0.26716
G1 X-4.177 Y-0.846 E0.27233
G1 X-2.476 Y0.856 E0.29707
G1 X-2.989 Y0.856 E0.30235
G1 X-4.207 Y-0.362 E0.32004
