; generated by Slic3r 1.3.1-dev on 2019-09-25 at 16:41:18

; external perimeters extrusion width = 0.33mm (0.48mm^3/s)
; perimeters extrusion width = 0.34mm (0.49mm^3/s)
; infill extrusion width = 0.34mm (0.49mm^3/s)
; solid infill extrusion width = 0.34mm (0.07mm^3/s)
; top infill extrusion width = 0.34mm (0.07mm^3/s)

; external perimeters extrusion width = 0.33mm (0.48mm^3/s)
; perimeters extrusion width = 0.34mm (0.49mm^3/s)
; infill extrusion width = 0.34mm (0.49mm^3/s)
; solid infill extrusion width = 0.34mm (0.07mm^3/s)
; top infill extrusion width = 0.34mm (0.07mm^3/s)

G28 ; Home all axes 
M109 S200 ; wait for temperature to be reached
G21 ; set units to millimeters
G90 ; use absolute coordinates
M82 ; use absolute distances for extrusion
G1 Z10 F500; move plate down
G1 Z1.0 F500;
G92 E0
; Filament gcode

; Filament gcode

G21 ; set units to millimeters
G90 ; use absolute coordinates
M82 ; use absolute distances for extrusion
G92 E0
G92 E0
T0
G1 Z0.250 F480.000
G1 E-5.00000 F60000.00000
G92 E0
G1 X97.715 Y99.035 F480.000
G1 E5.00000 F60000.00000
G1 F420
G1 X98.003 Y99.387 E5.00316
G1 X98.160 Y99.513 E5.00455
G1 X98.733 Y99.830 E5.00910
G1 X99.085 Y100.106 E5.01220
G1 X99.117 Y100.155 E5.01261
G1 X99.158 Y100.301 E5.01367
G1 X99.143 Y100.408 E5.01442
G1 X98.852 Y100.261 E5.01668
G1 X98.678 Y100.210 E5.01794
G1 X98.374 Y100.193 E5.02006
G1 X97.918 Y100.289 E5.02329
G1 X98.367 Y100.714 E5.02758
G1 X98.818 Y100.901 E5.03097
G1 X98.953 Y101.020 E5.03223
G1 X99.023 Y101.141 E5.03320
G1 X98.967 Y101.205 E5.03378
G1 X98.691 Y101.091 E5.03586
G1 X98.530 Y101.064 E5.03699
G1 X98.262 Y101.067 E5.03885
G1 X98.159 Y101.041 E5.03959
G1 X97.947 Y100.929 E5.04125
G1 X97.778 Y100.764 E5.04290
G1 X97.543 Y100.850 E5.04463
G1 X97.605 Y101.386 E5.04838
G1 X97.666 Y101.571 E5.04973
G1 X97.751 Y101.742 E5.05106
G1 X97.860 Y101.899 E5.05239
G1 X97.991 Y102.038 E5.05371
G1 X98.143 Y102.160 E5.05507
G1 X98.593 Y102.385 E5.05856
G1 X98.821 Y102.564 E5.06058
G1 X98.910 Y102.666 E5.06151
G1 X99.054 Y102.909 E5.06348
G1 X99.068 Y102.972 E5.06393
G1 X99.055 Y103.092 E5.06476
G1 X98.858 Y102.948 E5.06646
G1 X98.487 Y102.855 E5.06911
G1 X98.209 Y102.848 E5.07104
G1 X98.092 Y102.868 E5.07186
G1 X97.808 Y102.777 E5.07393
G1 X97.654 Y102.873 E5.07519
G1 X97.627 Y103.071 E5.07658
G1 X97.977 Y103.371 E5.07978
G1 X98.283 Y103.595 E5.08241
G1 X98.903 Y103.980 E5.08748
G1 X99.247 Y104.156 E5.09016
G1 X99.405 Y104.301 E5.09165
G1 X99.378 Y104.370 E5.09217
G1 X99.332 Y104.390 E5.09252
G1 X99.198 Y104.372 E5.09346
G1 X99.037 Y104.301 E5.09468
G1 X98.284 Y104.317 E5.09991
G1 X98.671 Y104.699 E5.10368
G1 X99.204 Y104.969 E5.10784
G1 X99.251 Y105.017 E5.10830
G1 X99.285 Y105.151 E5.10927
G1 X99.085 Y105.120 E5.11067
G1 X98.665 Y105.163 E5.11361
G1 X99.166 Y105.652 E5.11847
G1 X99.380 Y105.775 E5.12019
G1 X99.359 Y105.861 E5.12080
G1 X99.243 Y105.866 E5.12161
G1 X99.167 Y106.104 E5.12335
G1 X99.554 Y106.393 E5.12670
G1 X99.692 Y106.528 E5.12804
G1 X99.497 Y106.683 E5.12978
G1 X99.570 Y106.920 E5.13150
G1 X99.679 Y106.922 E5.13225
G1 X99.742 Y107.011 E5.13301
G1 X99.834 Y107.418 E5.13590
G1 X100.116 Y107.421 E5.13786
G1 X100.218 Y107.048 E5.14055
G1 X100.246 Y107.027 E5.14079
G1 X100.611 Y106.954 E5.14338
G1 X100.335 Y106.714 E5.14591
G1 X100.274 Y106.626 E5.14666
G1 X100.784 Y106.528 E5.15026
G1 X100.359 Y106.155 E5.15419
G1 X100.450 Y106.038 E5.15522
G1 X100.692 Y105.874 E5.15725
G1 X100.851 Y105.705 E5.15886
G1 X100.805 Y105.523 E5.16016
G1 X100.615 Y105.412 E5.16169
G1 X100.776 Y105.350 E5.16289
G1 X101.017 Y105.164 E5.16500
G1 X101.410 Y104.694 E5.16926
G1 X100.864 Y104.801 E5.17312
G1 X100.727 Y104.802 E5.17408
G1 X100.721 Y104.737 E5.17454
G1 X100.745 Y104.655 E5.17512
G1 X100.807 Y104.589 E5.17575
G1 X101.145 Y104.459 E5.17827
G1 X101.509 Y104.225 E5.18127
G1 X101.593 Y104.113 E5.18225
G1 X101.540 Y103.914 E5.18368
G1 X101.350 Y103.857 E5.18505
G1 X101.077 Y103.903 E5.18698
G1 X100.898 Y103.888 E5.18823
G1 X100.885 Y103.794 E5.18889
G1 X101.224 Y103.671 E5.19139
G1 X101.643 Y103.428 E5.19475
G1 X102.009 Y103.116 E5.19810
G1 X102.270 Y102.802 E5.20093
G1 X105.574 Y102.802 E5.22388
G1 X105.574 Y106.194 E5.24743
G1 X103.174 Y108.488 E5.27048
G1 X96.860 Y108.488 E5.31433
G1 X94.408 Y106.195 E5.33765
G1 X94.408 Y99.914 E5.38126
G1 X96.496 Y97.856 E5.40163
G1 X97.494 Y97.856 E5.40856
G1 X97.579 Y97.816 E5.40921
G1 X97.777 Y98.107 E5.41165
G1 X98.647 Y98.518 E5.41834
G1 X98.691 Y98.548 E5.41871
G1 X98.752 Y98.636 E5.41945
G1 X98.753 Y98.838 E5.42085
G1 X98.637 Y98.831 E5.42166
G1 X98.280 Y98.902 E5.42419
G1 X98.182 Y98.904 E5.42487
G1 X97.861 Y98.833 E5.42715
G1 X97.741 Y98.999 E5.42857
G1 E0.42857 F60000.00000
G92 E0
G1 X97.954 Y97.183 F480.000
G1 E5.00000 F60000.00000
G1 F420
G1 X97.562 Y97.031 E5.00212
G1 E0.00212 F60000.00000
G92 E0
G1 X97.846 Y97.488 F480.000
G1 E5.00000 F60000.00000
G1 F420
G1 X97.955 Y97.181 E5.00226
G1 X98.447 Y97.316 E5.00580
G1 X98.628 Y97.444 E5.00733
G1 X98.737 Y97.601 E5.00866
G1 X98.711 Y97.681 E5.00924
G1 X98.648 Y97.726 E5.00978
G1 X98.576 Y97.737 E5.01029
G1 X98.262 Y97.569 E5.01277
G1 X98.076 Y97.510 E5.01412
G1 X97.891 Y97.492 E5.01541
G1 E0.01541 F60000.00000
G92 E0
G1 X101.673 Y101.908 F480.000
G1 E5.00000 F60000.00000
G1 F420
G1 X101.363 Y102.083 E5.00217
G1 X101.018 Y102.412 E5.00507
G1 E0.00507 F60000.00000
G92 E0
G1 X101.030 Y102.429 F480.000
G1 E5.00000 F60000.00000
G1 F420
G1 X101.166 Y102.618 E5.00161
G1 X100.870 Y102.733 E5.00382
G1 X101.007 Y102.467 E5.00589
G1 E0.00589 F60000.00000
G92 E0
G1 X101.168 Y102.621 F480.000
G1 E5.00000 F60000.00000
G1 F420
G1 X101.565 Y102.530 E5.00272
G1 X102.004 Y102.505 E5.00566
G1 X102.184 Y102.429 E5.00697
G1 X102.272 Y102.460 E5.00759
G1 X102.336 Y102.520 E5.00818
G1 X102.377 Y102.802 E5.01008
G1 E0.01008 F60000.00000
G92 E0
G1 X101.844 Y101.998 F480.000
G1 E5.00000 F60000.00000
G1 F420
G1 X101.673 Y101.908 E5.00077
G1 E0.00077 F60000.00000
G92 E0
G1 X102.338 Y100.574 F480.000
G1 E5.00000 F60000.00000
G1 F420
G1 X102.163 Y100.534 E5.00125
G1 X101.888 Y100.680 E5.00341
G1 X101.022 Y100.976 E5.00976
G1 X100.979 Y100.968 E5.01007
G1 X100.931 Y100.928 E5.01050
G1 X100.961 Y100.846 E5.01110
G1 X101.085 Y100.657 E5.01267
G1 X101.262 Y100.517 E5.01425
G1 X101.703 Y100.307 E5.01764
G1 X102.089 Y99.980 E5.02115
G1 X101.937 Y99.740 E5.02313
G1 X101.679 Y99.814 E5.02500
G1 X101.380 Y99.760 E5.02710
G1 X101.232 Y99.768 E5.02814
G1 X101.018 Y99.835 E5.02969
G1 X100.961 Y99.754 E5.03037
G1 X101.177 Y99.535 E5.03251
G1 X101.317 Y99.436 E5.03370
G1 X101.789 Y99.206 E5.03735
G1 X101.942 Y99.095 E5.03866
G1 X102.185 Y98.829 E5.04116
G1 X102.349 Y98.509 E5.04366
G1 X102.429 Y98.226 E5.04570
G1 X102.225 Y98.092 E5.04739
G1 X101.983 Y98.240 E5.04936
G1 X101.654 Y98.258 E5.05165
G1 X101.517 Y98.287 E5.05262
G1 X101.213 Y98.467 E5.05508
G1 X101.255 Y98.303 E5.05626
G1 X101.344 Y98.177 E5.05733
G1 X101.411 Y98.131 E5.05789
G1 X101.968 Y97.894 E5.06209
G1 X102.202 Y97.736 E5.06406
G1 X102.377 Y97.511 E5.06604
G1 X102.564 Y97.096 E5.06919
G1 X102.012 Y97.165 E5.07305
G1 X101.786 Y97.224 E5.07467
G1 X101.388 Y97.381 E5.07764
G1 X101.292 Y97.365 E5.07832
G1 X101.253 Y97.304 E5.07882
G1 X101.337 Y97.143 E5.08008
G1 X101.480 Y96.990 E5.08154
G1 X101.555 Y96.938 E5.08217
G1 X102.145 Y96.809 E5.08637
G1 X102.280 Y96.709 E5.08753
G1 X102.335 Y96.568 E5.08858
G1 X102.303 Y96.435 E5.08953
G1 X102.153 Y96.211 E5.09140
G1 X102.166 Y96.110 E5.09211
G1 X102.214 Y96.054 E5.09262
G1 X102.304 Y96.019 E5.09329
G1 X102.519 Y95.876 E5.09509
G1 X102.615 Y95.775 E5.09605
G1 X102.790 Y95.520 E5.09820
G1 X102.941 Y95.181 E5.10078
G1 X103.025 Y94.756 E5.10378
G1 X103.005 Y94.648 E5.10455
G1 X102.895 Y94.534 E5.10565
G1 X102.711 Y94.539 E5.10693
G1 X101.819 Y95.098 E5.11424
G1 X101.729 Y95.136 E5.11491
G1 X101.522 Y95.168 E5.11637
G1 X101.277 Y95.133 E5.11809
G1 X101.121 Y95.132 E5.11917
G1 X100.964 Y95.160 E5.12028
G1 X100.815 Y95.217 E5.12139
G1 X100.675 Y95.303 E5.12253
G1 X100.573 Y95.410 E5.12356
G1 X100.526 Y95.281 E5.12451
G1 X100.520 Y94.715 E5.12844
G1 X100.557 Y93.548 E5.13655
G1 X100.606 Y93.257 E5.13860
G1 X100.720 Y92.993 E5.14060
G1 X100.884 Y92.777 E5.14248
G1 X101.238 Y92.589 E5.14526
G1 X101.413 Y92.451 E5.14681
G1 X101.630 Y92.217 E5.14903
G1 X101.830 Y92.078 E5.15072
G1 X101.753 Y91.833 E5.15250
G1 X98.245 Y91.855 E5.17687
G1 X98.172 Y92.091 E5.17859
G1 X98.388 Y92.271 E5.18054
G1 X98.446 Y92.345 E5.18120
G1 X98.596 Y92.631 E5.18344
G1 X98.719 Y92.817 E5.18499
G1 X98.865 Y92.988 E5.18655
G1 X99.031 Y93.139 E5.18811
G1 X99.194 Y93.256 E5.18950
G1 X99.273 Y93.352 E5.19036
G1 X99.397 Y93.600 E5.19229
G1 X99.445 Y93.878 E5.19425
G1 X99.445 Y95.979 E5.20884
G1 X99.252 Y95.789 E5.21072
G1 X98.960 Y95.626 E5.21304
G1 X98.634 Y95.550 E5.21537
G1 X98.340 Y95.564 E5.21741
G1 X98.134 Y95.496 E5.21892
G1 X97.720 Y95.283 E5.22215
G1 X97.533 Y95.146 E5.22376
G1 X97.285 Y94.911 E5.22613
G1 X97.093 Y94.917 E5.22747
G1 X97.003 Y95.077 E5.22874
G1 X97.071 Y95.513 E5.23180
G1 X97.140 Y95.715 E5.23329
G1 X97.302 Y96.026 E5.23572
G1 X97.501 Y96.240 E5.23775
G1 X97.631 Y96.329 E5.23885
G1 X97.910 Y96.450 E5.24096
G1 X97.948 Y96.499 E5.24139
G1 X97.959 Y96.573 E5.24191
G1 X97.904 Y96.651 E5.24258
G1 X97.688 Y96.843 E5.24458
G1 X97.685 Y96.879 E5.24483
G1 X94.407 Y96.879 E5.26760
G1 X94.407 Y93.808 E5.28893
G1 X96.811 Y91.512 E5.31201
G1 X103.207 Y91.512 E5.35643
G1 X105.593 Y93.807 E5.37942
G1 X105.593 Y99.805 E5.42107
G1 X103.513 Y101.873 E5.44144
G1 X101.902 Y101.873 E5.45263
G1 X101.877 Y101.790 E5.45323
G1 X102.075 Y101.621 E5.45504
G1 X102.197 Y101.469 E5.45639
G1 X102.296 Y101.300 E5.45775
G1 X102.369 Y101.119 E5.45911
G1 X102.415 Y100.930 E5.46046
G1 X102.437 Y100.693 E5.46211
G1 X102.367 Y100.608 E5.46288
G1 E0.46288 F60000.00000
G92 E0
G1 X105.235 Y99.823 F480.000
G1 E5.00000 F60000.00000
G1 F420
G1 X105.447 Y99.612 E5.00208
G1 X105.447 Y99.207 E5.00489
G1 X102.928 Y101.727 E5.02963
G1 X102.523 Y101.727 E5.03244
G1 X105.447 Y98.803 E5.06115
G1 X105.447 Y98.398 E5.06396
G1 X102.468 Y101.377 E5.09322
G1 X102.559 Y101.062 E5.09549
G1 X102.577 Y100.863 E5.09688
G1 X105.447 Y97.994 E5.12506
G1 X105.447 Y97.589 E5.12787
G1 X102.471 Y100.565 E5.15709
G1 X102.377 Y100.451 E5.15812
G1 X102.217 Y100.415 E5.15926
G1 X105.447 Y97.185 E5.19098
G1 X105.447 Y96.780 E5.19379
G1 X102.231 Y99.996 E5.22538
G1 X102.074 Y99.748 E5.22741
G1 X105.447 Y96.375 E5.26054
G1 X105.447 Y95.971 E5.26335
G1 X101.830 Y99.588 E5.29887
G1 X101.573 Y99.662 E5.30072
G1 X101.519 Y99.652 E5.30111
G1 X101.819 Y99.505 E5.30343
G1 X102.009 Y99.367 E5.30506
G1 X102.290 Y99.060 E5.30795
G1 X102.480 Y98.690 E5.31084
G1 X102.542 Y98.471 E5.31242
G1 X105.447 Y95.566 E5.34095
G1 X105.447 Y95.162 E5.34376
G1 X102.480 Y98.128 E5.37289
G1 X102.281 Y97.997 E5.37454
G1 X102.502 Y97.702 E5.37711
G1 X105.447 Y94.757 E5.40603
G1 X105.447 Y94.353 E5.40884
G1 X102.835 Y96.965 E5.43449
G1 X102.864 Y96.899 E5.43499
G1 X102.443 Y96.952 E5.43794
G1 X105.447 Y93.948 E5.46744
G1 X105.447 Y93.816 E5.46835
G1 X105.308 Y93.682 E5.46969
G1 X102.457 Y96.533 E5.49769
G1 X102.432 Y96.431 E5.49842
G1 X102.350 Y96.308 E5.49945
G1 X102.581 Y96.153 E5.50137
G1 X102.708 Y96.020 E5.50266
G1 X102.907 Y95.730 E5.50509
G1 X102.949 Y95.637 E5.50580
G1 X105.102 Y93.484 E5.52695
G1 X104.895 Y93.286 E5.52894
G1 X103.138 Y95.044 E5.54620
G1 X103.176 Y94.851 E5.54756
G1 X103.136 Y94.640 E5.54905
G1 X104.689 Y93.087 E5.56430
G1 X104.483 Y92.889 E5.56629
G1 X102.943 Y94.429 E5.58141
G1 X102.900 Y94.385 E5.58184
G1 X102.574 Y94.394 E5.58411
G1 X104.277 Y92.691 E5.60083
G1 X104.070 Y92.492 E5.60282
G1 X101.565 Y94.998 E5.62742
G1 X101.427 Y95.019 E5.62839
G1 X101.172 Y94.987 E5.63018
G1 X103.864 Y92.294 E5.65663
G1 X103.658 Y92.096 E5.65861
G1 X100.670 Y95.073 E5.68791
G1 X100.671 Y94.678 E5.69065
G1 X103.452 Y91.897 E5.71797
G1 X103.246 Y91.699 E5.71995
G1 X100.684 Y94.261 E5.74511
G1 X100.697 Y93.843 E5.74801
G1 X102.882 Y91.658 E5.76947
G1 X102.477 Y91.658 E5.77228
G1 X101.982 Y92.153 E5.77714
G1 X101.886 Y91.845 E5.77938
G1 X102.072 Y91.658 E5.78121
G1 E0.78121 F60000.00000
G92 E0
G1 X102.169 Y91.967 F480.000
G1 E5.00000 F60000.00000
G1 F420
G1 X102.204 Y92.082 E5.00084
G1 X101.881 Y92.306 E5.00357
G1 X101.669 Y92.534 E5.00573
G1 X101.410 Y92.725 E5.00797
G1 X100.765 Y93.370 E5.01430
G1 E0.01430 F60000.00000
G92 E0
G1 X99.112 Y95.582 F480.000
G1 E5.00000 F60000.00000
G1 F420
G1 X99.298 Y95.396 E5.00183
G1 X99.298 Y94.987 E5.00467
G1 X98.822 Y95.463 E5.00935
G1 X98.563 Y95.402 E5.01120
G1 X98.469 Y95.406 E5.01185
G1 X99.298 Y94.577 E5.01999
G1 X99.298 Y94.168 E5.02283
G1 X98.110 Y95.356 E5.03450
G1 X97.840 Y95.217 E5.03661
G1 X99.292 Y93.766 E5.05086
G1 X99.260 Y93.583 E5.05215
G1 X99.195 Y93.453 E5.05316
G1 X97.593 Y95.055 E5.06889
G1 X97.383 Y94.856 E5.07090
G1 X98.992 Y93.247 E5.08670
G1 X98.778 Y93.052 E5.08871
G1 X97.061 Y94.769 E5.10557
G1 X96.857 Y94.776 E5.10699
G1 X96.660 Y95.125 E5.10977
G1 X96.666 Y95.164 E5.11004
G1 X95.097 Y96.732 E5.12545
G1 X94.688 Y96.732 E5.12829
G1 X98.593 Y92.827 E5.16664
G1 X98.438 Y92.574 E5.16871
G1 X94.553 Y96.458 E5.20686
G1 X94.553 Y96.049 E5.20970
G1 X98.280 Y92.322 E5.24631
G1 X98.057 Y92.136 E5.24832
G1 X94.553 Y95.640 E5.28273
G1 X94.553 Y95.231 E5.28558
G1 X98.119 Y91.658 E5.32063
G1 X97.717 Y91.658 E5.32342
G1 X94.553 Y94.822 E5.35449
G1 X94.553 Y94.413 E5.35733
G1 X97.307 Y91.658 E5.38438
G1 X97.000 Y91.658 E5.38652
G1 X94.556 Y94.000 E5.41002
G1 E0.41002 F60000.00000
G92 E0
G1 X96.853 Y94.977 F480.000
G1 E5.00000 F60000.00000
G1 F420
G1 X96.908 Y95.331 E5.00249
G1 X95.507 Y96.732 E5.01625
G1 X95.916 Y96.732 E5.01909
G1 X96.992 Y95.656 E5.02966
G1 X97.125 Y95.932 E5.03179
G1 X96.325 Y96.732 E5.03965
G1 X96.734 Y96.732 E5.04249
G1 X97.293 Y96.174 E5.04798
G1 X97.437 Y96.330 E5.04945
G1 X97.502 Y96.374 E5.04999
G1 X97.143 Y96.732 E5.05352
G1 E0.05352 F60000.00000
G92 E0
G1 X97.978 Y98.728 F480.000
G1 E5.00000 F60000.00000
G1 F420
G1 X98.245 Y98.461 E5.00262
G1 X97.970 Y98.328 E5.00475
G1 X94.554 Y101.743 E5.03829
G1 X94.554 Y101.334 E5.04113
G1 X97.700 Y98.189 E5.07202
G1 X97.572 Y98.002 E5.07359
G1 X97.478 Y98.002 E5.07425
G1 X94.554 Y100.925 E5.10296
G1 X94.554 Y100.516 E5.10580
G1 X97.069 Y98.002 E5.13049
G1 X96.688 Y98.002 E5.13314
G1 X94.554 Y100.107 E5.15395
G1 X94.565 Y100.097 E5.15405
G1 E0.15405 F60000.00000
G92 E0
G1 X97.515 Y100.418 F480.000
G1 E5.00000 F60000.00000
G1 F420
G1 X97.329 Y100.242 E5.00178
G1 X97.788 Y100.145 E5.00504
G1 X98.244 Y99.689 E5.00952
G1 X98.507 Y99.834 E5.01161
G1 X98.295 Y100.047 E5.01370
G1 E0.01370 F60000.00000
G92 E0
G1 X97.618 Y99.088 F480.000
G1 E5.00000 F60000.00000
G1 F420
G1 X94.554 Y102.152 E5.03009
G1 X94.554 Y102.561 E5.03293
G1 X97.802 Y99.313 E5.06482
G1 X97.927 Y99.466 E5.06619
G1 X98.000 Y99.524 E5.06684
G1 X94.554 Y102.970 E5.10068
G1 X94.554 Y103.378 E5.10352
G1 X97.701 Y100.232 E5.13443
G1 X97.888 Y100.409 E5.13621
G1 X97.377 Y100.597 E5.14000
G1 X97.415 Y100.927 E5.14230
G1 X94.554 Y103.787 E5.17040
G1 X94.554 Y104.196 E5.17324
G1 X97.457 Y101.293 E5.20175
G1 X97.555 Y101.605 E5.20401
G1 X94.554 Y104.605 E5.23348
G1 X94.554 Y105.014 E5.23632
G1 X97.703 Y101.865 E5.26724
G1 X97.889 Y102.088 E5.26926
G1 X94.554 Y105.423 E5.30201
G1 X94.554 Y105.832 E5.30485
G1 X97.490 Y102.896 E5.33368
G1 X97.465 Y103.075 E5.33493
G1 X97.602 Y103.192 E5.33618
G1 X94.584 Y106.211 E5.36583
G1 X94.795 Y106.409 E5.36784
G1 X97.823 Y103.381 E5.39758
G1 X98.051 Y103.561 E5.39960
G1 X95.006 Y106.606 E5.42951
G1 E0.42951 F60000.00000
G92 E0
G1 X98.194 Y105.054 F480.000
G1 E5.00000 F60000.00000
G1 F420
G1 X98.533 Y104.715 E5.00333
G1 X98.328 Y104.512 E5.00534
G1 E0.00534 F60000.00000
G92 E0
G1 X98.261 Y104.169 F480.000
G1 E5.00000 F60000.00000
G1 F420
G1 X98.543 Y103.887 E5.00277
G1 X98.290 Y103.731 E5.00483
G1 X97.843 Y104.178 E5.00922
G1 X97.619 Y104.183 E5.01078
G1 X97.730 Y104.292 E5.01186
G1 E0.01186 F60000.00000
G92 E0
G1 X97.916 Y104.106 F480.000
G1 E5.00000 F60000.00000
G1 F420
G1 X95.217 Y106.804 E5.02650
G1 X95.429 Y107.002 E5.02851
G1 X98.122 Y104.309 E5.05496
G1 X98.328 Y104.512 E5.05696
