; generated by Slic3r 1.3.1-dev on 2019-09-25 at 16:28:42

; external perimeters extrusion width = 0.33mm (0.48mm^3/s)
; perimeters extrusion width = 0.34mm (0.49mm^3/s)
; infill extrusion width = 0.34mm (0.49mm^3/s)
; solid infill extrusion width = 0.34mm (0.07mm^3/s)
; top infill extrusion width = 0.34mm (0.07mm^3/s)

; external perimeters extrusion width = 0.33mm (0.48mm^3/s)
; perimeters extrusion width = 0.34mm (0.49mm^3/s)
; infill extrusion width = 0.34mm (0.49mm^3/s)
; solid infill extrusion width = 0.34mm (0.07mm^3/s)
; top infill extrusion width = 0.34mm (0.07mm^3/s)

G28 ; Home all axes 
M109 S200 ; wait for temperature to be reached
G21 ; set units to millimeters
G90 ; use absolute coordinates
M82 ; use absolute distances for extrusion
G1 Z10 F500; move plate down
G1 Z1.0 F500;
G92 E0
; Filament gcode

G21 ; set units to millimeters
G90 ; use absolute coordinates
M82 ; use absolute distances for extrusion
G92 E0
G92 E0
T0
G1 Z0.250 F480.000
G1 E-5.00000 F60000.00000
G92 E0
G1 X-2.124 Y0.303 F480.000
G1 E5.00000 F60000.00000
G1 F420
G1 X-1.675 Y0.728 E5.00429
G1 X-1.224 Y0.915 E5.00768
G1 X-1.088 Y1.034 E5.00894
G1 X-1.019 Y1.155 E5.00991
G1 X-1.074 Y1.219 E5.01049
G1 X-1.351 Y1.104 E5.01257
G1 X-1.511 Y1.078 E5.01370
G1 X-1.780 Y1.080 E5.01556
G1 X-1.883 Y1.055 E5.01630
G1 X-2.094 Y0.943 E5.01796
G1 X-2.264 Y0.778 E5.01961
G1 X-2.498 Y0.864 E5.02134
G1 X-2.436 Y1.400 E5.02509
G1 X-2.376 Y1.585 E5.02644
G1 X-2.290 Y1.756 E5.02777
G1 X-2.181 Y1.913 E5.02910
G1 X-2.051 Y2.052 E5.03042
G1 X-1.898 Y2.174 E5.03178
G1 X-1.449 Y2.399 E5.03527
G1 X-1.220 Y2.578 E5.03729
G1 X-1.132 Y2.680 E5.03822
G1 X-0.987 Y2.923 E5.04019
G1 X-0.973 Y2.986 E5.04064
G1 X-0.986 Y3.106 E5.04147
G1 X-1.184 Y2.962 E5.04317
G1 X-1.555 Y2.869 E5.04582
G1 X-1.833 Y2.862 E5.04775
G1 X-1.949 Y2.881 E5.04857
G1 X-2.233 Y2.791 E5.05064
G1 X-2.388 Y2.887 E5.05190
G1 X-2.415 Y3.085 E5.05329
G1 X-2.065 Y3.385 E5.05649
G1 X-1.759 Y3.609 E5.05912
G1 X-1.138 Y3.993 E5.06419
G1 X-0.795 Y4.170 E5.06687
G1 X-0.636 Y4.315 E5.06836
G1 X-0.664 Y4.383 E5.06888
G1 X-0.710 Y4.404 E5.06923
G1 X-0.843 Y4.386 E5.07017
G1 X-1.005 Y4.315 E5.07139
G1 X-1.758 Y4.331 E5.07662
G1 X-1.371 Y4.713 E5.08039
G1 X-0.837 Y4.983 E5.08455
G1 X-0.790 Y5.030 E5.08501
G1 X-0.757 Y5.165 E5.08598
G1 X-0.956 Y5.134 E5.08738
G1 X-1.377 Y5.177 E5.09032
G1 X-0.875 Y5.666 E5.09518
G1 X-0.661 Y5.789 E5.09690
G1 X-0.682 Y5.875 E5.09751
G1 X-0.799 Y5.880 E5.09832
G1 X-0.874 Y6.118 E5.10006
G1 X-0.488 Y6.407 E5.10341
G1 X-0.349 Y6.542 E5.10475
G1 X-0.544 Y6.697 E5.10648
G1 X-0.472 Y6.934 E5.10821
G1 X-0.363 Y6.936 E5.10896
G1 X-0.300 Y7.025 E5.10972
G1 X-0.208 Y7.432 E5.11261
G1 X0.074 Y7.435 E5.11457
G1 X0.177 Y7.062 E5.11726
G1 X0.204 Y7.040 E5.11750
G1 X0.569 Y6.968 E5.12009
G1 X0.294 Y6.728 E5.12262
G1 X0.232 Y6.640 E5.12337
G1 X0.742 Y6.542 E5.12697
G1 X0.317 Y6.169 E5.13090
G1 X0.408 Y6.052 E5.13193
G1 X0.650 Y5.888 E5.13396
G1 X0.809 Y5.719 E5.13557
G1 X0.763 Y5.537 E5.13687
G1 X0.573 Y5.426 E5.13840
G1 X0.734 Y5.364 E5.13960
G1 X0.975 Y5.178 E5.14171
G1 X1.368 Y4.708 E5.14597
G1 X0.822 Y4.815 E5.14983
G1 X0.685 Y4.816 E5.15079
G1 X0.680 Y4.750 E5.15125
G1 X0.703 Y4.669 E5.15183
G1 X0.765 Y4.603 E5.15246
G1 X1.104 Y4.473 E5.15498
G1 X1.467 Y4.239 E5.15798
G1 X1.551 Y4.127 E5.15896
G1 X1.499 Y3.927 E5.16039
G1 X1.309 Y3.871 E5.16176
G1 X1.035 Y3.917 E5.16369
G1 X0.856 Y3.902 E5.16494
G1 X0.843 Y3.808 E5.16560
G1 X1.183 Y3.685 E5.16810
G1 X1.601 Y3.442 E5.17146
G1 X1.968 Y3.130 E5.17481
G1 X2.228 Y2.816 E5.17764
G1 X5.532 Y2.816 E5.20059
G1 X5.532 Y6.208 E5.22414
G1 X3.133 Y8.502 E5.24719
G1 X-3.181 Y8.502 E5.29104
G1 X-5.634 Y6.208 E5.31436
G1 X-5.634 Y-0.072 E5.35797
G1 X-3.545 Y-2.131 E5.37834
G1 X-2.547 Y-2.131 E5.38527
G1 X-2.463 Y-2.170 E5.38592
G1 X-2.264 Y-1.879 E5.38836
G1 X-1.394 Y-1.468 E5.39504
G1 X-1.351 Y-1.438 E5.39542
G1 X-1.289 Y-1.350 E5.39616
G1 X-1.288 Y-1.148 E5.39756
G1 X-1.404 Y-1.155 E5.39837
G1 X-1.761 Y-1.084 E5.40090
G1 X-1.860 Y-1.082 E5.40158
G1 X-2.180 Y-1.153 E5.40386
G1 X-2.326 Y-0.951 E5.40559
G1 X-2.039 Y-0.599 E5.40875
G1 X-1.882 Y-0.473 E5.41015
G1 X-1.309 Y-0.156 E5.41469
G1 X-0.957 Y0.119 E5.41780
G1 X-0.924 Y0.169 E5.41821
G1 X-0.883 Y0.314 E5.41926
G1 X-0.899 Y0.422 E5.42001
G1 X-1.190 Y0.275 E5.42227
G1 X-1.364 Y0.224 E5.42353
G1 X-1.668 Y0.207 E5.42565
G1 X-2.079 Y0.293 E5.42857
G1 E0.42857 F60000.00000
G92 E0
G1 X-2.087 Y-2.803 F480.000
G1 E5.00000 F60000.00000
G1 F420
G1 X-2.480 Y-2.955 E5.00212
G1 E0.00212 F60000.00000
G92 E0
G1 X-1.393 Y-2.260 F480.000
G1 E5.00000 F60000.00000
G1 F420
G1 X-1.492 Y-2.254 E5.00069
G1 X-1.780 Y-2.417 E5.00298
G1 X-1.966 Y-2.476 E5.00434
G1 X-2.195 Y-2.498 E5.00594
G1 X-2.087 Y-2.805 E5.00819
G1 X-1.594 Y-2.670 E5.01174
G1 X-1.500 Y-2.616 E5.01249
G1 X-1.414 Y-2.543 E5.01328
G1 X-1.305 Y-2.385 E5.01461
G1 X-1.316 Y-2.328 E5.01501
G1 X-1.357 Y-2.286 E5.01542
G1 E0.01542 F60000.00000
G92 E0
G1 X1.631 Y1.922 F480.000
G1 E5.00000 F60000.00000
G1 F420
G1 X1.321 Y2.097 E5.00217
G1 X0.976 Y2.426 E5.00507
G1 E0.00507 F60000.00000
G92 E0
G1 X0.989 Y2.443 F480.000
G1 E5.00000 F60000.00000
G1 F420
G1 X1.125 Y2.632 E5.00161
G1 X0.829 Y2.747 E5.00382
G1 X0.965 Y2.481 E5.00589
G1 E0.00589 F60000.00000
G92 E0
G1 X1.127 Y2.635 F480.000
G1 E5.00000 F60000.00000
G1 F420
G1 X1.523 Y2.544 E5.00272
G1 X1.962 Y2.519 E5.00566
G1 X2.142 Y2.443 E5.00697
G1 X2.230 Y2.474 E5.00759
G1 X2.295 Y2.534 E5.00818
G1 X2.335 Y2.816 E5.01008
G1 E0.01008 F60000.00000
G92 E0
G1 X1.803 Y2.012 F480.000
G1 E5.00000 F60000.00000
G1 F420
G1 X1.631 Y1.922 E5.00077
G1 E0.00077 F60000.00000
G92 E0
G1 X2.296 Y0.587 F480.000
G1 E5.00000 F60000.00000
G1 F420
G1 X2.122 Y0.548 E5.00125
G1 X1.846 Y0.693 E5.00341
G1 X0.980 Y0.990 E5.00976
G1 X0.938 Y0.982 E5.01007
G1 X0.890 Y0.942 E5.01050
G1 X0.919 Y0.860 E5.01110
G1 X1.043 Y0.671 E5.01267
G1 X1.221 Y0.531 E5.01425
G1 X1.662 Y0.321 E5.01764
G1 X2.048 Y-0.006 E5.02115
G1 X1.896 Y-0.247 E5.02313
G1 X1.637 Y-0.172 E5.02500
G1 X1.338 Y-0.226 E5.02710
G1 X1.190 Y-0.218 E5.02814
G1 X0.977 Y-0.152 E5.02969
G1 X0.919 Y-0.232 E5.03037
G1 X1.135 Y-0.451 E5.03251
G1 X1.276 Y-0.550 E5.03370
G1 X1.747 Y-0.780 E5.03735
G1 X1.900 Y-0.891 E5.03866
G1 X2.143 Y-1.157 E5.04116
G1 X2.308 Y-1.477 E5.04366
G1 X2.387 Y-1.760 E5.04570
G1 X2.183 Y-1.894 E5.04739
G1 X1.942 Y-1.746 E5.04936
G1 X1.612 Y-1.728 E5.05165
G1 X1.475 Y-1.699 E5.05262
G1 X1.171 Y-1.519 E5.05508
G1 X1.213 Y-1.683 E5.05626
G1 X1.303 Y-1.809 E5.05733
G1 X1.370 Y-1.855 E5.05789
G1 X1.926 Y-2.092 E5.06209
G1 X2.160 Y-2.250 E5.06406
G1 X2.335 Y-2.475 E5.06604
G1 X2.522 Y-2.890 E5.06919
G1 X1.971 Y-2.821 E5.07305
G1 X1.745 Y-2.762 E5.07467
G1 X1.347 Y-2.605 E5.07764
G1 X1.251 Y-2.621 E5.07832
G1 X1.211 Y-2.682 E5.07882
G1 X1.295 Y-2.843 E5.08008
G1 X1.439 Y-2.996 E5.08154
G1 X1.513 Y-3.048 E5.08217
G1 X2.103 Y-3.177 E5.08637
G1 X2.239 Y-3.277 E5.08753
G1 X2.293 Y-3.418 E5.08858
G1 X2.261 Y-3.551 E5.08953
G1 X2.111 Y-3.775 E5.09140
G1 X2.125 Y-3.876 E5.09211
G1 X2.172 Y-3.932 E5.09262
G1 X2.263 Y-3.967 E5.09329
G1 X2.477 Y-4.110 E5.09509
G1 X2.573 Y-4.211 E5.09605
G1 X2.749 Y-4.466 E5.09820
G1 X2.899 Y-4.805 E5.10078
G1 X2.983 Y-5.230 E5.10378
G1 X2.963 Y-5.338 E5.10455
G1 X2.853 Y-5.452 E5.10565
G1 X2.669 Y-5.447 E5.10693
G1 X1.777 Y-4.888 E5.11424
G1 X1.688 Y-4.850 E5.11491
G1 X1.481 Y-4.818 E5.11637
G1 X1.236 Y-4.853 E5.11809
G1 X1.080 Y-4.855 E5.11917
G1 X0.923 Y-4.826 E5.12028
G1 X0.774 Y-4.770 E5.12139
G1 X0.634 Y-4.683 E5.12253
G1 X0.532 Y-4.576 E5.12356
G1 X0.485 Y-4.705 E5.12451
G1 X0.479 Y-5.271 E5.12844
G1 X0.515 Y-6.438 E5.13655
G1 X0.564 Y-6.729 E5.13860
G1 X0.679 Y-6.993 E5.14060
G1 X0.842 Y-7.209 E5.14248
G1 X1.197 Y-7.397 E5.14526
G1 X1.371 Y-7.535 E5.14681
G1 X1.588 Y-7.769 E5.14903
G1 X1.789 Y-7.908 E5.15072
G1 X1.712 Y-8.153 E5.15250
G1 X-1.797 Y-8.132 E5.17687
G1 X-1.870 Y-7.895 E5.17859
G1 X-1.653 Y-7.715 E5.18054
G1 X-1.595 Y-7.641 E5.18120
G1 X-1.446 Y-7.355 E5.18344
G1 X-1.323 Y-7.169 E5.18499
G1 X-1.177 Y-6.998 E5.18655
G1 X-1.011 Y-6.847 E5.18811
G1 X-0.848 Y-6.731 E5.18950
G1 X-0.769 Y-6.634 E5.19036
G1 X-0.644 Y-6.386 E5.19229
G1 X-0.597 Y-6.108 E5.19425
G1 X-0.597 Y-4.007 E5.20884
G1 X-0.790 Y-4.197 E5.21072
G1 X-1.081 Y-4.360 E5.21304
G1 X-1.407 Y-4.436 E5.21537
G1 X-1.702 Y-4.423 E5.21741
G1 X-1.908 Y-4.490 E5.21892
G1 X-2.322 Y-4.703 E5.22215
G1 X-2.509 Y-4.840 E5.22376
G1 X-2.757 Y-5.075 E5.22613
G1 X-2.949 Y-5.069 E5.22747
G1 X-3.039 Y-4.909 E5.22874
G1 X-2.971 Y-4.473 E5.23180
G1 X-2.901 Y-4.271 E5.23329
G1 X-2.739 Y-3.960 E5.23572
G1 X-2.540 Y-3.746 E5.23775
G1 X-2.411 Y-3.657 E5.23885
G1 X-2.131 Y-3.536 E5.24096
G1 X-2.094 Y-3.488 E5.24139
G1 X-2.082 Y-3.413 E5.24191
G1 X-2.138 Y-3.335 E5.24258
G1 X-2.354 Y-3.143 E5.24458
G1 X-2.357 Y-3.107 E5.24483
G1 X-5.635 Y-3.107 E5.26760
G1 X-5.635 Y-6.178 E5.28893
G1 X-3.231 Y-8.474 E5.31201
G1 X3.165 Y-8.474 E5.35643
G1 X5.552 Y-6.179 E5.37942
G1 X5.552 Y-0.181 E5.42107
G1 X3.472 Y1.887 E5.44144
G1 X1.861 Y1.887 E5.45263
G1 X1.835 Y1.804 E5.45323
G1 X2.033 Y1.634 E5.45504
G1 X2.155 Y1.482 E5.45639
G1 X2.254 Y1.314 E5.45775
G1 X2.328 Y1.133 E5.45911
G1 X2.374 Y0.944 E5.46046
G1 X2.396 Y0.707 E5.46211
G1 X2.325 Y0.622 E5.46288
G1 E0.46288 F60000.00000
G92 E0
G1 X5.194 Y-0.163 F480.000
G1 E5.00000 F60000.00000
G1 F420
G1 X5.405 Y-0.374 E5.00208
G1 X5.405 Y-0.779 E5.00489
G1 X2.886 Y1.741 E5.02963
G1 X2.481 Y1.741 E5.03244
G1 X5.405 Y-1.183 E5.06115
G1 X5.405 Y-1.588 E5.06396
G1 X2.426 Y1.391 E5.09322
G1 X2.518 Y1.076 E5.09549
G1 X2.536 Y0.877 E5.09688
G1 X5.405 Y-1.992 E5.12506
G1 X5.405 Y-2.397 E5.12787
G1 X2.430 Y0.579 E5.15709
G1 X2.336 Y0.465 E5.15812
G1 X2.175 Y0.429 E5.15926
G1 X5.405 Y-2.802 E5.19098
G1 X5.405 Y-3.206 E5.19379
G1 X2.189 Y0.010 E5.22538
G1 X2.033 Y-0.238 E5.22741
G1 X5.405 Y-3.611 E5.26054
G1 X5.405 Y-4.015 E5.26335
G1 X1.789 Y-0.399 E5.29887
G1 X1.531 Y-0.324 E5.30072
G1 X1.477 Y-0.334 E5.30111
G1 X1.778 Y-0.481 E5.30343
G1 X1.967 Y-0.619 E5.30506
G1 X2.248 Y-0.926 E5.30795
G1 X2.438 Y-1.296 E5.31084
G1 X2.500 Y-1.515 E5.31242
G1 X5.405 Y-4.420 E5.34095
G1 X5.405 Y-4.824 E5.34376
G1 X2.439 Y-1.858 E5.37289
G1 X2.240 Y-1.989 E5.37454
G1 X2.461 Y-2.284 E5.37711
G1 X5.405 Y-5.229 E5.40603
G1 X5.405 Y-5.634 E5.40884
G1 X2.793 Y-3.021 E5.43449
G1 X2.823 Y-3.087 E5.43499
G1 X2.402 Y-3.034 E5.43794
G1 X5.405 Y-6.038 E5.46744
G1 X5.405 Y-6.170 E5.46835
G1 X5.266 Y-6.304 E5.46969
G1 X2.415 Y-3.453 E5.49769
G1 X2.391 Y-3.555 E5.49842
G1 X2.308 Y-3.678 E5.49945
G1 X2.539 Y-3.833 E5.50137
G1 X2.667 Y-3.967 E5.50266
G1 X2.866 Y-4.256 E5.50509
G1 X2.907 Y-4.349 E5.50580
G1 X5.060 Y-6.502 E5.52695
G1 X4.854 Y-6.700 E5.52894
G1 X3.096 Y-4.943 E5.54620
G1 X3.134 Y-5.135 E5.54756
G1 X3.095 Y-5.346 E5.54905
G1 X4.648 Y-6.899 E5.56430
G1 X4.441 Y-7.097 E5.56629
G1 X2.901 Y-5.557 E5.58141
G1 X2.859 Y-5.601 E5.58184
G1 X2.532 Y-5.593 E5.58411
G1 X4.235 Y-7.295 E5.60083
G1 X4.029 Y-7.494 E5.60282
G1 X1.524 Y-4.989 E5.62742
G1 X1.386 Y-4.967 E5.62839
G1 X1.130 Y-4.999 E5.63018
G1 X3.823 Y-7.692 E5.65663
G1 X3.616 Y-7.890 E5.65861
G1 X0.628 Y-4.913 E5.68791
G1 X0.629 Y-5.308 E5.69065
G1 X3.410 Y-8.089 E5.71797
G1 X3.204 Y-8.287 E5.71995
G1 X0.642 Y-5.725 E5.74511
G1 X0.655 Y-6.143 E5.74801
G1 X2.840 Y-8.328 E5.76947
G1 X2.435 Y-8.328 E5.77228
G1 X1.941 Y-7.833 E5.77714
G1 X1.844 Y-8.141 E5.77938
G1 X2.031 Y-8.328 E5.78121
G1 E0.78121 F60000.00000
G92 E0
G1 X2.127 Y-8.019 F480.000
G1 E5.00000 F60000.00000
G1 F420
G1 X2.163 Y-7.904 E5.00084
G1 X1.839 Y-7.680 E5.00357
G1 X1.628 Y-7.452 E5.00573
G1 X1.369 Y-7.261 E5.00797
G1 X0.724 Y-6.616 E5.01430
G1 E0.01430 F60000.00000
G92 E0
G1 X-0.930 Y-4.404 F480.000
G1 E5.00000 F60000.00000
G1 F420
G1 X-0.743 Y-4.590 E5.00183
G1 X-0.743 Y-5.000 E5.00467
G1 X-1.220 Y-4.523 E5.00935
G1 X-1.478 Y-4.584 E5.01120
G1 X-1.572 Y-4.580 E5.01185
G1 X-0.743 Y-5.409 E5.01999
G1 X-0.743 Y-5.818 E5.02283
G1 X-1.931 Y-4.630 E5.03450
G1 X-2.201 Y-4.769 E5.03661
G1 X-0.750 Y-6.220 E5.05086
G1 X-0.781 Y-6.403 E5.05215
G1 X-0.846 Y-6.533 E5.05316
G1 X-2.448 Y-4.931 E5.06889
G1 X-2.658 Y-5.130 E5.07090
G1 X-1.049 Y-6.739 E5.08670
G1 X-1.264 Y-6.934 E5.08871
G1 X-2.981 Y-5.217 E5.10557
G1 X-3.184 Y-5.210 E5.10699
G1 X-3.381 Y-4.861 E5.10977
G1 X-3.375 Y-4.822 E5.11004
G1 X-4.944 Y-3.254 E5.12545
G1 X-5.353 Y-3.254 E5.12829
G1 X-1.448 Y-7.159 E5.16664
G1 X-1.604 Y-7.412 E5.16871
G1 X-5.488 Y-3.528 E5.20686
G1 X-5.488 Y-3.937 E5.20970
G1 X-1.761 Y-7.664 E5.24631
G1 X-1.985 Y-7.850 E5.24832
G1 X-5.488 Y-4.346 E5.28273
G1 X-5.488 Y-4.755 E5.28558
G1 X-1.923 Y-8.328 E5.32063
G1 X-2.325 Y-8.328 E5.32342
G1 X-5.488 Y-5.164 E5.35449
G1 X-5.488 Y-5.573 E5.35733
G1 X-2.734 Y-8.328 E5.38438
G1 X-3.042 Y-8.328 E5.38652
G1 X-5.485 Y-5.986 E5.41002
G1 E0.41002 F60000.00000
G92 E0
G1 X-3.189 Y-5.009 F480.000
G1 E5.00000 F60000.00000
G1 F420
G1 X-3.134 Y-4.655 E5.00249
G1 X-4.535 Y-3.254 E5.01625
G1 X-4.126 Y-3.254 E5.01909
G1 X-3.049 Y-4.330 E5.02966
G1 X-2.916 Y-4.054 E5.03179
G1 X-3.717 Y-3.254 E5.03965
G1 X-3.308 Y-3.254 E5.04249
G1 X-2.749 Y-3.812 E5.04798
G1 X-2.605 Y-3.656 E5.04945
G1 X-2.540 Y-3.612 E5.04999
G1 X-2.898 Y-3.254 E5.05352
G1 E0.05352 F60000.00000
G92 E0
G1 X-2.063 Y-1.258 F480.000
G1 E5.00000 F60000.00000
G1 F420
G1 X-1.796 Y-1.525 E5.00262
G1 X-2.072 Y-1.659 E5.00475
G1 X-5.487 Y1.757 E5.03829
G1 X-5.487 Y1.348 E5.04113
G1 X-2.342 Y-1.798 E5.07202
G1 X-2.469 Y-1.984 E5.07359
G1 X-2.564 Y-1.984 E5.07425
G1 X-5.487 Y0.939 E5.10296
G1 X-5.487 Y0.530 E5.10580
G1 X-2.973 Y-1.984 E5.13049
G1 X-3.354 Y-1.984 E5.13314
G1 X-5.487 Y0.121 E5.15395
G1 X-5.477 Y0.111 E5.15405
G1 E0.15405 F60000.00000
G92 E0
G1 X-2.527 Y0.432 F480.000
G1 E5.00000 F60000.00000
G1 F420
G1 X-2.713 Y0.255 E5.00178
G1 X-2.254 Y0.159 E5.00504
G1 X-1.797 Y-0.298 E5.00952
G1 X-1.534 Y-0.152 E5.01161
G1 X-1.747 Y0.061 E5.01370
G1 E0.01370 F60000.00000
G92 E0
G1 X-2.423 Y-0.898 F480.000
G1 E5.00000 F60000.00000
G1 F420
G1 X-5.487 Y2.166 E5.03009
G1 X-5.487 Y2.575 E5.03293
G1 X-2.240 Y-0.673 E5.06482
G1 X-2.115 Y-0.521 E5.06619
G1 X-2.042 Y-0.462 E5.06684
G1 X-5.487 Y2.983 E5.10068
G1 X-5.487 Y3.392 E5.10352
G1 X-2.341 Y0.246 E5.13443
G1 X-2.154 Y0.423 E5.13621
G1 X-2.665 Y0.611 E5.14000
G1 X-2.627 Y0.940 E5.14230
G1 X-5.487 Y3.801 E5.17040
G1 X-5.487 Y4.210 E5.17324
G1 X-2.584 Y1.307 E5.20175
G1 X-2.487 Y1.619 E5.20401
G1 X-5.487 Y4.619 E5.23348
G1 X-5.487 Y5.028 E5.23632
G1 X-2.339 Y1.879 E5.26724
G1 X-2.152 Y2.102 E5.26926
G1 X-5.487 Y5.437 E5.30201
G1 X-5.487 Y5.846 E5.30485
G1 X-2.552 Y2.910 E5.33368
G1 X-2.576 Y3.089 E5.33493
G1 X-2.439 Y3.206 E5.33618
G1 X-5.458 Y6.225 E5.36583
G1 X-5.247 Y6.423 E5.36784
G1 X-2.219 Y3.395 E5.39758
G1 X-1.990 Y3.575 E5.39960
G1 X-5.035 Y6.620 E5.42951
G1 E0.42951 F60000.00000
G92 E0
G1 X-1.848 Y5.068 F480.000
G1 E5.00000 F60000.00000
G1 F420
G1 X-1.508 Y4.729 E5.00333
G1 X-1.714 Y4.526 E5.00534
G1 E0.00534 F60000.00000
G92 E0
G1 X-1.780 Y4.183 F480.000
G1 E5.00000 F60000.00000
G1 F420
G1 X-1.499 Y3.901 E5.00277
G1 X-1.751 Y3.745 E5.00483
G1 X-2.198 Y4.192 E5.00922
G1 X-2.422 Y4.197 E5.01078
G1 X-2.312 Y4.306 E5.01186
G1 E0.01186 F60000.00000
G92 E0
G1 X-2.126 Y4.120 F480.000
G1 E5.00000 F60000.00000
G1 F420
G1 X-4.824 Y6.818 E5.02650
G1 X-4.613 Y7.015 E5.02851
G1 X-1.920 Y4.323 E5.05496
G1 X-1.714 Y4.526 E5.05696
G1 X-4.402 Y7.213 E5.08336
G1 X-4.190 Y7.411 E5.08537
G1 X-1.747 Y4.967 E5.10937
G1 X-1.540 Y5.169 E5.11137
G1 X-3.979 Y7.608 E5.13533
G1 X-3.768 Y7.806 E5.13734
G1 X-1.333 Y5.371 E5.16126
G1 X-1.126 Y5.573 E5.16326
G1 X-3.556 Y8.003 E5.18714
G1 X-3.345 Y8.201 E5.18914
G1 X-0.969 Y5.825 E5.21248
G1 X-1.061 Y6.114 E5.21458
G1 X-0.940 Y6.205 E5.21563
G1 X-3.091 Y8.356 E5.23675
G1 X-2.682 Y8.356 E5.23959
G1 X-0.706 Y6.380 E5.25899
G1 X-0.628 Y6.439 E5.25967
G1 X-0.728 Y6.518 E5.26056
G1 X-0.659 Y6.742 E5.26219
G1 X-2.273 Y8.356 E5.27803
G1 X-1.864 Y8.356 E5.28087
G1 X-0.564 Y7.055 E5.29365
G1 X-0.557 Y7.077 E5.29380
G1 X-0.419 Y7.080 E5.29476
G1 X-0.375 Y7.275 E5.29615
G1 X-1.455 Y8.356 E5.30677
G1 X-1.046 Y8.356 E5.30961
G1 X-0.267 Y7.576 E5.31726
G1 X0.137 Y7.581 E5.32006
G1 X-0.638 Y8.356 E5.32767
G1 E0.32767 F60000.00000
G92 E0
