; generated by Slic3r 1.3.1-dev on 2019-09-25 at 16:16:59

; external perimeters extrusion width = 0.33mm (0.29mm^3/s)
; perimeters extrusion width = 0.40mm (0.35mm^3/s)
; infill extrusion width = 0.38mm (0.33mm^3/s)
; solid infill extrusion width = 0.40mm (0.07mm^3/s)
; top infill extrusion width = 0.40mm (0.07mm^3/s)

; external perimeters extrusion width = 0.33mm (0.29mm^3/s)
; perimeters extrusion width = 0.40mm (0.35mm^3/s)
; infill extrusion width = 0.38mm (0.33mm^3/s)
; solid infill extrusion width = 0.40mm (0.07mm^3/s)
; top infill extrusion width = 0.40mm (0.07mm^3/s)

G28 ; Home all axes 
M109 S200 ; wait for temperature to be reached
G21 ; set units to millimeters
G90 ; use absolute coordinates
M82 ; use absolute distances for extrusion
G1 Z10 F500; move plate down
G1 Z1.0 F500;
G92 E0
; Filament gcode

G21 ; set units to millimeters
G90 ; use absolute coordinates
M82 ; use absolute distances for extrusion
G92 E0
G92 E0
T1
G1 Z0.200 F480.000
G1 E-5.00000 F60000.00000
G92 E0
G1 X-2.072 Y0.317 F480.000
G1 E5.00000 F60000.00000
G1 F300
G1 X-1.661 Y0.707 E5.00252
G1 X-1.211 Y0.894 E5.00468
G1 X-1.069 Y1.018 E5.00552
G1 X-0.973 Y1.184 E5.00637
G1 X-0.931 Y1.350 E5.00713
G1 X-1.083 Y1.242 E5.00796
G1 X-1.358 Y1.129 E5.00928
G1 X-1.513 Y1.103 E5.00998
G1 X-1.783 Y1.105 E5.01118
G1 X-1.892 Y1.079 E5.01168
G1 X-2.109 Y0.963 E5.01277
G1 X-2.270 Y0.807 E5.01377
G1 X-2.471 Y0.880 E5.01472
G1 X-2.412 Y1.395 E5.01703
G1 X-2.352 Y1.576 E5.01787
G1 X-2.269 Y1.743 E5.01871
G1 X-2.162 Y1.897 E5.01954
G1 X-2.034 Y2.034 E5.02037
G1 X-1.885 Y2.153 E5.02122
G1 X-1.435 Y2.378 E5.02345
G1 X-1.203 Y2.560 E5.02476
G1 X-1.111 Y2.665 E5.02538
G1 X-0.967 Y2.909 E5.02665
G1 X-0.938 Y3.172 E5.02782
G1 X-1.195 Y2.985 E5.02923
G1 X-1.558 Y2.894 E5.03090
G1 X-1.838 Y2.887 E5.03214
G1 X-1.951 Y2.907 E5.03265
G1 X-2.231 Y2.819 E5.03396
G1 X-2.360 Y2.896 E5.03462
G1 X-2.389 Y3.074 E5.03542
G1 X-2.049 Y3.365 E5.03741
G1 X-1.745 Y3.588 E5.03909
G1 X-1.123 Y3.974 E5.04234
G1 X-0.782 Y4.149 E5.04404
G1 X-0.625 Y4.291 E5.04499
G1 X-0.619 Y4.338 E5.04520
G1 X-0.640 Y4.392 E5.04546
G1 X-0.706 Y4.430 E5.04580
G1 X-0.850 Y4.410 E5.04644
G1 X-1.010 Y4.340 E5.04722
G1 X-1.698 Y4.355 E5.05028
G1 X-1.356 Y4.692 E5.05241
G1 X-0.823 Y4.962 E5.05507
G1 X-0.768 Y5.018 E5.05542
G1 X-0.745 Y5.107 E5.05583
G1 X-0.783 Y5.167 E5.05614
G1 X-0.825 Y5.180 E5.05633
G1 X-0.956 Y5.159 E5.05693
G1 X-1.321 Y5.196 E5.05856
G1 X-0.860 Y5.646 E5.06142
G1 X-0.605 Y5.792 E5.06272
G1 X-0.528 Y5.815 E5.06308
G1 X-0.538 Y5.895 E5.06344
G1 X-0.781 Y5.904 E5.06452
G1 X-0.845 Y6.108 E5.06547
G1 X-0.472 Y6.388 E5.06754
G1 X-0.311 Y6.543 E5.06854
G1 X-0.515 Y6.706 E5.06970
G1 X-0.453 Y6.909 E5.07064
G1 X-0.363 Y6.911 E5.07104
G1 X-0.276 Y7.015 E5.07164
G1 X-0.188 Y7.407 E5.07343
G1 X0.055 Y7.410 E5.07451
G1 X0.128 Y7.100 E5.07592
G1 X0.157 Y7.046 E5.07620
G1 X0.194 Y7.017 E5.07640
G1 X0.514 Y6.953 E5.07786
G1 X0.276 Y6.745 E5.07926
G1 X0.211 Y6.653 E5.07976
G1 X0.282 Y6.605 E5.08014
G1 X0.687 Y6.527 E5.08198
G1 X0.295 Y6.183 E5.08430
G1 X0.391 Y6.034 E5.08508
G1 X0.634 Y5.869 E5.08639
G1 X0.782 Y5.712 E5.08735
G1 X0.741 Y5.554 E5.08807
G1 X0.602 Y5.472 E5.08879
G1 X0.541 Y5.412 E5.08917
G1 X0.723 Y5.341 E5.09004
G1 X0.848 Y5.259 E5.09071
G1 X0.957 Y5.161 E5.09136
G1 X1.304 Y4.746 E5.09376
G1 X0.825 Y4.840 E5.09593
G1 X0.685 Y4.841 E5.09655
G1 X0.654 Y4.748 E5.09699
G1 X0.681 Y4.656 E5.09742
G1 X0.751 Y4.582 E5.09787
G1 X1.092 Y4.450 E5.09949
G1 X1.450 Y4.220 E5.10138
G1 X1.524 Y4.121 E5.10193
G1 X1.478 Y3.947 E5.10273
G1 X1.307 Y3.897 E5.10353
G1 X1.036 Y3.942 E5.10475
G1 X0.740 Y3.917 E5.10607
G1 X0.694 Y3.871 E5.10636
G1 X0.750 Y3.815 E5.10671
G1 X1.172 Y3.662 E5.10870
G1 X1.587 Y3.421 E5.11084
G1 X1.950 Y3.112 E5.11296
G1 X2.113 Y2.931 E5.11404
G1 X2.266 Y2.722 E5.11519
G1 X2.331 Y2.743 E5.11549
G1 X2.331 Y2.791 E5.11571
G1 X5.557 Y2.791 E5.13005
G1 X5.557 Y6.218 E5.14528
G1 X3.143 Y8.527 E5.16013
G1 X-3.191 Y8.527 E5.18828
G1 X-5.659 Y6.219 E5.20329
G1 X-5.659 Y-0.083 E5.23130
G1 X-3.556 Y-2.156 E5.24442
G1 X-2.574 Y-2.156 E5.24879
G1 X-2.584 Y-2.332 E5.24958
G1 X-2.507 Y-2.350 E5.24993
G1 X-2.428 Y-2.164 E5.25083
G1 X-2.248 Y-1.899 E5.25225
G1 X-1.387 Y-1.492 E5.25648
G1 X-1.264 Y-1.364 E5.25727
G1 X-1.263 Y-1.122 E5.25835
G1 X-1.402 Y-1.130 E5.25897
G1 X-1.759 Y-1.059 E5.26058
G1 X-1.862 Y-1.057 E5.26104
G1 X-2.170 Y-1.125 E5.26244
G1 X-2.295 Y-0.952 E5.26339
G1 X-2.021 Y-0.617 E5.26532
G1 X-1.868 Y-0.494 E5.26619
G1 X-1.295 Y-0.177 E5.26910
G1 X-0.938 Y0.102 E5.27111
G1 X-0.901 Y0.158 E5.27141
G1 X-0.858 Y0.313 E5.27212
G1 X-0.879 Y0.460 E5.27278
G1 X-1.199 Y0.298 E5.27438
G1 X-1.368 Y0.248 E5.27516
G1 X-1.666 Y0.232 E5.27649
G1 X-2.028 Y0.308 E5.27813
G1 E0.27813 F60000.00000
G92 E0
G1 X-2.368 Y-2.383 F480.000
G1 E5.00000 F60000.00000
G1 F300
G1 X-2.407 Y-2.549 E5.00052
G1 X-2.535 Y-2.522 E5.00092
G1 X-2.666 Y-2.449 E5.00138
G1 E0.00138 F60000.00000
G92 E0
G1 X-1.312 Y-2.289 F480.000
G1 E5.00000 F60000.00000
G1 F300
G1 X-1.383 Y-2.236 E5.00039
G1 X-1.467 Y-2.223 E5.00077
G1 X-1.790 Y-2.394 E5.00239
G1 X-1.971 Y-2.451 E5.00324
G1 X-2.229 Y-2.477 E5.00439
G1 X-2.136 Y-2.741 E5.00564
G1 X-2.201 Y-2.800 E5.00603
G1 X-2.157 Y-2.867 E5.00638
G1 X-2.055 Y-2.822 E5.00688
G1 X-1.585 Y-2.693 E5.00904
G1 X-1.396 Y-2.560 E5.01007
G1 X-1.322 Y-2.469 E5.01059
G1 X-1.279 Y-2.389 E5.01100
G1 X-1.291 Y-2.328 E5.01127
G1 E0.01127 F60000.00000
G92 E0
G1 X1.733 Y1.856 F480.000
G1 E5.00000 F60000.00000
G1 F300
G1 X1.344 Y2.079 E5.00254
G1 X0.994 Y2.408 E5.00525
G1 E0.00525 F60000.00000
G92 E0
G1 X1.153 Y2.628 F480.000
G1 E5.00000 F60000.00000
G1 F300
G1 X1.523 Y2.544 E5.00202
G1 X1.962 Y2.519 E5.00436
G1 X2.142 Y2.443 E5.00540
G1 X2.312 Y2.524 E5.00641
G1 X2.430 Y2.634 E5.00727
G1 E0.00727 F60000.00000
G92 E0
G1 X0.987 Y2.398 F480.000
G1 E5.00000 F60000.00000
G1 F300
G1 X1.164 Y2.643 E5.00134
G1 X0.781 Y2.792 E5.00317
G1 X0.876 Y2.579 E5.00421
G1 X0.964 Y2.436 E5.00495
G1 E0.00495 F60000.00000
G92 E0
G1 X2.283 Y0.610 F480.000
G1 E5.00000 F60000.00000
G1 F300
G1 X2.125 Y0.574 E5.00072
G1 X1.855 Y0.717 E5.00208
G1 X0.982 Y1.016 E5.00618
G1 X0.926 Y1.005 E5.00643
G1 X0.884 Y0.970 E5.00667
G1 X0.869 Y0.927 E5.00688
G1 X0.896 Y0.849 E5.00725
G1 X1.024 Y0.654 E5.00828
G1 X1.207 Y0.509 E5.00932
G1 X1.648 Y0.300 E5.01149
G1 X2.015 Y-0.011 E5.01362
G1 X1.885 Y-0.217 E5.01471
G1 X1.639 Y-0.146 E5.01585
G1 X1.337 Y-0.201 E5.01721
G1 X1.194 Y-0.193 E5.01785
G1 X1.055 Y-0.161 E5.01848
G1 X0.855 Y-0.066 E5.01946
G1 X0.808 Y-0.117 E5.01977
G1 X0.863 Y-0.211 E5.02026
G1 X1.119 Y-0.471 E5.02188
G1 X1.263 Y-0.572 E5.02266
G1 X1.734 Y-0.802 E5.02499
G1 X1.883 Y-0.910 E5.02581
G1 X2.122 Y-1.171 E5.02738
G1 X2.284 Y-1.486 E5.02896
G1 X2.358 Y-1.749 E5.03017
G1 X2.183 Y-1.864 E5.03110
G1 X1.949 Y-1.721 E5.03232
G1 X1.616 Y-1.703 E5.03380
G1 X1.484 Y-1.675 E5.03440
G1 X1.269 Y-1.548 E5.03551
G1 X1.167 Y-1.435 E5.03619
G1 X1.169 Y-1.610 E5.03696
G1 X1.230 Y-1.766 E5.03771
G1 X1.358 Y-1.877 E5.03846
G1 X1.914 Y-2.114 E5.04115
G1 X2.143 Y-2.269 E5.04238
G1 X2.314 Y-2.488 E5.04361
G1 X2.481 Y-2.859 E5.04542
G1 X1.976 Y-2.796 E5.04768
G1 X1.752 Y-2.738 E5.04871
G1 X1.353 Y-2.581 E5.05062
G1 X1.250 Y-2.596 E5.05108
G1 X1.183 Y-2.680 E5.05156
G1 X1.275 Y-2.858 E5.05245
G1 X1.390 Y-2.985 E5.05321
G1 X1.505 Y-3.072 E5.05385
G1 X2.090 Y-3.200 E5.05652
G1 X2.219 Y-3.294 E5.05723
G1 X2.267 Y-3.420 E5.05782
G1 X2.238 Y-3.541 E5.05838
G1 X2.087 Y-3.769 E5.05959
G1 X2.102 Y-3.888 E5.06013
G1 X2.157 Y-3.953 E5.06050
G1 X2.251 Y-3.989 E5.06095
G1 X2.461 Y-4.129 E5.06207
G1 X2.554 Y-4.227 E5.06267
G1 X2.727 Y-4.479 E5.06403
G1 X2.875 Y-4.813 E5.06566
G1 X2.959 Y-5.233 E5.06756
G1 X2.924 Y-5.354 E5.06812
G1 X2.834 Y-5.428 E5.06864
G1 X2.676 Y-5.422 E5.06934
G1 X1.789 Y-4.866 E5.07400
G1 X1.695 Y-4.826 E5.07445
G1 X1.481 Y-4.792 E5.07541
G1 X1.234 Y-4.828 E5.07652
G1 X1.082 Y-4.829 E5.07720
G1 X0.929 Y-4.802 E5.07788
G1 X0.785 Y-4.747 E5.07857
G1 X0.556 Y-4.594 E5.07980
G1 X0.489 Y-4.619 E5.08011
G1 X0.460 Y-4.700 E5.08050
G1 X0.464 Y-5.859 E5.08565
G1 X0.507 Y-6.592 E5.08891
G1 X0.589 Y-6.872 E5.09021
G1 X0.655 Y-7.004 E5.09086
G1 X0.826 Y-7.230 E5.09212
G1 X0.996 Y-7.305 E5.09295
G1 X1.182 Y-7.418 E5.09392
G1 X1.354 Y-7.554 E5.09489
G1 X1.572 Y-7.788 E5.09631
G1 X1.759 Y-7.918 E5.09732
G1 X1.693 Y-8.128 E5.09830
G1 X-1.778 Y-8.107 E5.11374
G1 X-1.841 Y-7.904 E5.11468
G1 X-1.635 Y-7.733 E5.11587
G1 X-1.574 Y-7.655 E5.11631
G1 X-1.424 Y-7.368 E5.11775
G1 X-1.303 Y-7.184 E5.11873
G1 X-1.159 Y-7.016 E5.11971
G1 X-0.995 Y-6.866 E5.12070
G1 X-0.831 Y-6.749 E5.12159
G1 X-0.748 Y-6.648 E5.12218
G1 X-0.620 Y-6.394 E5.12344
G1 X-0.572 Y-6.111 E5.12472
G1 X-0.572 Y-3.947 E5.13433
G1 X-0.805 Y-4.176 E5.13578
G1 X-1.091 Y-4.336 E5.13724
G1 X-1.410 Y-4.411 E5.13869
G1 X-1.705 Y-4.397 E5.14001
G1 X-1.917 Y-4.466 E5.14100
G1 X-2.132 Y-4.563 E5.14205
G1 X-2.336 Y-4.682 E5.14309
G1 X-2.525 Y-4.821 E5.14414
G1 X-2.769 Y-5.052 E5.14563
G1 X-2.936 Y-5.043 E5.14637
G1 X-3.013 Y-4.904 E5.14708
G1 X-2.946 Y-4.479 E5.14899
G1 X-2.878 Y-4.281 E5.14992
G1 X-2.719 Y-3.975 E5.15145
G1 X-2.524 Y-3.765 E5.15273
G1 X-2.399 Y-3.679 E5.15340
G1 X-2.116 Y-3.557 E5.15477
G1 X-2.070 Y-3.498 E5.15510
G1 X-2.065 Y-3.394 E5.15557
G1 X-2.119 Y-3.318 E5.15598
G1 X-2.330 Y-3.131 E5.15723
G1 X-2.336 Y-3.037 E5.15765
G1 X-2.402 Y-3.020 E5.15795
G1 X-2.443 Y-3.082 E5.15829
G1 X-5.660 Y-3.082 E5.17258
G1 X-5.660 Y-6.189 E5.18639
G1 X-3.241 Y-8.499 E5.20126
G1 X3.175 Y-8.499 E5.22977
G1 X5.577 Y-6.189 E5.24458
G1 X5.577 Y-0.171 E5.27133
G1 X3.482 Y1.912 E5.28446
G1 X1.750 Y1.912 E5.29216
G1 X1.730 Y1.846 E5.29246
G1 X1.874 Y1.747 E5.29324
G1 X2.015 Y1.617 E5.29409
G1 X2.135 Y1.468 E5.29494
G1 X2.232 Y1.303 E5.29579
G1 X2.304 Y1.126 E5.29665
G1 X2.349 Y0.940 E5.29750
G1 X2.370 Y0.715 E5.29850
G1 X2.311 Y0.645 E5.29891
G1 E0.29891 F60000.00000
G92 E0
G1 X5.212 Y-0.152 F480.000
G1 E5.00000 F60000.00000
G1 F300
G1 X5.427 Y-0.368 E5.00135
G1 X5.427 Y-0.843 E5.00347
G1 X2.822 Y1.763 E5.01984
G1 X2.347 Y1.763 E5.02195
G1 X5.427 Y-1.318 E5.04132
G1 X5.427 Y-1.793 E5.04343
G1 X2.476 Y1.158 E5.06198
G1 X2.527 Y0.732 E5.06389
G1 X2.482 Y0.677 E5.06421
G1 X5.427 Y-2.268 E5.08272
G1 X5.427 Y-2.743 E5.08483
G1 X2.222 Y0.462 E5.10498
G1 X1.996 Y0.411 E5.10601
G1 X1.774 Y0.528 E5.10712
G1 X2.240 Y0.133 E5.10983
G1 X2.177 Y0.032 E5.11037
G1 X5.427 Y-3.219 E5.13080
G1 X5.427 Y-3.694 E5.13291
G1 X1.992 Y-0.259 E5.15450
G1 X1.898 Y-0.408 E5.15528
G1 X1.572 Y-0.314 E5.15679
G1 X1.934 Y-0.675 E5.15906
G1 X2.142 Y-0.822 E5.16020
G1 X2.420 Y-1.126 E5.16202
G1 X2.458 Y-1.200 E5.16240
G1 X5.427 Y-4.169 E5.18106
G1 X5.427 Y-4.644 E5.18317
G1 X2.545 Y-1.761 E5.20129
G1 X2.258 Y-1.950 E5.20281
G1 X5.427 Y-5.119 E5.22273
G1 X5.427 Y-5.594 E5.22484
G1 X2.701 Y-2.868 E5.24198
G1 X2.788 Y-3.061 E5.24292
G1 X2.366 Y-3.008 E5.24481
G1 X5.427 Y-6.070 E5.26405
G1 X5.427 Y-6.180 E5.26454
G1 X5.241 Y-6.359 E5.26569
G1 X2.381 Y-3.499 E5.28367
G1 X2.370 Y-3.545 E5.28387
G1 X2.279 Y-3.682 E5.28461
G1 X2.524 Y-3.846 E5.28592
G1 X2.649 Y-3.977 E5.28672
G1 X2.846 Y-4.263 E5.28827
G1 X2.986 Y-4.579 E5.28980
G1 X4.999 Y-6.592 E5.30245
G1 X4.757 Y-6.825 E5.30395
G1 X3.107 Y-5.175 E5.31432
G1 X3.043 Y-5.400 E5.31535
G1 X2.941 Y-5.484 E5.31594
G1 X4.515 Y-7.058 E5.32584
G1 X4.273 Y-7.291 E5.32733
G1 X2.553 Y-5.571 E5.33814
G1 X2.506 Y-5.569 E5.33835
G1 X1.580 Y-4.988 E5.34320
G1 X1.464 Y-4.957 E5.34374
G1 X4.031 Y-7.524 E5.35987
G1 X3.788 Y-7.757 E5.36136
G1 X1.010 Y-4.979 E5.37882
G1 X0.769 Y-4.944 E5.37991
G1 X0.610 Y-4.883 E5.38066
G1 X0.611 Y-5.054 E5.38142
G1 X3.546 Y-7.990 E5.39987
G1 X3.304 Y-8.223 E5.40137
G1 X0.613 Y-5.531 E5.41828
G1 X0.629 Y-6.023 E5.42047
G1 X2.956 Y-8.350 E5.43509
G1 X2.481 Y-8.350 E5.43720
G1 X1.928 Y-7.797 E5.44068
G1 X1.815 Y-8.159 E5.44236
G1 X2.006 Y-8.350 E5.44356
G1 E0.44356 F60000.00000
G92 E0
G1 X2.119 Y-7.987 F480.000
G1 E5.00000 F60000.00000
G1 F300
G1 X2.141 Y-7.914 E5.00034
G1 X1.830 Y-7.699 E5.00203
G1 X0.683 Y-6.552 E5.00923
G1 E0.00923 F60000.00000
G92 E0
G1 X-0.912 Y-4.368 F480.000
G1 E5.00000 F60000.00000
G1 F300
G1 X-0.721 Y-4.558 E5.00120
G1 X-0.721 Y-5.037 E5.00332
G1 X-1.251 Y-4.508 E5.00665
G1 X-1.482 Y-4.562 E5.00771
G1 X-1.684 Y-4.553 E5.00861
G1 X-0.721 Y-5.515 E5.01466
G1 X-0.721 Y-5.994 E5.01678
G1 X-2.056 Y-4.659 E5.02517
G1 X-2.357 Y-4.836 E5.02673
G1 X-0.768 Y-6.426 E5.03672
G1 X-0.859 Y-6.609 E5.03763
G1 X-0.965 Y-6.707 E5.03827
G1 X-2.615 Y-5.057 E5.04864
G1 X-2.772 Y-5.206 E5.04960
G1 X-2.954 Y-5.197 E5.05041
G1 X-1.224 Y-6.926 E5.06128
G1 X-1.440 Y-7.188 E5.06279
G1 X-5.397 Y-3.232 E5.08766
G1 X-5.510 Y-3.232 E5.08817
G1 X-5.510 Y-3.597 E5.08979
G1 X-1.618 Y-7.489 E5.11425
G1 X-1.716 Y-7.656 E5.11511
G1 X-1.833 Y-7.753 E5.11579
G1 X-5.510 Y-4.075 E5.13890
G1 X-5.510 Y-4.554 E5.14103
G1 X-1.974 Y-8.091 E5.16326
G1 X-1.894 Y-8.350 E5.16446
G1 X-2.193 Y-8.350 E5.16579
G1 X-5.510 Y-5.032 E5.18664
G1 X-5.510 Y-5.511 E5.18877
G1 X-2.671 Y-8.350 E5.20661
G1 X-3.048 Y-8.350 E5.20828
G1 X-5.507 Y-5.993 E5.22342
G1 E0.22342 F60000.00000
G92 E0
G1 X-3.163 Y-4.987 F480.000
G1 E5.00000 F60000.00000
G1 F300
G1 X-4.919 Y-3.232 E5.01103
G1 X-4.440 Y-3.232 E5.01316
G1 X-3.099 Y-4.573 E5.02159
G1 X-2.976 Y-4.218 E5.02327
G1 X-3.962 Y-3.232 E5.02946
G1 X-3.484 Y-3.232 E5.03159
G1 X-2.807 Y-3.908 E5.03584
G1 X-2.574 Y-3.663 E5.03735
G1 X-3.005 Y-3.232 E5.04006
G1 E0.04006 F60000.00000
G92 E0
G1 X-2.475 Y-0.997 F480.000
G1 E5.00000 F60000.00000
G1 F300
G1 X-5.509 Y2.037 E5.01907
G1 X-5.509 Y2.518 E5.02121
G1 X-2.259 Y-0.733 E5.04164
G1 X-2.099 Y-0.537 E5.04276
G1 X-2.029 Y-0.481 E5.04316
G1 X-5.509 Y2.998 E5.06503
G1 E0.06503 F60000.00000
G92 E0
G1 X-5.509 Y1.557 F480.000
G1 E5.00000 F60000.00000
G1 F300
G1 X-2.204 Y-1.748 E5.02077
G1 X-2.317 Y-1.801 E5.02133
G1 X-2.445 Y-1.988 E5.02233
G1 X-5.509 Y1.076 E5.04159
G1 X-5.509 Y0.596 E5.04373
G1 X-2.908 Y-2.006 E5.06008
G1 X-3.360 Y-2.006 E5.06210
G1 X-5.509 Y0.115 E5.07551
G1 X-5.499 Y0.104 E5.07558
G1 E0.07558 F60000.00000
G92 E0
G1 X-2.665 Y-0.807 F480.000
G1 E5.00000 F60000.00000
G1 F300
G1 X-2.698 Y-0.847 E5.00023
G1 X-2.369 Y-1.303 E5.00273
G1 X-2.205 Y-1.267 E5.00348
G1 X-1.878 Y-1.594 E5.00554
G1 X-1.552 Y-1.440 E5.00714
G1 X-1.759 Y-1.233 E5.00844
G1 E0.00844 F60000.00000
G92 E0
G1 X-1.639 Y0.089 F480.000
G1 E5.00000 F60000.00000
G1 F300
G1 X-1.430 Y-0.120 E5.00131
G1 X-1.739 Y-0.291 E5.00288
G1 X-2.200 Y0.169 E5.00578
G1 X-2.674 Y0.269 E5.00793
G1 X-2.481 Y0.451 E5.00911
G1 E0.00911 F60000.00000
G92 E0
G1 X-2.291 Y0.261 F480.000
G1 E5.00000 F60000.00000
G1 F300
G1 X-5.509 Y3.479 E5.02023
G1 X-5.509 Y3.960 E5.02236
G1 X-2.592 Y1.043 E5.04070
G1 X-2.557 Y1.352 E5.04208
G1 X-2.523 Y1.454 E5.04256
G1 X-5.509 Y4.440 E5.06133
G1 X-5.509 Y4.921 E5.06346
G1 X-2.375 Y1.787 E5.08316
G1 X-2.164 Y2.056 E5.08468
G1 X-5.509 Y5.401 E5.10571
G1 E0.10571 F60000.00000
G92 E0
G1 X-2.720 Y3.092 F480.000
G1 E5.00000 F60000.00000
G1 F300
G1 X-2.679 Y2.840 E5.00114
G1 X-2.358 Y2.648 E5.00280
G1 X-2.295 Y2.668 E5.00309
G1 X-1.902 Y2.275 E5.00556
G1 X-1.582 Y2.435 E5.00715
G1 X-1.886 Y2.739 E5.00906
G1 E0.00906 F60000.00000
G92 E0
G1 X-2.529 Y2.902 F480.000
G1 E5.00000 F60000.00000
G1 F300
G1 X-5.509 Y5.882 E5.01873
G1 X-5.509 Y6.208 E5.02018
G1 X-5.429 Y6.283 E5.02066
G1 X-2.377 Y3.230 E5.03985
G1 X-2.118 Y3.452 E5.04137
G1 X-5.181 Y6.515 E5.06062
G1 X-4.933 Y6.747 E5.06213
G1 X-1.841 Y3.656 E5.08156
G1 X-1.548 Y3.844 E5.08311
G1 X-1.913 Y4.208 E5.08540
G1 E0.08540 F60000.00000
G92 E0
G1 X-1.958 Y4.253 F480.000
G1 E5.00000 F60000.00000
G1 F300
G1 X-4.684 Y6.980 E5.01714
G1 X-4.436 Y7.212 E5.01865
G1 X-1.716 Y4.492 E5.03575
G1 X-1.474 Y4.730 E5.03726
G1 X-1.832 Y5.088 E5.03951
G1 E0.03951 F60000.00000
G92 E0
G1 X-1.712 Y4.969 F480.000
G1 E5.00000 F60000.00000
G1 F300
G1 X-4.188 Y7.444 E5.01556
G1 X-3.939 Y7.676 E5.01707
G1 X-1.469 Y5.206 E5.03260
G1 X-1.226 Y5.443 E5.03411
G1 X-3.691 Y7.909 E5.04960
G1 X-3.443 Y8.141 E5.05112
G1 X-0.982 Y5.681 E5.06658
G1 X-0.920 Y5.741 E5.06697
G1 X-1.036 Y6.105 E5.06866
G1 X-0.973 Y6.152 E5.06901
G1 X-3.194 Y8.373 E5.08297
G1 X-2.718 Y8.377 E5.08509
G1 X-0.698 Y6.358 E5.09778
