; generated by Slic3r 1.3.1-dev on 2019-09-25 at 16:55:06

; external perimeters extrusion width = 0.33mm (0.48mm^3/s)
; perimeters extrusion width = 0.34mm (0.49mm^3/s)
; infill extrusion width = 0.34mm (0.49mm^3/s)
; solid infill extrusion width = 0.34mm (0.07mm^3/s)
; top infill extrusion width = 0.34mm (0.07mm^3/s)

; external perimeters extrusion width = 0.33mm (0.48mm^3/s)
; perimeters extrusion width = 0.34mm (0.49mm^3/s)
; infill extrusion width = 0.34mm (0.49mm^3/s)
; solid infill extrusion width = 0.34mm (0.07mm^3/s)
; top infill extrusion width = 0.34mm (0.07mm^3/s)

G28 ; Home all axes 
M109 S200 ; wait for temperature to be reached
G21 ; set units to millimeters
G90 ; use absolute coordinates
M82 ; use absolute distances for extrusion
G1 Z10 F500; move plate down
G1 Z1.0 F500;
G92 E0
; Filament gcode

; Filament gcode

G21 ; set units to millimeters
G90 ; use absolute coordinates
M82 ; use absolute distances for extrusion
G92 E0
G92 E0
T0
G1 Z0.250 F480.000
G1 X-5.173 Y6.640 F480.000
G1 F420
G1 X-5.634 Y6.208 E0.07892
G1 X-5.634 Y-0.072 E0.86401
G1 X-3.545 Y-2.131 E1.23052
G1 X-2.547 Y-2.131 E1.35531
G1 X-2.463 Y-2.170 E1.36695
G1 X-2.264 Y-1.879 E1.41101
G1 X-1.394 Y-1.468 E1.53127
G1 X-1.351 Y-1.438 E1.53794
G1 X-1.289 Y-1.350 E1.55131
G1 X-1.288 Y-1.148 E1.57656
G1 X-1.404 Y-1.155 E1.59107
G1 X-1.761 Y-1.084 E1.63661
G1 X-1.860 Y-1.082 E1.64887
G1 X-2.180 Y-1.153 E1.68996
G1 X-2.326 Y-0.951 E1.72113
G1 X-2.039 Y-0.599 E1.77797
G1 X-1.882 Y-0.473 E1.80309
G1 X-1.309 Y-0.156 E1.88494
G1 X-0.957 Y0.119 E1.94080
G1 X-0.924 Y0.169 E1.94819
G1 X-0.883 Y0.314 E1.96710
G1 X-0.899 Y0.422 E1.98064
G1 X-1.190 Y0.275 E2.02140
G1 X-1.364 Y0.224 E2.04408
G1 X-1.668 Y0.207 E2.08216
G1 X-2.124 Y0.303 E2.14035
G1 X-1.675 Y0.728 E2.21763
G1 X-1.224 Y0.915 E2.27865
G1 X-1.088 Y1.034 E2.30121
G1 X-1.019 Y1.155 E2.31866
G1 X-1.074 Y1.219 E2.32919
G1 X-1.351 Y1.104 E2.36658
G1 X-1.511 Y1.078 E2.38694
G1 X-1.780 Y1.080 E2.42049
G1 X-1.883 Y1.055 E2.43373
G1 X-2.094 Y0.943 E2.46369
G1 X-2.264 Y0.778 E2.49330
G1 X-2.498 Y0.864 E2.52449
G1 X-2.436 Y1.400 E2.59202
G1 X-2.376 Y1.585 E2.61634
G1 X-2.290 Y1.756 E2.64021
G1 X-2.181 Y1.913 E2.66408
G1 X-2.051 Y2.052 E2.68796
G1 X-1.898 Y2.174 E2.71233
G1 X-1.449 Y2.399 E2.77518
G1 X-1.220 Y2.578 E2.81150
G1 X-1.132 Y2.680 E2.82832
G1 X-0.987 Y2.923 E2.86372
G1 X-0.973 Y2.986 E2.87178
G1 X-0.986 Y3.106 E2.88679
G1 X-1.184 Y2.962 E2.91733
G1 X-1.555 Y2.869 E2.96513
G1 X-1.833 Y2.862 E2.99988
G1 X-1.949 Y2.881 E3.01462
G1 X-2.233 Y2.791 E3.05187
G1 X-2.388 Y2.887 E3.07460
G1 X-2.415 Y3.085 E3.09955
G1 X-2.065 Y3.385 E3.15715
G1 X-1.759 Y3.609 E3.20455
G1 X-1.138 Y3.993 E3.29581
G1 X-0.795 Y4.170 E3.34407
G1 X-0.636 Y4.315 E3.37088
G1 X-0.664 Y4.383 E3.38015
G1 X-0.710 Y4.404 E3.38649
G1 X-0.843 Y4.386 E3.40332
G1 X-1.005 Y4.315 E3.42533
G1 X-1.758 Y4.331 E3.51950
G1 X-1.371 Y4.713 E3.58745
G1 X-0.837 Y4.983 E3.66217
G1 X-0.790 Y5.030 E3.67056
G1 X-0.757 Y5.165 E3.68791
G1 X-0.956 Y5.134 E3.71317
G1 X-1.377 Y5.177 E3.76603
G1 X-0.875 Y5.666 E3.85364
G1 X-0.661 Y5.789 E3.88448
G1 X-0.682 Y5.875 E3.89557
G1 X-0.799 Y5.880 E3.91016
G1 X-0.874 Y6.118 E3.94137
G1 X-0.488 Y6.407 E4.00171
G1 X-0.349 Y6.542 E4.02589
G1 X-0.544 Y6.697 E4.05708
G1 X-0.472 Y6.934 E4.08806
G1 X-0.363 Y6.936 E4.10167
G1 X-0.300 Y7.025 E4.11523
G1 X-0.208 Y7.432 E4.16740
G1 X0.074 Y7.435 E4.20268
G1 X0.177 Y7.062 E4.25107
G1 X0.204 Y7.040 E4.25539
G1 X0.569 Y6.968 E4.30192
G1 X0.294 Y6.728 E4.34757
G1 X0.232 Y6.640 E4.36098
G1 X0.742 Y6.542 E4.42588
G1 X0.317 Y6.169 E4.49654
G1 X0.408 Y6.052 E4.51507
G1 X0.650 Y5.888 E4.55163
G1 X0.809 Y5.719 E4.58064
G1 X0.763 Y5.537 E4.60408
G1 X0.573 Y5.426 E4.63157
G1 X0.734 Y5.364 E4.65311
G1 X0.975 Y5.178 E4.69110
G1 X1.368 Y4.708 E4.76777
G1 X0.822 Y4.815 E4.83736
G1 X0.685 Y4.816 E4.85450
G1 X0.680 Y4.750 E4.86278
G1 X0.703 Y4.669 E4.87336
G1 X0.765 Y4.603 E4.88469
G1 X1.104 Y4.473 E4.93000
G1 X1.467 Y4.239 E4.98404
G1 X1.551 Y4.127 E5.00158
G1 X1.499 Y3.927 E5.02731
G1 X1.309 Y3.871 E5.05209
G1 X1.035 Y3.917 E5.08678
G1 X0.856 Y3.902 E5.10925
G1 X0.843 Y3.808 E5.12110
G1 X1.183 Y3.685 E5.16621
G1 X1.601 Y3.442 E5.22671
G1 X1.968 Y3.130 E5.28686
G1 X2.228 Y2.816 E5.33786
G1 X5.532 Y2.816 E5.75088
G1 X5.532 Y6.208 E6.17487
G1 X3.133 Y8.502 E6.58984
G1 X-3.181 Y8.502 E7.37910
G1 X-5.140 Y6.670 E7.71426
G92 E0
G1 X-4.759 Y5.829 F480.000
G1 X-3.749 Y5.391 F480.000
G1 X-3.695 Y5.127 F480.000
G1 X-3.694 Y4.568 F480.000
G1 X-4.039 Y3.911 F480.000
G1 X-4.149 Y2.999 F480.000
G1 X-3.932 Y2.231 F480.000
G1 X-4.131 Y0.556 F480.000
G1 X-3.820 Y-0.538 F480.000
G1 X-2.087 Y-2.803 F480.000
G1 F420
G1 X-2.480 Y-2.955 E0.03823
G92 E0
G1 X-7.688 Y-0.932 F480.000
G1 X-8.760 Y-0.982 F480.000
G1 X-8.760 Y-7.087 F480.000
G1 X-7.760 Y-7.087 F480.000
G1 X-1.934 Y-2.763 F480.000
G1 F420
G1 X-1.594 Y-2.670 E0.04398
G1 X-1.500 Y-2.616 E0.05757
G1 X-1.343 Y-2.455 E0.08569
G1 X-1.305 Y-2.385 E0.09560
G1 X-1.331 Y-2.306 E0.10605
G1 X-1.393 Y-2.260 E0.11577
G1 X-1.492 Y-2.254 E0.12816
G1 X-1.780 Y-2.417 E0.16944
G1 X-1.966 Y-2.476 E0.19383
G1 X-2.195 Y-2.498 E0.22265
G1 X-2.087 Y-2.805 E0.26327
G1 X-1.977 Y-2.775 E0.27747
G92 E0
G1 X-2.425 Y-2.410 F480.000
G1 X2.258 Y0.503 F480.000
G1 X1.631 Y1.922 F480.000
G1 F420
G1 X1.321 Y2.097 E0.03906
G1 X0.976 Y2.426 E0.09133
G92 E0
G1 X1.115 Y2.618 F480.000
G1 F420
G1 X1.125 Y2.632 E0.00205
G1 X0.829 Y2.747 E0.04171
G1 X0.989 Y2.443 E0.08466
G1 X1.089 Y2.582 E0.10604
G92 E0
G1 X1.127 Y2.635 F480.000
G1 F420
G1 X1.523 Y2.544 E0.04898
G1 X1.962 Y2.519 E0.10185
G1 X2.142 Y2.443 E0.12542
G1 X2.230 Y2.474 E0.13665
G1 X2.295 Y2.534 E0.14726
G1 X2.335 Y2.816 E0.18150
G92 E0
G1 X7.657 Y0.722 F480.000
G1 X1.803 Y2.012 F480.000
G1 F420
G1 X1.631 Y1.922 E0.01386
G92 E0
G1 X2.258 Y0.503 F480.000
G1 X-2.734 Y-7.599 F480.000
G1 X-1.870 Y-7.895 F480.000
G1 F420
G1 X-1.653 Y-7.715 E0.03518
G1 X-1.595 Y-7.641 E0.04692
G1 X-1.446 Y-7.355 E0.08726
G1 X-1.323 Y-7.169 E0.11517
G1 X-1.177 Y-6.998 E0.14325
G1 X-1.011 Y-6.847 E0.17133
G1 X-0.848 Y-6.731 E0.19635
G1 X-0.769 Y-6.634 E0.21196
G1 X-0.644 Y-6.386 E0.24667
G1 X-0.597 Y-6.108 E0.28184
G1 X-0.597 Y-4.007 E0.54452
G1 X-0.790 Y-4.197 E0.57834
G1 X-1.081 Y-4.360 E0.62012
G1 X-1.407 Y-4.436 E0.66197
G1 X-1.702 Y-4.423 E0.69879
G1 X-1.908 Y-4.490 E0.72590
G1 X-2.322 Y-4.703 E0.78409
G1 X-2.509 Y-4.840 E0.81309
G1 X-2.757 Y-5.075 E0.85580
G1 X-2.949 Y-5.069 E0.87982
G1 X-3.039 Y-4.909 E0.90274
G1 X-2.971 Y-4.473 E0.95785
G1 X-2.901 Y-4.271 E0.98459
G1 X-2.739 Y-3.960 E1.02841
G1 X-2.540 Y-3.746 E1.06496
G1 X-2.411 Y-3.657 E1.08461
G1 X-2.131 Y-3.536 E1.12265
G1 X-2.094 Y-3.488 E1.13033
G1 X-2.082 Y-3.413 E1.13979
G1 X-2.138 Y-3.335 E1.15176
G1 X-2.354 Y-3.143 E1.18787
G1 X-2.357 Y-3.107 E1.19238
G1 X-5.635 Y-3.107 E1.60217
G1 X-5.635 Y-6.178 E1.98605
G1 X-3.231 Y-8.474 E2.40157
G1 X3.165 Y-8.474 E3.20106
G1 X5.552 Y-6.179 E3.61497
G1 X5.552 Y-0.181 E4.36465
G1 X3.472 Y1.887 E4.73129
G1 X1.861 Y1.887 E4.93266
G1 X1.835 Y1.804 E4.94353
G1 X2.033 Y1.634 E4.97609
G1 X2.155 Y1.482 E5.00049
G1 X2.254 Y1.314 E5.02489
G1 X2.328 Y1.133 E5.04929
G1 X2.374 Y0.944 E5.07369
G1 X2.396 Y0.707 E5.10340
G1 X2.296 Y0.587 E5.12281
G1 X2.122 Y0.548 E5.14522
G1 X1.846 Y0.693 E5.18419
G1 X0.980 Y0.990 E5.29857
G1 X0.938 Y0.982 E5.30402
G1 X0.890 Y0.942 E5.31183
G1 X0.919 Y0.860 E5.32269
G1 X1.043 Y0.671 E5.35090
G1 X1.221 Y0.531 E5.37923
G1 X1.662 Y0.321 E5.44029
G1 X2.048 Y-0.006 E5.50353
G1 X1.896 Y-0.247 E5.53908
G1 X1.637 Y-0.172 E5.57276
G1 X1.338 Y-0.226 E5.61070
G1 X1.190 Y-0.218 E5.62925
G1 X0.977 Y-0.152 E5.65719
G1 X0.919 Y-0.232 E5.66955
G1 X1.135 Y-0.451 E5.70801
G1 X1.276 Y-0.550 E5.72948
G1 X1.747 Y-0.780 E5.79505
G1 X1.900 Y-0.891 E5.81871
G1 X2.143 Y-1.157 E5.86370
G1 X2.308 Y-1.477 E5.90870
G1 X2.387 Y-1.760 E5.94538
G1 X2.183 Y-1.894 E5.97587
G1 X1.942 Y-1.746 E6.01128
G1 X1.612 Y-1.728 E6.05251
G1 X1.475 Y-1.699 E6.07004
G1 X1.171 Y-1.519 E6.11422
G1 X1.213 Y-1.683 E6.13541
G1 X1.303 Y-1.809 E6.15476
G1 X1.370 Y-1.855 E6.16488
G1 X1.926 Y-2.092 E6.24049
G1 X2.160 Y-2.250 E6.27580
G1 X2.335 Y-2.475 E6.31146
G1 X2.522 Y-2.890 E6.36827
G1 X1.971 Y-2.821 E6.43769
G1 X1.745 Y-2.762 E6.46693
G1 X1.347 Y-2.605 E6.52040
G1 X1.251 Y-2.621 E6.53253
G1 X1.211 Y-2.682 E6.54158
G1 X1.295 Y-2.843 E6.56430
G1 X1.439 Y-2.996 E6.59049
G1 X1.513 Y-3.048 E6.60190
G1 X2.103 Y-3.177 E6.67739
G1 X2.239 Y-3.277 E6.69843
G1 X2.293 Y-3.418 E6.71727
G1 X2.261 Y-3.551 E6.73436
G1 X2.111 Y-3.775 E6.76809
G1 X2.125 Y-3.876 E6.78079
G1 X2.172 Y-3.932 E6.78995
G1 X2.263 Y-3.967 E6.80210
G1 X2.477 Y-4.110 E6.83436
G1 X2.573 Y-4.211 E6.85176
G1 X2.749 Y-4.466 E6.89049
G1 X2.899 Y-4.805 E6.93685
G1 X2.983 Y-5.230 E6.99094
G1 X2.963 Y-5.338 E7.00472
G1 X2.853 Y-5.452 E7.02454
G1 X2.669 Y-5.447 E7.04752
G1 X1.777 Y-4.888 E7.17912
G1 X1.688 Y-4.850 E7.19125
G1 X1.481 Y-4.818 E7.21747
G1 X1.236 Y-4.853 E7.24839
G1 X1.080 Y-4.855 E7.26790
G1 X0.923 Y-4.826 E7.28783
G1 X0.774 Y-4.770 E7.30777
G1 X0.634 Y-4.683 E7.32829
G1 X0.532 Y-4.576 E7.34682
G1 X0.485 Y-4.705 E7.36397
G1 X0.479 Y-5.271 E7.43475
G1 X0.515 Y-6.438 E7.58071
G1 X0.564 Y-6.729 E7.61753
G1 X0.679 Y-6.993 E7.65354
G1 X0.842 Y-7.209 E7.68742
G1 X1.197 Y-7.397 E7.73754
G1 X1.371 Y-7.535 E7.76539
G1 X1.588 Y-7.769 E7.80528
G1 X1.789 Y-7.908 E7.83571
G1 X1.712 Y-8.153 E7.86786
G1 X-1.797 Y-8.132 E8.30648
G1 X-1.857 Y-7.938 E8.33179
G92 E0
G1 X-2.734 Y-7.599 F480.000
G1 X1.439 Y-6.486 F480.000
G1 X0.817 Y-6.709 F480.000
G1 F420
G1 X1.276 Y-7.168 E0.08108
G1 X1.535 Y-7.359 E0.12130
G1 X1.746 Y-7.587 E0.16023
G1 X2.070 Y-7.811 E0.20940
G1 X2.034 Y-7.926 E0.22446
G92 E0
G1 X1.938 Y-8.235 F480.000
G1 F420
G1 X2.034 Y-7.926 E0.04039
G1 X2.342 Y-8.235 E0.09491
G1 X2.747 Y-8.235 E0.14548
G1 X0.748 Y-6.236 E0.49876
G1 X0.735 Y-5.819 E0.55098
G1 X3.111 Y-8.194 E0.97089
G1 X3.317 Y-7.996 E1.00666
G1 X0.722 Y-5.401 E1.46532
G1 X0.721 Y-5.006 E1.51473
G1 X3.523 Y-7.797 E2.00914
G1 X3.729 Y-7.599 E2.04491
G1 X1.223 Y-5.093 E2.48797
G1 X1.479 Y-5.060 E2.52019
G1 X1.617 Y-5.082 E2.53765
G1 X3.936 Y-7.401 E2.94757
G1 X4.142 Y-7.202 E2.98334
G1 X2.625 Y-5.686 E3.25144
G1 X2.952 Y-5.695 E3.29229
G1 X2.995 Y-5.650 E3.29996
G1 X4.348 Y-7.004 E3.53923
G1 X4.554 Y-6.806 E3.57500
G1 X3.188 Y-5.439 E3.81658
G1 X3.227 Y-5.228 E3.84335
G1 X3.189 Y-5.036 E3.86792
G1 X4.761 Y-6.607 E4.14572
G1 X4.967 Y-6.409 E4.18149
G1 X3.000 Y-4.442 E4.52914
G1 X2.959 Y-4.349 E4.54192
G1 X2.760 Y-4.060 E4.58579
G1 X2.632 Y-3.926 E4.60888
G1 X2.402 Y-3.772 E4.64359
G1 X2.484 Y-3.648 E4.66209
G1 X2.509 Y-3.546 E4.67526
G1 X5.173 Y-6.210 E5.14627
G1 X5.312 Y-6.077 E5.17040
G1 X5.312 Y-5.945 E5.18686
G1 X2.495 Y-3.128 E5.68490
G1 X2.916 Y-3.180 E5.73793
G1 X2.886 Y-3.114 E5.74693
G1 X5.312 Y-5.540 E6.17578
G1 X5.312 Y-5.136 E6.22636
G1 X2.554 Y-2.378 E6.71397
G1 X2.333 Y-2.082 E6.76008
G1 X2.532 Y-1.951 E6.78987
G1 X5.312 Y-4.731 E7.28133
G1 X5.312 Y-4.327 E7.33190
G1 X2.593 Y-1.608 E7.81254
G1 X2.532 Y-1.389 E7.84094
G1 X2.341 Y-1.019 E7.89295
G1 X2.061 Y-0.712 E7.94496
G1 X1.871 Y-0.574 E7.97428
G1 X1.570 Y-0.427 E8.01610
G1 X1.625 Y-0.418 E8.02299
G1 X1.882 Y-0.492 E8.05644
G1 X5.312 Y-3.922 E8.66287
G1 X5.312 Y-3.518 E8.71344
G1 X2.126 Y-0.331 E9.27672
G1 X2.282 Y-0.083 E9.31337
G1 X5.312 Y-3.113 E9.84895
G1 X5.312 Y-2.708 E9.89952
G1 X2.268 Y0.335 E10.43759
G1 X2.429 Y0.372 E10.45817
G1 X2.523 Y0.485 E10.47659
G1 X5.312 Y-2.304 E10.96966
G1 X5.312 Y-1.899 E11.02023
G1 X2.629 Y0.784 E11.49454
G1 X2.611 Y0.983 E11.51955
G1 X2.520 Y1.298 E11.56051
G1 X5.312 Y-1.495 E12.05417
G1 X5.312 Y-1.090 E12.10474
G1 X2.575 Y1.647 E12.58868
G1 X2.979 Y1.647 E12.63925
G1 X5.312 Y-0.686 E13.05167
G1 X5.312 Y-0.281 E13.10224
G1 X5.287 Y-0.256 E13.10669
G92 E0
G1 X4.677 Y-0.545 F480.000
G1 X-1.519 Y-5.317 F480.000
G1 X-0.837 Y-4.497 F480.000
G1 F420
G1 X-0.836 Y-4.906 E0.05115
G1 X-1.127 Y-4.616 E0.10244
G1 X-1.385 Y-4.677 E0.13564
G1 X-1.479 Y-4.673 E0.14742
G1 X-0.836 Y-5.316 E0.26105
G1 X-0.837 Y-5.725 E0.31219
G1 X-1.838 Y-4.723 E0.48922
G1 X-2.108 Y-4.862 E0.52720
G1 X-0.843 Y-6.127 E0.75082
G1 X-0.875 Y-6.310 E0.77404
G1 X-0.940 Y-6.440 E0.79218
G1 X-2.355 Y-5.025 E1.04239
G1 X-2.565 Y-5.224 E1.07856
G1 X-1.142 Y-6.646 E1.33006
G1 X-1.357 Y-6.841 E1.36626
G1 X-2.887 Y-5.310 E1.63680
G1 X-3.091 Y-5.303 E1.66230
G1 X-3.288 Y-4.954 E1.71243
G1 X-3.282 Y-4.916 E1.71732
G1 X-4.851 Y-3.347 E1.99464
G1 X-5.260 Y-3.347 E2.04578
G1 X-1.541 Y-7.066 E2.70320
G1 X-1.697 Y-7.319 E2.74038
G1 X-5.395 Y-3.621 E3.39416
G1 X-5.395 Y-4.030 E3.44530
G1 X-1.854 Y-7.571 E4.07125
G1 X-2.078 Y-7.756 E4.10757
G1 X-5.395 Y-4.439 E4.69400
G1 X-5.395 Y-4.848 E4.74515
G1 X-2.016 Y-8.235 E5.34316
G1 X-2.418 Y-8.235 E5.39344
G1 X-5.395 Y-5.257 E5.91973
G1 X-5.395 Y-5.667 E5.97087
G1 X-2.827 Y-8.235 E6.42483
G1 X-3.135 Y-8.235 E6.46326
G1 X-5.392 Y-6.079 E6.85342
G92 E0
G1 X-3.282 Y-4.916 F480.000
G1 F420
G1 X-3.227 Y-4.562 E0.04477
G1 X-4.442 Y-3.347 E0.25954
G1 X-4.033 Y-3.347 E0.31068
G1 X-3.143 Y-4.237 E0.46802
G1 X-3.010 Y-3.961 E0.50633
G1 X-3.624 Y-3.347 E0.61487
G1 X-3.214 Y-3.347 E0.66602
G1 X-2.842 Y-3.719 E0.73182
G1 X-2.698 Y-3.563 E0.75836
G1 X-2.633 Y-3.519 E0.76817
G1 X-2.805 Y-3.347 E0.79860
G92 E0
G1 X-1.970 Y-1.352 F480.000
G1 F420
G1 X-1.889 Y-1.432 E0.01424
G1 X-2.165 Y-1.565 E0.05251
G1 X-5.394 Y1.664 E0.62333
G1 X-5.394 Y1.255 E0.67443
G1 X-2.435 Y-1.704 E1.19755
G1 X-2.562 Y-1.891 E1.22579
G1 X-2.657 Y-1.891 E1.23765
G1 X-5.394 Y0.846 E1.72148
G1 X-5.394 Y0.437 E1.77259
G1 X-3.066 Y-1.891 E2.18414
G1 X-3.447 Y-1.891 E2.23179
G1 X-5.394 Y0.028 E2.57352
G1 X-5.384 Y0.018 E2.57534
G92 E0
G1 X-2.434 Y0.339 F480.000
G1 F420
G1 X-2.620 Y0.162 E0.03206
G1 X-2.161 Y0.066 E0.09069
G1 X-1.891 Y-0.204 E0.13845
G1 X-1.628 Y-0.058 E0.17604
G1 X-1.654 Y-0.032 E0.18069
G92 E0
G1 X-2.517 Y-0.805 F480.000
G1 F420
G1 X-5.394 Y2.073 E0.50867
G1 X-5.394 Y2.481 E0.55978
G1 X-2.333 Y-0.580 E1.10097
G1 X-2.208 Y-0.427 E1.12560
G1 X-2.135 Y-0.369 E1.13730
G1 X-5.394 Y2.890 E1.71347
G1 X-5.394 Y3.299 E1.76458
G1 X-2.434 Y0.339 E2.28792
G1 X-2.247 Y0.516 E2.32013
G1 X-2.758 Y0.704 E2.38821
G1 X-2.720 Y1.034 E2.42970
G1 X-5.394 Y3.708 E2.90248
G1 X-5.394 Y4.117 E2.95359
G1 X-2.677 Y1.400 E3.43386
G1 X-2.580 Y1.712 E3.47467
G1 X-5.394 Y4.526 E3.97213
G1 X-5.394 Y4.935 E4.02324
G1 X-2.432 Y1.972 E4.54692
G1 X-2.245 Y2.195 E4.58320
G1 X-5.394 Y5.344 E5.13981
G1 X-5.394 Y5.752 E5.19092
G1 X-2.645 Y3.003 E5.67687
G1 X-2.670 Y3.182 E5.69937
G1 X-2.532 Y3.299 E5.72197
G1 X-5.365 Y6.132 E6.22269
G1 X-5.154 Y6.330 E6.25885
G1 X-2.312 Y3.488 E6.76115
G1 X-2.083 Y3.668 E6.79755
G1 X-4.942 Y6.527 E7.30295
G92 E0
G1 X-1.755 Y4.975 F480.000
G1 F420
G1 X-1.601 Y4.822 E0.02708
G1 X-1.807 Y4.619 E0.06322
G92 E0
G1 X-1.687 Y4.090 F480.000
G1 F420
G1 X-1.592 Y3.994 E0.01689
G1 X-1.844 Y3.838 E0.05402
G1 X-2.105 Y4.099 E0.10014
G1 X-2.329 Y4.104 E0.12817
G1 X-2.219 Y4.213 E0.14756
G92 E0
G1 X-2.219 Y4.213 F480.000
G1 F420
G1 X-4.731 Y6.725 E0.44407
G1 X-4.520 Y6.922 E0.48023
G1 X-2.013 Y4.416 E0.92334
G1 X-1.807 Y4.619 E0.95948
G1 X-4.308 Y7.120 E1.40163
G1 X-4.097 Y7.317 E1.43779
G1 X-1.840 Y5.060 E1.83686
G1 X-1.633 Y5.262 E1.87300
G1 X-3.886 Y7.515 E2.27130
G1 X-3.675 Y7.713 E2.30746
G1 X-1.426 Y5.464 E2.70500
G1 X-1.219 Y5.666 E2.74114
G1 X-3.463 Y7.910 E3.13791
G1 X-3.252 Y8.108 E3.17407
G1 X-1.063 Y5.918 E3.56111
G1 X-1.154 Y6.208 E3.59903
G1 X-1.033 Y6.298 E3.61791
G1 X-2.998 Y8.262 E3.96515
G1 X-2.589 Y8.262 E4.01626
G1 X-0.799 Y6.473 E4.33256
G1 X-0.721 Y6.532 E4.34478
G1 X-0.821 Y6.611 E4.36075
G1 X-0.753 Y6.835 E4.39001
G1 X-2.180 Y8.262 E4.64232
G1 X-1.771 Y8.262 E4.69343
G1 X-0.657 Y7.148 E4.89040
G1 X-0.650 Y7.170 E4.89325
G1 X-0.512 Y7.173 E4.91053
G1 X-0.468 Y7.368 E4.93554
G1 X-1.362 Y8.262 E5.09365
G1 X-0.953 Y8.262 E5.14476
G1 X-0.360 Y7.669 E5.24958
G1 X0.044 Y7.674 E5.30009
G1 X-0.544 Y8.262 E5.40406
G92 E0
G1 X0.490 Y7.228 F480.000
G1 F420
G1 X0.373 Y7.251 E0.01494
G1 X0.338 Y7.380 E0.03167
G1 X0.491 Y7.227 E0.05865
G1 X1.002 Y7.125 E0.12380
G1 X-0.135 Y8.262 E0.32480
G1 X0.273 Y8.262 E0.37591
G1 X5.293 Y3.243 E1.26321
G1 X5.293 Y3.652 E1.31432
G1 X0.682 Y8.262 E2.12934
