; generated by Slic3r 1.2.9 on 2019-12-04 at 14:49:25

; external perimeters extrusion width = 0.30mm
; perimeters extrusion width = 0.51mm
; infill extrusion width = 0.73mm
; solid infill extrusion width = 0.51mm
; top infill extrusion width = 0.51mm

M104 S200 ; set temperature
G28 ; home all axes
M109 S200 ; wait for temperature to be reached
G21 ; set units to millimeters
G90 ; use absolute coordinates
M82 ; use absolute distances for extrusion
T1
G92 E0
G1 Z0.100 F1200.000
G1 X0.693 Y0.232 F1200.000
G1 X-1.381 Y-1.842 E0.00326 F1200.000
G1 X-1.300 Y-1.872 F1200.000
G1 X0.720 Y0.148 E0.00644 F1200.000
G1 X0.765 Y0.082 F1200.000
G1 X-1.236 Y-1.919 E0.00958 F1200.000
G1 X-1.187 Y-1.981 F1200.000
G1 X0.811 Y0.017 E0.01272 F1200.000
G1 X0.861 Y-0.044 F1200.000
G1 X-1.154 Y-2.059 E0.01589 F1200.000
G1 X-1.164 Y-2.181 F1200.000
G1 X0.913 Y-0.103 E0.01915 F1200.000
G1 X0.969 Y-0.159 F1200.000
G1 X-1.947 Y-3.074 E0.02374 F1200.000
G1 X-1.989 Y-3.006 F1200.000
G1 X-1.477 Y-2.493 E0.02454 F1200.000
G1 X-1.651 Y-2.556 F1200.000
G1 X-2.044 Y-2.950 E0.02516 F1200.000
G1 X-2.102 Y-2.896 F1200.000
G1 X-1.798 Y-2.593 E0.02564 F1200.000
G1 X-1.946 Y-2.629 E0.02581
G1 X-2.158 Y-2.841 E0.02614
G1 X-2.205 Y-2.777 F1200.000
G1 X-2.131 Y-2.703 E0.02626 F1200.000
G1 X-1.928 Y-3.167 F1200.000
G1 X1.026 Y-0.213 E0.03090 F1200.000
G1 X1.087 Y-0.263 F1200.000
G1 X-2.779 Y-4.128 E0.03698 F1200.000
G1 X-2.676 Y-3.915 F1200.000
G1 X-2.206 Y-3.445 E0.03772 F1200.000
G1 X-1.972 Y-4.100 F1200.000
G1 X1.585 Y-0.542 E0.04331 F1200.000
G1 X1.508 Y-0.508 F1200.000
G1 X-2.176 Y-4.193 E0.04910 F1200.000
G1 X-2.452 Y-4.358 F1200.000
G1 X1.431 Y-0.474 E0.05521 F1200.000
G1 X1.357 Y-0.437 F1200.000
G1 X-2.858 Y-4.652 E0.06183 F1200.000
G1 X-2.871 Y-4.554 F1200.000
G1 X1.284 Y-0.399 E0.06836 F1200.000
G1 X1.217 Y-0.356 F1200.000
G1 X-2.854 Y-4.426 E0.07476 F1200.000
G1 X-2.833 Y-4.294 E0.07491
G1 X1.150 Y-0.311 E0.08117
G1 X1.215 Y0.198 F1200.000
G1 X1.551 Y0.535 E0.08170 F1200.000
G1 X1.622 Y0.494 F1200.000
G1 X1.314 Y0.186 E0.08219 F1200.000
G1 X1.438 Y0.200 E0.08232
G1 X1.691 Y0.452 E0.08272
G1 X1.750 Y0.400 F1200.000
G1 X1.587 Y0.237 E0.08298 F1200.000
G1 X1.697 Y0.236 F1200.000
G1 X1.809 Y0.348 E0.08315 F1200.000
G1 X1.868 Y0.295 F1200.000
G1 X1.784 Y0.212 E0.08328 F1200.000
G1 X1.481 Y0.576 F1200.000
G1 X1.124 Y0.218 E0.08385 F1200.000
G1 X1.041 Y0.247 F1200.000
G1 X1.407 Y0.612 E0.08442 F1200.000
G1 X1.327 Y0.644 F1200.000
G1 X0.971 Y0.288 E0.08498 F1200.000
G1 X0.900 Y0.328 F1200.000
G1 X1.250 Y0.678 E0.08553 F1200.000
G1 X1.175 Y0.714 F1200.000
G1 X0.813 Y0.352 E0.08610 F1200.000
G1 X1.109 Y0.759 F1200.000
G1 X-1.492 Y-1.842 E0.09019 F1200.000
G1 X-1.726 Y-1.965 F1200.000
G1 X1.047 Y0.808 E0.09455 F1200.000
G1 X0.989 Y0.862 F1200.000
G1 X-1.921 Y-2.049 E0.09912 F1200.000
G1 X-2.059 Y-2.076 F1200.000
G1 X-1.275 Y-1.292 E0.10036 F1200.000
G1 X-1.163 Y-1.179 F1200.000
G1 X0.939 Y0.922 E0.10366 F1200.000
G1 X0.891 Y0.986 F1200.000
G1 X-1.131 Y-1.036 E0.10684 F1200.000
G1 X-1.158 Y-0.730 F1200.000
G1 X0.788 Y1.216 E0.10990 F1200.000
G1 X0.817 Y1.134 F1200.000
G1 X-1.134 Y-0.817 E0.11297 F1200.000
G1 X-1.129 Y-0.924 E0.11308
G1 X0.852 Y1.058 E0.11620
G1 X0.975 Y1.403 F1200.000
G1 X1.642 Y2.070 E0.11725 F1200.000
G1 X1.570 Y2.109 F1200.000
G1 X-1.258 Y-0.719 E0.12169 F1200.000
G1 X-1.393 Y-0.743 F1200.000
G1 X1.499 Y2.149 E0.12624 F1200.000
G1 X1.427 Y2.188 F1200.000
G1 X-1.486 Y-0.724 E0.13082 F1200.000
G1 X-1.578 Y-0.706 F1200.000
G1 X1.358 Y2.230 E0.13543 F1200.000
G1 X1.292 Y2.276 F1200.000
G1 X-1.670 Y-0.687 E0.14009 F1200.000
G1 X-1.671 Y-0.243 F1200.000
G1 X-2.171 Y-0.743 E0.14087 F1200.000
G1 X-2.012 Y-0.695 E0.14106
G1 X-1.441 Y-0.124 E0.14196
G1 X-1.174 Y0.032 F1200.000
G1 X-1.879 Y-0.674 E0.14307 F1200.000
G1 X-1.768 Y-0.674 E0.14319
G1 X1.228 Y2.323 E0.14790
G1 X1.169 Y2.374 F1200.000
G1 X-0.749 Y0.456 E0.15091 F1200.000
G1 X-0.728 Y0.589 E0.15106
G1 X1.109 Y2.426 E0.15395
G1 X1.056 Y2.484 F1200.000
G1 X-0.736 Y0.692 E0.15677 F1200.000
G1 X-0.760 Y0.780 F1200.000
G1 X1.003 Y2.542 E0.15954 F1200.000
G1 X0.954 Y2.605 F1200.000
G1 X-0.819 Y0.831 E0.16233 F1200.000
G1 X-0.920 Y0.841 F1200.000
G1 X0.908 Y2.669 E0.16520 F1200.000
G1 X0.864 Y2.737 F1200.000
G1 X-1.170 Y0.702 E0.16840 F1200.000
G1 X-1.337 Y0.647 F1200.000
G1 X0.824 Y2.807 E0.17179 F1200.000
G1 X0.786 Y2.881 F1200.000
G1 X-1.471 Y0.623 E0.17534 F1200.000
G1 X-1.591 Y0.614 F1200.000
G1 X-1.124 Y1.082 E0.17608 F1200.000
G1 X-1.320 Y0.997 F1200.000
G1 X-1.689 Y0.628 E0.17666 F1200.000
G1 X-1.782 Y0.646 F1200.000
G1 X-1.506 Y0.922 E0.17709 F1200.000
G1 X-1.598 Y1.497 F1200.000
G1 X0.866 Y3.961 E0.18096 F1200.000
G1 X0.785 Y3.991 F1200.000
G1 X-1.709 Y1.497 E0.18488 F1200.000
G1 X-1.160 Y1.601 F1200.000
G1 X1.111 Y3.872 E0.18845 F1200.000
G1 X1.188 Y3.839 F1200.000
G1 X-0.947 Y1.703 E0.19181 F1200.000
G1 X-0.870 Y1.670 F1200.000
G1 X1.259 Y3.798 E0.19516 F1200.000
G1 X1.329 Y3.757 F1200.000
G1 X-0.824 Y1.604 E0.19854 F1200.000
G1 X-0.829 Y1.488 F1200.000
G1 X0.725 Y3.042 E0.20098 F1200.000
G1 X0.752 Y2.958 F1200.000
G1 X-0.898 Y1.308 E0.20358 F1200.000
G1 X-1.490 Y2.493 F1200.000
G1 X-2.243 Y1.740 E0.20476 F1200.000
G1 X-2.165 Y1.929 F1200.000
G1 X-1.701 Y2.394 E0.20549 F1200.000
G1 X-1.227 Y2.646 F1200.000
G1 X-2.294 Y1.579 E0.20717 F1200.000
G1 X-2.308 Y1.453 E0.20731
G1 X0.937 Y4.698 E0.21241
G1 X0.857 Y4.729 F1200.000
G1 X-0.990 Y2.883 E0.21531 F1200.000
G1 X-0.823 Y3.383 F1200.000
G1 X0.647 Y4.853 E0.21762 F1200.000
G1 X0.703 Y4.798 F1200.000
G1 X-0.817 Y3.278 E0.22001 F1200.000
G1 X-0.840 Y3.144 E0.22016
G1 X0.777 Y4.760 E0.22270
G1 X0.605 Y4.922 F1200.000
G1 X-0.847 Y3.469 E0.22499 F1200.000
G1 X-0.904 Y3.524 F1200.000
G1 X0.581 Y5.009 E0.22732 F1200.000
G1 X0.587 Y5.126 F1200.000
G1 X-1.009 Y3.530 E0.22983 F1200.000
G1 X-1.355 Y3.962 F1200.000
G1 X-2.048 Y3.268 E0.23092 F1200.000
G1 X-2.187 Y3.352 F1200.000
G1 X-2.251 Y3.288 E0.23102 F1200.000
G1 X-2.209 Y3.219 F1200.000
G1 X-1.650 Y3.778 E0.23190 F1200.000
G1 X-1.064 Y4.142 F1200.000
G1 X-1.915 Y3.291 E0.23324 F1200.000
G1 X-1.815 Y3.280 E0.23335
G1 X-0.824 Y4.271 E0.23491
G1 X-0.488 Y4.607 F1200.000
G1 X0.518 Y5.613 E0.23649 F1200.000
G1 X0.473 Y5.678 F1200.000
G1 X-0.512 Y4.694 E0.23804 F1200.000
G1 X-0.560 Y4.757 F1200.000
G1 X0.674 Y5.991 E0.23998 F1200.000
G1 X0.622 Y6.050 F1200.000
G1 X-0.626 Y4.802 E0.24194 F1200.000
G1 X-0.934 Y5.050 F1200.000
G1 X-1.253 Y4.731 E0.24244 F1200.000
G1 X-1.362 Y4.733 E0.24256
G1 X-1.159 Y4.936 E0.24288
G1 X-0.612 Y5.371 F1200.000
G1 X0.308 Y6.292 E0.24433 F1200.000
G1 X0.363 Y6.235 F1200.000
G1 X-1.144 Y4.728 E0.24670 F1200.000
G1 X-1.036 Y4.726 E0.24682
G1 X0.426 Y6.187 E0.24911
G1 X0.496 Y6.146 F1200.000
G1 X-0.855 Y4.795 E0.25124 F1200.000
G1 X-0.719 Y4.820 E0.25139
G1 X0.562 Y6.101 E0.25341
G1 X0.261 Y6.356 F1200.000
G1 X-0.637 Y5.458 E0.25482 F1200.000
G1 X-0.687 Y5.519 F1200.000
G1 X0.225 Y6.431 E0.25625 F1200.000
G1 X0.346 Y6.774 F1200.000
G1 X-0.311 Y6.117 E0.25728 F1200.000
G1 X-0.333 Y6.206 F1200.000
G1 X0.260 Y6.799 E0.25822 F1200.000
G1 X0.193 Y6.844 F1200.000
G1 X-0.390 Y6.260 E0.25913 F1200.000
G1 X-0.482 Y6.280 F1200.000
G1 X0.154 Y6.915 E0.26013 F1200.000
G1 X0.165 Y7.037 F1200.000
G1 X-0.587 Y6.285 E0.26131 F1200.000
G1 X-0.697 Y6.287 E0.26144
G1 X-0.520 Y6.463 E0.26171
G1 X-0.422 Y6.006 F1200.000
G1 X-0.871 Y5.557 E0.26242 F1200.000
G1 X-0.990 Y5.550 E0.26255
G1 X-0.589 Y5.950 E0.26318
G1 X-0.759 Y5.558 F1200.000
G1 X0.439 Y6.756 E0.26506 F1200.000
G1 X0.215 Y7.199 F1200.000
G1 X-0.182 Y6.802 E0.26569 F1200.000
G1 X-0.207 Y6.887 F1200.000
G1 X0.140 Y7.234 E0.26623 F1200.000
G1 X0.088 Y7.294 F1200.000
G1 X-0.265 Y6.941 E0.26679 F1200.000
G1 X-0.329 Y6.988 F1200.000
G1 X0.056 Y7.373 E0.26739 F1200.000
G1 X0.033 Y7.461 F1200.000
G1 X-0.139 Y7.289 E0.26766 F1200.000
G1 X-0.101 Y7.438 F1200.000
G1 X0.010 Y7.550 E0.26784 F1200.000
G1 X-0.336 Y7.092 F1200.000
G1 X-0.391 Y7.037 E0.26793 F1200.000
G1 X0.595 Y5.579 F1200.000
G1 X-1.714 Y3.269 E0.27156 F1200.000
G1 X-1.596 Y3.276 E0.27169
G1 X0.675 Y5.548 E0.27526
G1 X0.748 Y5.509 F1200.000
G1 X-1.455 Y3.306 E0.27872 F1200.000
G1 X-1.307 Y3.344 E0.27889
G1 X0.815 Y5.465 E0.28223
G1 X0.874 Y5.413 F1200.000
G1 X0.691 Y5.230 E0.28251 F1200.000
G1 X0.800 Y5.228 F1200.000
G1 X0.929 Y5.357 E0.28271 F1200.000
G1 X0.977 Y5.294 F1200.000
G1 X0.898 Y5.215 E0.28284 F1200.000
G1 X1.017 Y4.667 F1200.000
G1 X-2.322 Y1.328 E0.28809 F1200.000
G1 X-2.332 Y1.207 E0.28822
G1 X0.625 Y4.164 E0.29287
G1 X0.651 Y4.079 F1200.000
G1 X-2.002 Y1.426 E0.29704 F1200.000
G1 X-1.838 Y1.479 E0.29723
G1 X0.707 Y4.024 E0.30123
G1 X0.948 Y3.931 F1200.000
G1 X-1.492 Y1.492 E0.30507 F1200.000
G1 X-1.349 Y1.523 E0.30523
G1 X1.029 Y3.902 E0.30897
G1 X1.399 Y3.716 F1200.000
G1 X0.843 Y3.159 E0.30985 F1200.000
G1 X0.925 Y3.131 F1200.000
G1 X1.470 Y3.675 E0.31070 F1200.000
G1 X1.540 Y3.634 F1200.000
G1 X1.002 Y3.096 E0.31155 F1200.000
G1 X1.083 Y3.066 F1200.000
G1 X1.603 Y3.586 E0.31237 F1200.000
G1 X1.663 Y3.535 F1200.000
G1 X1.169 Y3.042 E0.31314 F1200.000
G1 X1.256 Y3.017 F1200.000
G1 X1.723 Y3.484 E0.31388 F1200.000
G1 X1.783 Y3.433 F1200.000
G1 X1.342 Y2.992 E0.31457 F1200.000
G1 X1.429 Y2.968 F1200.000
G1 X1.843 Y3.382 E0.31522 F1200.000
G1 X1.903 Y3.331 F1200.000
G1 X1.531 Y2.959 E0.31581 F1200.000
G1 X1.632 Y2.949 E0.31592
G1 X1.957 Y3.273 E0.31643
G1 X2.009 Y3.215 F1200.000
G1 X1.734 Y2.940 E0.31686 F1200.000
G1 X1.841 Y2.935 E0.31698
G1 X2.062 Y3.156 E0.31733
G1 X2.109 Y3.092 F1200.000
G1 X1.957 Y2.941 E0.31757 F1200.000
G1 X2.050 Y2.923 F1200.000
G1 X2.156 Y3.028 E0.31773 F1200.000
G1 X2.203 Y2.964 F1200.000
G1 X2.115 Y2.876 E0.31787 F1200.000
G1 X1.713 Y2.030 F1200.000
G1 X1.066 Y1.383 E0.31889 F1200.000
G1 X1.150 Y1.356 F1200.000
G1 X1.785 Y1.991 E0.31989 F1200.000
G1 X1.847 Y1.942 F1200.000
G1 X1.234 Y1.328 E0.32085 F1200.000
G1 X1.316 Y1.300 F1200.000
G1 X1.904 Y1.887 E0.32177 F1200.000
G1 X1.960 Y1.832 F1200.000
G1 X1.398 Y1.271 E0.32266 F1200.000
G1 X1.480 Y1.241 F1200.000
G1 X2.016 Y1.778 E0.32350 F1200.000
G1 X2.062 Y1.713 F1200.000
G1 X1.561 Y1.212 E0.32429 F1200.000
G1 X1.644 Y1.183 F1200.000
G1 X2.104 Y1.643 E0.32501 F1200.000
G1 X2.146 Y1.574 F1200.000
G1 X1.727 Y1.155 E0.32567 F1200.000
G1 X1.809 Y1.126 F1200.000
G1 X2.187 Y1.504 E0.32626 F1200.000
G1 X2.218 Y1.424 F1200.000
G1 X1.893 Y1.099 E0.32677 F1200.000
G1 X1.974 Y1.068 F1200.000
G1 X2.246 Y1.340 E0.32720 F1200.000
G1 X2.047 Y1.030 F1200.000
G1 X2.260 Y1.244 E0.32754 F1200.000
G1 X2.275 Y1.147 E0.32765
G1 X2.115 Y0.987 E0.32790
G1 X1.662 Y-0.576 F1200.000
G1 X1.171 Y-1.068 E0.32867 F1200.000
G1 X1.111 Y-1.128 F1200.000
G1 X-1.801 Y-4.040 E0.33325 F1200.000
G1 X-1.176 Y-3.970 F1200.000
G1 X1.213 Y-1.581 E0.33700 F1200.000
G1 X1.270 Y-1.635 F1200.000
G1 X-0.961 Y-3.867 E0.34051 F1200.000
G1 X-0.551 Y-3.568 F1200.000
G1 X1.337 Y-1.679 E0.34348 F1200.000
G1 X1.416 Y-1.712 F1200.000
G1 X-0.477 Y-3.605 E0.34645 F1200.000
G1 X0.421 Y-4.262 F1200.000
G1 X-0.439 Y-5.122 E0.34780 F1200.000
G1 X-0.439 Y-5.011 E0.34793
G1 X1.654 Y-2.918 E0.35122
G1 X1.563 Y-2.898 F1200.000
G1 X-0.439 Y-4.900 E0.35436 F1200.000
G1 X-0.439 Y-4.788 E0.35449
G1 X1.479 Y-2.871 E0.35750
G1 X1.413 Y-2.826 F1200.000
G1 X-0.439 Y-4.677 E0.36041 F1200.000
G1 X-0.439 Y-4.566 E0.36053
G1 X1.353 Y-2.775 E0.36335
G1 X1.296 Y-2.721 F1200.000
G1 X-0.439 Y-4.455 E0.36608 F1200.000
G1 X-0.439 Y-4.344 E0.36620
G1 X1.246 Y-2.660 E0.36885
G1 X1.199 Y-2.595 F1200.000
G1 X-0.440 Y-4.234 E0.37142 F1200.000
G1 X-0.440 Y-4.124 E0.37155
G1 X1.157 Y-2.526 E0.37406
G1 X1.123 Y-2.449 F1200.000
G1 X-0.441 Y-4.013 E0.37652 F1200.000
G1 X-0.442 Y-3.903 E0.37664
G1 X1.112 Y-2.349 E0.37908
G1 X1.262 Y-2.199 F1200.000
G1 X1.654 Y-1.807 E0.37970 F1200.000
G1 X1.726 Y-1.846 F1200.000
G1 X1.376 Y-2.196 E0.38025 F1200.000
G1 X1.459 Y-2.225 F1200.000
G1 X1.800 Y-1.883 E0.38078 F1200.000
G1 X1.877 Y-1.917 F1200.000
G1 X1.538 Y-2.256 E0.38132 F1200.000
G1 X1.618 Y-2.287 F1200.000
G1 X1.952 Y-1.954 E0.38184 F1200.000
G1 X2.022 Y-1.995 F1200.000
G1 X1.698 Y-2.319 E0.38235 F1200.000
G1 X1.777 Y-2.350 F1200.000
G1 X2.079 Y-2.048 E0.38283 F1200.000
G1 X2.137 Y-2.102 F1200.000
G1 X1.863 Y-2.376 E0.38325 F1200.000
G1 X1.951 Y-2.398 F1200.000
G1 X2.191 Y-2.158 E0.38363 F1200.000
G1 X2.231 Y-2.230 F1200.000
G1 X2.043 Y-2.418 E0.38393 F1200.000
G1 X2.142 Y-2.430 E0.38404
G1 X2.271 Y-2.301 E0.38424
G1 X2.311 Y-2.373 F1200.000
G1 X2.240 Y-2.443 E0.38435 F1200.000
G1 X2.018 Y-2.998 F1200.000
G1 X0.731 Y-4.286 E0.38638 F1200.000
G1 X0.792 Y-4.335 F1200.000
G1 X2.103 Y-3.025 E0.38844 F1200.000
G1 X2.164 Y-3.075 F1200.000
G1 X0.863 Y-4.376 E0.39048 F1200.000
G1 X0.946 Y-4.404 F1200.000
G1 X2.174 Y-3.176 E0.39241 F1200.000
G1 X1.927 Y-2.978 F1200.000
G1 X0.669 Y-4.237 E0.39439 F1200.000
G1 X0.587 Y-4.207 F1200.000
G1 X1.836 Y-2.958 E0.39635 F1200.000
G1 X1.745 Y-2.938 F1200.000
G1 X0.443 Y-4.241 E0.39840 F1200.000
G1 X0.383 Y-4.411 F1200.000
G1 X-0.439 Y-5.234 E0.39969 F1200.000
G1 X-0.440 Y-5.345 E0.39982
G1 X0.382 Y-4.524 E0.40111
G1 X0.381 Y-4.636 E0.40123
G1 X-0.441 Y-5.457 E0.40253
G1 X-0.441 Y-5.569 E0.40265
G1 X0.380 Y-4.748 E0.40394
G1 X0.378 Y-4.860 E0.40406
G1 X-0.442 Y-5.681 E0.40536
G1 X-0.443 Y-5.793 E0.40548
G1 X0.377 Y-4.973 E0.40677
G1 X0.379 Y-5.082 E0.40689
G1 X-0.448 Y-5.909 E0.40819
G1 X-0.465 Y-6.037 E0.40833
G1 X0.381 Y-5.191 E0.40966
G1 X0.383 Y-5.300 E0.40979
G1 X-0.507 Y-6.191 E0.41119
G1 X-0.615 Y-6.409 F1200.000
G1 X0.385 Y-5.410 E0.41276 F1200.000
G1 X0.387 Y-5.519 E0.41288
G1 X-1.359 Y-7.264 E0.41562
G1 X-1.192 Y-6.986 F1200.000
G1 X-0.873 Y-6.667 E0.41612 F1200.000
G1 X-1.687 Y-7.704 F1200.000
G1 X0.390 Y-5.626 E0.41939 F1200.000
G1 X0.395 Y-5.733 E0.41951
G1 X-1.594 Y-7.722 E0.42264
G1 X-1.484 Y-7.723 E0.42276
G1 X0.400 Y-5.839 E0.42572
G1 X0.405 Y-5.945 E0.42584
G1 X-1.373 Y-7.723 E0.42863
G1 X-1.263 Y-7.724 E0.42876
G1 X0.409 Y-6.052 E0.43138
G1 X0.414 Y-6.158 E0.43150
G1 X-1.153 Y-7.725 E0.43397
G1 X-1.042 Y-7.725 E0.43409
G1 X0.425 Y-6.258 E0.43639
G1 X0.441 Y-6.354 F1200.000
G1 X-0.932 Y-7.726 E0.43855 F1200.000
G1 X-0.821 Y-7.727 E0.43868
G1 X0.462 Y-6.444 E0.44069
G1 X0.489 Y-6.528 F1200.000
G1 X-0.711 Y-7.728 E0.44258 F1200.000
G1 X-0.600 Y-7.728 E0.44270
G1 X0.518 Y-6.609 E0.44446
G1 X0.554 Y-6.684 F1200.000
G1 X-0.490 Y-7.729 E0.44610 F1200.000
G1 X-0.380 Y-7.730 E0.44622
G1 X0.592 Y-6.758 E0.44775
G1 X0.635 Y-6.826 F1200.000
G1 X-0.269 Y-7.730 E0.44917 F1200.000
G1 X-0.159 Y-7.731 E0.44929
G1 X0.680 Y-6.892 E0.45061
G1 X0.730 Y-6.953 F1200.000
G1 X-0.048 Y-7.732 E0.45184 F1200.000
G1 X0.062 Y-7.732 E0.45196
G1 X0.781 Y-7.013 E0.45309
G1 X0.851 Y-7.055 F1200.000
G1 X0.172 Y-7.733 E0.45416 F1200.000
G1 X0.283 Y-7.734 E0.45428
G1 X0.926 Y-7.091 E0.45529
G1 X1.001 Y-7.127 F1200.000
G1 X0.393 Y-7.734 E0.45624 F1200.000
G1 X0.504 Y-7.735 E0.45637
G1 X1.075 Y-7.164 E0.45727
G1 X1.142 Y-7.208 F1200.000
G1 X0.614 Y-7.736 E0.45809 F1200.000
G1 X0.725 Y-7.737 E0.45822
G1 X1.207 Y-7.254 E0.45898
G1 X1.269 Y-7.304 F1200.000
G1 X0.835 Y-7.737 E0.45966 F1200.000
G1 X0.945 Y-7.738 E0.45978
G1 X1.327 Y-7.357 E0.46038
G1 X1.375 Y-7.419 F1200.000
G1 X1.056 Y-7.739 E0.46088 F1200.000
G1 X1.166 Y-7.739 E0.46100
G1 X1.428 Y-7.478 E0.46142
G1 X1.483 Y-7.534 F1200.000
G1 X1.277 Y-7.740 E0.46174 F1200.000
G1 X1.387 Y-7.741 E0.46186
G1 X1.544 Y-7.584 E0.46211
G1 X1.607 Y-7.631 F1200.000
G1 X1.498 Y-7.741 E0.46228 F1200.000
G1 X1.608 Y-7.742 E0.46241
G1 X1.676 Y-7.674 E0.46251
G92 E0
G1 X2.408 Y-6.494 F1200.000
G1 X2.226 Y-6.318 F1200.000
G1 X2.204 Y-6.305 F1200.000
G1 X2.733 Y-5.041 F1200.000
G1 X2.676 Y-5.008 F1200.000
G1 X2.857 Y-4.826 E0.00029 F1200.000
G1 X2.876 Y-4.918 F1200.000
G1 X2.756 Y-5.039 E0.00048 F1200.000
G1 X2.609 Y-4.963 F1200.000
G1 X2.840 Y-4.732 E0.00084 F1200.000
G1 X2.821 Y-4.640 F1200.000
G1 X2.542 Y-4.919 E0.00128 F1200.000
G1 X2.475 Y-4.875 F1200.000
G1 X2.803 Y-4.547 E0.00179 F1200.000
G1 X2.768 Y-4.470 F1200.000
G1 X2.407 Y-4.832 E0.00236 F1200.000
G1 X2.338 Y-4.789 F1200.000
G1 X2.734 Y-4.393 E0.00298 F1200.000
G1 X2.700 Y-4.317 F1200.000
G1 X2.270 Y-4.747 E0.00366 F1200.000
G1 X2.201 Y-4.704 F1200.000
