; generated by Slic3r 1.2.9 on 2019-12-04 at 11:48:44

; external perimeters extrusion width = 0.20mm
; perimeters extrusion width = 0.34mm
; infill extrusion width = 0.34mm
; solid infill extrusion width = 0.34mm
; top infill extrusion width = 0.34mm

M104 S200 ; set temperature
G28 ; home all axes
M109 S200 ; wait for temperature to be reached
G21 ; set units to millimeters
G90 ; use absolute coordinates
M82 ; use absolute distances for extrusion
T1
G92 E0
G1 Z0.100 F1800.000
G1 X0.693 Y0.232 F1800.000
G1 X-1.381 Y-1.842 E0.05869 F1800.000
G1 X-1.300 Y-1.872 F1800.000
G1 X0.720 Y0.148 E0.11586 F1800.000
G1 X0.765 Y0.082 F1800.000
G1 X-1.236 Y-1.919 E0.17246 F1800.000
G1 X-1.187 Y-1.981 F1800.000
G1 X0.811 Y0.017 E0.22900 F1800.000
G1 X0.861 Y-0.044 F1800.000
G1 X-1.154 Y-2.059 E0.28602 F1800.000
G1 X-1.164 Y-2.181 F1800.000
G1 X0.913 Y-0.103 E0.34480 F1800.000
G1 X0.969 Y-0.159 F1800.000
G1 X-1.947 Y-3.074 E0.42730 F1800.000
G1 X-1.989 Y-3.006 F1800.000
G1 X-1.477 Y-2.493 E0.44179 F1800.000
G1 X-1.651 Y-2.556 F1800.000
G1 X-2.044 Y-2.950 E0.45293 F1800.000
G1 X-2.102 Y-2.896 F1800.000
G1 X-1.798 Y-2.593 E0.46152 F1800.000
G1 X-1.946 Y-2.629 E0.46456
G1 X-2.158 Y-2.841 E0.47056
G1 X-2.206 Y-2.778 F1800.000
G1 X-2.133 Y-2.705 E0.47262 F1800.000
G1 X-1.928 Y-3.167 F1800.000
G1 X1.026 Y-0.213 E0.55621 F1800.000
G1 X1.087 Y-0.263 F1800.000
G1 X-2.779 Y-4.128 E0.66560 F1800.000
G1 X-2.676 Y-3.915 F1800.000
G1 X-2.206 Y-3.445 E0.67889 F1800.000
G1 X-1.972 Y-4.100 F1800.000
G1 X1.585 Y-0.542 E0.77955 F1800.000
G1 X1.662 Y-0.576 F1800.000
G1 X1.169 Y-1.069 E0.79350 F1800.000
G1 X1.111 Y-1.128 F1800.000
G1 X-1.801 Y-4.040 E0.87589 F1800.000
G1 X-2.176 Y-4.193 F1800.000
G1 X1.508 Y-0.508 E0.98014 F1800.000
G1 X1.431 Y-0.474 F1800.000
G1 X-2.452 Y-4.358 E1.09002 F1800.000
G1 X-2.871 Y-4.554 F1800.000
G1 X1.284 Y-0.399 E1.20760 F1800.000
G1 X1.217 Y-0.356 F1800.000
G1 X-2.854 Y-4.426 E1.32278 F1800.000
G1 X-2.833 Y-4.294 E1.32545
G1 X1.150 Y-0.311 E1.43815
G1 X1.357 Y-0.437 F1800.000
G1 X-2.858 Y-4.653 E1.55743 F1800.000
G1 X-1.176 Y-3.970 F1800.000
G1 X1.213 Y-1.581 E1.62502 F1800.000
G1 X1.270 Y-1.635 F1800.000
G1 X-0.961 Y-3.867 E1.68815 F1800.000
G1 X-0.551 Y-3.568 F1800.000
G1 X1.337 Y-1.679 E1.74158 F1800.000
G1 X1.416 Y-1.712 F1800.000
G1 X-0.477 Y-3.605 E1.79514 F1800.000
G1 X0.422 Y-4.262 F1800.000
G1 X-0.439 Y-5.122 E1.81948 F1800.000
G1 X-0.439 Y-5.011 E1.82170
G1 X1.654 Y-2.918 E1.88091
G1 X1.745 Y-2.938 F1800.000
G1 X0.442 Y-4.241 E1.91777 F1800.000
G1 X0.587 Y-4.208 F1800.000
G1 X1.836 Y-2.958 E1.95313 F1800.000
G1 X1.927 Y-2.978 F1800.000
G1 X0.669 Y-4.237 E1.98874 F1800.000
G1 X0.731 Y-4.286 F1800.000
G1 X2.018 Y-2.998 E2.02518 F1800.000
G1 X2.102 Y-3.025 F1800.000
G1 X0.792 Y-4.335 E2.06224 F1800.000
G1 X0.863 Y-4.376 F1800.000
G1 X2.164 Y-3.075 E2.09905 F1800.000
G1 X2.174 Y-3.176 F1800.000
G1 X0.946 Y-4.404 E2.13381 F1800.000
G1 X1.028 Y-4.433 F1800.000
G1 X2.012 Y-3.449 E2.16164 F1800.000
G1 X2.010 Y-3.562 F1800.000
G1 X1.135 Y-4.438 E2.18642 F1800.000
G1 X1.243 Y-4.440 E2.18859
G1 X2.037 Y-3.646 E2.21105
G1 X2.083 Y-3.712 F1800.000
G1 X1.379 Y-4.415 E2.23096 F1800.000
G1 X1.499 Y-4.407 E2.23336
G1 X2.145 Y-3.760 E2.25165
G1 X2.225 Y-3.791 F1800.000
G1 X1.602 Y-4.415 E2.26928 F1800.000
G1 X1.693 Y-4.434 F1800.000
G1 X2.294 Y-3.834 E2.28628 F1800.000
G1 X2.361 Y-3.878 F1800.000
G1 X1.777 Y-4.462 E2.30280 F1800.000
G1 X1.855 Y-4.495 F1800.000
G1 X2.427 Y-3.923 E2.31899 F1800.000
G1 X2.481 Y-3.980 F1800.000
G1 X1.923 Y-4.538 E2.33477 F1800.000
G1 X1.992 Y-4.580 F1800.000
G1 X2.530 Y-4.042 E2.34999 F1800.000
G1 X2.576 Y-4.108 F1800.000
G1 X2.062 Y-4.621 E2.36452 F1800.000
G1 X2.132 Y-4.663 F1800.000
G1 X2.621 Y-4.173 E2.37836 F1800.000
G1 X2.666 Y-4.240 F1800.000
G1 X2.201 Y-4.704 E2.39151 F1800.000
G1 X2.270 Y-4.747 F1800.000
G1 X2.700 Y-4.317 E2.40368 F1800.000
G1 X2.734 Y-4.393 F1800.000
G1 X2.338 Y-4.789 E2.41488 F1800.000
G1 X2.407 Y-4.832 F1800.000
G1 X2.768 Y-4.470 E2.42512 F1800.000
G1 X2.803 Y-4.547 F1800.000
G1 X2.475 Y-4.875 E2.43439 F1800.000
G1 X2.542 Y-4.919 F1800.000
G1 X2.821 Y-4.640 E2.44230 F1800.000
G1 X2.840 Y-4.732 F1800.000
G1 X2.609 Y-4.963 E2.44884 F1800.000
G1 X2.676 Y-5.008 F1800.000
G1 X2.857 Y-4.826 E2.45398 F1800.000
G1 X2.877 Y-4.918 F1800.000
G1 X2.755 Y-5.039 E2.45741 F1800.000
G1 X1.563 Y-2.898 F1800.000
G1 X-0.439 Y-4.900 E2.51404 F1800.000
G1 X-0.439 Y-4.788 E2.51626
G1 X1.479 Y-2.871 E2.57051
G1 X1.413 Y-2.826 F1800.000
G1 X-0.439 Y-4.677 E2.62290 F1800.000
G1 X-0.439 Y-4.566 E2.62513
G1 X1.353 Y-2.775 E2.67581
G1 X1.296 Y-2.721 F1800.000
G1 X-0.439 Y-4.455 E2.72488 F1800.000
G1 X-0.439 Y-4.344 E2.72709
G1 X1.246 Y-2.660 E2.77475
G1 X1.199 Y-2.595 F1800.000
G1 X-0.440 Y-4.234 E2.82113 F1800.000
G1 X-0.440 Y-4.124 E2.82333
G1 X1.157 Y-2.526 E2.86853
G1 X1.123 Y-2.449 F1800.000
G1 X-0.441 Y-4.013 E2.91278 F1800.000
G1 X-0.442 Y-3.903 E2.91499
G1 X1.112 Y-2.349 E2.95895
G1 X1.262 Y-2.199 F1800.000
G1 X1.654 Y-1.807 E2.97002 F1800.000
G1 X1.726 Y-1.846 F1800.000
G1 X1.376 Y-2.196 E2.97993 F1800.000
G1 X1.459 Y-2.225 F1800.000
G1 X1.800 Y-1.883 E2.98960 F1800.000
G1 X1.877 Y-1.917 F1800.000
G1 X1.538 Y-2.256 E2.99919 F1800.000
G1 X1.618 Y-2.287 F1800.000
G1 X1.952 Y-1.954 E3.00864 F1800.000
G1 X2.022 Y-1.995 F1800.000
G1 X1.698 Y-2.319 E3.01781 F1800.000
G1 X1.777 Y-2.350 F1800.000
G1 X2.079 Y-2.048 E3.02635 F1800.000
G1 X2.137 Y-2.102 F1800.000
G1 X1.863 Y-2.376 E3.03409 F1800.000
G1 X1.951 Y-2.398 F1800.000
G1 X2.191 Y-2.158 E3.04088 F1800.000
G1 X2.231 Y-2.230 F1800.000
G1 X2.043 Y-2.418 E3.04619 F1800.000
G1 X2.142 Y-2.430 E3.04818
G1 X2.271 Y-2.301 E3.05183
G1 X2.310 Y-2.373 F1800.000
G1 X2.240 Y-2.443 E3.05381 F1800.000
G1 X1.575 Y-1.775 F1800.000
G1 X-0.443 Y-3.792 E3.11090 F1800.000
G1 X-0.443 Y-3.682 E3.11311
G1 X1.495 Y-1.743 E3.16796
G1 X1.165 Y-1.518 F1800.000
G1 X-1.321 Y-4.004 E3.23830 F1800.000
G1 X-1.451 Y-4.024 E3.24094
G1 X1.127 Y-1.445 E3.31389
G1 X1.100 Y-1.361 F1800.000
G1 X-1.558 Y-4.019 E3.38910 F1800.000
G1 X-1.664 Y-4.014 E3.39122
G1 X1.091 Y-1.259 E3.46916
G1 X1.262 Y-1.087 F1800.000
G1 X1.729 Y-0.620 E3.48237 F1800.000
G1 X1.792 Y-0.669 F1800.000
G1 X1.316 Y-1.145 E3.49585 F1800.000
G1 X1.373 Y-1.199 F1800.000
G1 X1.855 Y-0.717 E3.50948 F1800.000
G1 X1.917 Y-0.766 F1800.000
G1 X1.438 Y-1.245 E3.52305 F1800.000
G1 X1.514 Y-1.280 F1800.000
G1 X1.967 Y-0.827 E3.53587 F1800.000
G1 X2.017 Y-0.888 F1800.000
G1 X1.597 Y-1.308 E3.54775 F1800.000
G1 X1.701 Y-1.316 E3.54982
G1 X2.067 Y-0.950 E3.56018
G1 X2.113 Y-1.015 F1800.000
G1 X1.810 Y-1.318 E3.56876 F1800.000
G1 X1.914 Y-1.325 E3.57085
G1 X2.152 Y-1.087 E3.57759
G1 X2.185 Y-1.165 F1800.000
G1 X2.006 Y-1.344 E3.58265 F1800.000
G1 X2.081 Y-1.380 F1800.000
G1 X2.215 Y-1.246 E3.58641 F1800.000
G1 X2.243 Y-1.329 F1800.000
G1 X2.150 Y-1.423 E3.58907 F1800.000
G1 X2.211 Y-1.472 F1800.000
G1 X2.275 Y-1.408 E3.59088 F1800.000
G1 X1.784 Y0.212 F1800.000
G1 X1.868 Y0.296 E3.59326 F1800.000
G1 X1.809 Y0.348 F1800.000
G1 X1.697 Y0.236 E3.59643 F1800.000
G1 X1.587 Y0.237 F1800.000
G1 X1.750 Y0.400 E3.60103 F1800.000
G1 X1.691 Y0.452 F1800.000
G1 X1.438 Y0.200 E3.60817 F1800.000
G1 X1.314 Y0.186 E3.61068
G1 X1.622 Y0.494 E3.61939
G1 X1.551 Y0.535 F1800.000
G1 X1.215 Y0.198 E3.62891 F1800.000
G1 X1.124 Y0.218 F1800.000
G1 X1.481 Y0.576 E3.63902 F1800.000
G1 X1.407 Y0.612 F1800.000
G1 X1.041 Y0.247 E3.64936 F1800.000
G1 X0.971 Y0.288 F1800.000
G1 X1.327 Y0.644 E3.65944 F1800.000
G1 X1.250 Y0.678 F1800.000
G1 X0.900 Y0.328 E3.66934 F1800.000
G1 X0.813 Y0.352 F1800.000
G1 X1.175 Y0.714 E3.67960 F1800.000
G1 X1.109 Y0.759 F1800.000
G1 X-1.493 Y-1.842 E3.75321 F1800.000
G1 X-1.726 Y-1.965 F1800.000
G1 X1.047 Y0.808 E3.83167 F1800.000
G1 X0.989 Y0.862 F1800.000
G1 X-1.921 Y-2.049 E3.91402 F1800.000
G1 X-2.059 Y-2.076 F1800.000
G1 X-1.275 Y-1.292 E3.93619 F1800.000
G1 X-1.163 Y-1.179 F1800.000
G1 X0.939 Y0.922 E3.99566 F1800.000
G1 X0.891 Y0.986 F1800.000
G1 X-1.131 Y-1.036 E4.05287 F1800.000
G1 X-1.158 Y-0.730 F1800.000
G1 X0.788 Y1.216 E4.10795 F1800.000
G1 X0.817 Y1.134 F1800.000
G1 X-1.134 Y-0.817 E4.16317 F1800.000
G1 X-1.129 Y-0.924 E4.16530
G1 X0.852 Y1.058 E4.22136
G1 X0.975 Y1.403 F1800.000
G1 X1.642 Y2.070 E4.24024 F1800.000
G1 X1.570 Y2.109 F1800.000
G1 X-1.259 Y-0.720 E4.32030 F1800.000
G1 X-1.393 Y-0.743 F1800.000
G1 X1.499 Y2.149 E4.40212 F1800.000
G1 X1.427 Y2.188 F1800.000
G1 X-1.486 Y-0.724 E4.48453 F1800.000
G1 X-1.578 Y-0.706 F1800.000
G1 X1.358 Y2.230 E4.56761 F1800.000
G1 X1.292 Y2.276 F1800.000
G1 X-1.670 Y-0.687 E4.65143 F1800.000
G1 X-1.671 Y-0.243 F1800.000
G1 X-2.171 Y-0.743 E4.66558 F1800.000
G1 X-2.012 Y-0.695 E4.66890
G1 X-1.441 Y-0.124 E4.68507
G1 X-1.174 Y0.032 F1800.000
G1 X-1.879 Y-0.674 E4.70503 F1800.000
G1 X-1.768 Y-0.674 E4.70725
G1 X1.228 Y2.323 E4.79203
G1 X1.169 Y2.374 F1800.000
G1 X-0.749 Y0.456 E4.84630 F1800.000
G1 X-0.728 Y0.589 E4.84899
G1 X1.109 Y2.426 E4.90097
G1 X1.056 Y2.484 F1800.000
G1 X-0.736 Y0.692 E4.95166 F1800.000
G1 X-0.760 Y0.780 F1800.000
G1 X1.003 Y2.542 E5.00153 F1800.000
G1 X0.954 Y2.605 F1800.000
G1 X-0.819 Y0.831 E5.05172 F1800.000
G1 X-0.920 Y0.841 F1800.000
G1 X0.908 Y2.669 E5.10343 F1800.000
G1 X0.864 Y2.737 F1800.000
G1 X-1.170 Y0.702 E5.16099 F1800.000
G1 X-1.337 Y0.647 F1800.000
G1 X0.824 Y2.807 E5.22212 F1800.000
G1 X0.786 Y2.881 F1800.000
G1 X-1.471 Y0.623 E5.28599 F1800.000
G1 X-1.591 Y0.614 F1800.000
G1 X-1.124 Y1.082 E5.29922 F1800.000
G1 X-1.320 Y0.997 F1800.000
G1 X-1.689 Y0.628 E5.30966 F1800.000
G1 X-1.782 Y0.646 F1800.000
G1 X-1.506 Y0.922 E5.31748 F1800.000
G1 X-1.598 Y1.497 F1800.000
G1 X0.866 Y3.961 E5.38719 F1800.000
G1 X0.948 Y3.931 F1800.000
G1 X-1.492 Y1.492 E5.45622 F1800.000
G1 X-1.349 Y1.523 E5.45914
G1 X1.029 Y3.902 E5.52644
G1 X1.111 Y3.872 F1800.000
G1 X-1.160 Y1.601 E5.59070 F1800.000
G1 X-0.947 Y1.703 F1800.000
G1 X1.188 Y3.839 E5.65113 F1800.000
G1 X1.259 Y3.798 F1800.000
G1 X-0.870 Y1.669 E5.71135 F1800.000
G1 X-0.824 Y1.604 F1800.000
G1 X1.329 Y3.757 E5.77228 F1800.000
G1 X1.399 Y3.716 F1800.000
G1 X0.843 Y3.159 E5.78803 F1800.000
G1 X0.925 Y3.131 F1800.000
G1 X1.470 Y3.675 E5.80344 F1800.000
G1 X1.540 Y3.634 F1800.000
G1 X1.002 Y3.096 E5.81867 F1800.000
G1 X1.083 Y3.066 F1800.000
G1 X1.603 Y3.586 E5.83339 F1800.000
G1 X1.663 Y3.535 F1800.000
G1 X1.169 Y3.042 E5.84736 F1800.000
G1 X1.256 Y3.017 F1800.000
G1 X1.723 Y3.484 E5.86058 F1800.000
G1 X1.783 Y3.433 F1800.000
G1 X1.342 Y2.992 E5.87306 F1800.000
G1 X1.429 Y2.968 F1800.000
G1 X1.843 Y3.382 E5.88478 F1800.000
G1 X1.903 Y3.331 F1800.000
G1 X1.531 Y2.959 E5.89531 F1800.000
G1 X1.633 Y2.949 E5.89736
G1 X1.957 Y3.273 E5.90652
G1 X2.009 Y3.215 F1800.000
G1 X1.734 Y2.940 E5.91430 F1800.000
G1 X1.840 Y2.935 E5.91642
G1 X2.062 Y3.156 E5.92268
G1 X2.109 Y3.092 F1800.000
G1 X1.957 Y2.940 E5.92698 F1800.000
G1 X2.050 Y2.923 F1800.000
G1 X2.156 Y3.028 E5.92996 F1800.000
G1 X2.203 Y2.964 F1800.000
G1 X2.115 Y2.876 E5.93245 F1800.000
G1 X1.713 Y2.030 F1800.000
G1 X1.066 Y1.383 E5.95077 F1800.000
G1 X1.150 Y1.356 F1800.000
G1 X1.785 Y1.991 E5.96874 F1800.000
G1 X1.847 Y1.942 F1800.000
G1 X1.234 Y1.328 E5.98610 F1800.000
G1 X1.316 Y1.300 F1800.000
G1 X1.904 Y1.887 E6.00271 F1800.000
G1 X1.960 Y1.832 F1800.000
G1 X1.398 Y1.271 E6.01861 F1800.000
G1 X1.480 Y1.241 F1800.000
G1 X2.016 Y1.778 E6.03378 F1800.000
G1 X2.062 Y1.713 F1800.000
G1 X1.561 Y1.212 E6.04796 F1800.000
G1 X1.644 Y1.183 F1800.000
G1 X2.104 Y1.643 E6.06098 F1800.000
G1 X2.146 Y1.574 F1800.000
G1 X1.727 Y1.155 E6.07283 F1800.000
G1 X1.809 Y1.126 F1800.000
G1 X2.187 Y1.504 E6.08353 F1800.000
G1 X2.214 Y1.420 F1800.000
G1 X1.893 Y1.099 E6.09261 F1800.000
G1 X1.974 Y1.068 F1800.000
G1 X2.239 Y1.333 E6.10010 F1800.000
G1 X2.263 Y1.247 F1800.000
G1 X2.047 Y1.030 E6.10624 F1800.000
G1 X2.115 Y0.987 F1800.000
G1 X2.281 Y1.153 E6.11094 F1800.000
G92 E0
G1 X1.532 Y2.128 F1800.000
G1 X1.208 Y2.730 F1800.000
G1 X0.980 Y2.904 F1800.000
G1 X0.850 Y3.034 F1800.000
G1 X0.847 Y3.033 F1800.000
G1 X0.731 Y3.000 F1800.000
G1 X0.752 Y2.958 F1800.000
G1 X-0.898 Y1.308 E0.04669 F1800.000
G1 X-0.829 Y1.488 F1800.000
G1 X0.725 Y3.042 E0.09065 F1800.000
G1 X0.785 Y3.991 F1800.000
G1 X-1.709 Y1.497 E0.16120 F1800.000
G1 X-2.243 Y1.740 F1800.000
G1 X-1.490 Y2.493 E0.18250 F1800.000
G1 X-1.701 Y2.394 F1800.000
G1 X-2.165 Y1.929 E0.19564 F1800.000
G1 X-1.227 Y2.646 F1800.000
G1 X-2.294 Y1.579 E0.22583 F1800.000
G1 X-2.308 Y1.453 E0.22835
G1 X0.937 Y4.698 E0.32017
G1 X1.017 Y4.667 F1800.000
G1 X-2.322 Y1.328 E0.41465 F1800.000
G1 X-2.332 Y1.207 E0.41708
G1 X0.625 Y4.164 E0.50075
G1 X0.651 Y4.079 F1800.000
G1 X-2.002 Y1.426 E0.57582 F1800.000
G1 X-1.838 Y1.479 E0.57928
G1 X0.707 Y4.024 E0.65128
G1 X1.011 Y4.328 F1800.000
G1 X1.230 Y4.547 E0.65747 F1800.000
G1 X1.162 Y4.590 F1800.000
G1 X0.897 Y4.325 E0.66497 F1800.000
G1 X0.771 Y4.310 E0.66752
G1 X1.095 Y4.634 E0.67668
G1 X1.297 Y4.503 F1800.000
G1 X1.114 Y4.319 E0.68188 F1800.000
G1 X1.208 Y4.303 F1800.000
G1 X1.364 Y4.459 E0.68630 F1800.000
G1 X1.426 Y4.409 F1800.000
G1 X1.302 Y4.286 E0.68980 F1800.000
G1 X0.857 Y4.729 F1800.000
G1 X-0.990 Y2.883 E0.74205 F1800.000
G1 X-0.823 Y3.383 F1800.000
G1 X0.647 Y4.853 E0.78364 F1800.000
G1 X0.703 Y4.798 F1800.000
G1 X-0.817 Y3.278 E0.82666 F1800.000
G1 X-0.840 Y3.144 E0.82938
G1 X0.777 Y4.760 E0.87512
G1 X0.605 Y4.922 F1800.000
G1 X-0.847 Y3.469 E0.91623 F1800.000
G1 X-0.904 Y3.524 F1800.000
G1 X0.581 Y5.009 E0.95824 F1800.000
G1 X0.587 Y5.126 F1800.000
G1 X-1.009 Y3.530 E1.00339 F1800.000
G1 X-1.355 Y3.962 F1800.000
G1 X-2.048 Y3.268 E1.02302 F1800.000
G1 X-2.186 Y3.353 F1800.000
G1 X-2.251 Y3.288 E1.02485 F1800.000
G1 X-2.210 Y3.218 F1800.000
G1 X-1.650 Y3.778 E1.04068 F1800.000
G1 X-1.064 Y4.142 F1800.000
G1 X-1.915 Y3.291 E1.06475 F1800.000
G1 X-1.814 Y3.280 E1.06676
G1 X-0.824 Y4.271 E1.09479
G1 X-0.488 Y4.607 F1800.000
G1 X0.518 Y5.613 E1.12325 F1800.000
G1 X0.473 Y5.679 F1800.000
G1 X-0.512 Y4.694 E1.15112 F1800.000
G1 X-0.560 Y4.757 F1800.000
G1 X0.674 Y5.991 E1.18602 F1800.000
G1 X0.622 Y6.050 F1800.000
G1 X-0.626 Y4.802 E1.22134 F1800.000
G1 X-0.934 Y5.050 F1800.000
G1 X-1.253 Y4.731 E1.23037 F1800.000
G1 X-1.362 Y4.733 E1.23255
G1 X-1.159 Y4.936 E1.23830
G1 X-0.612 Y5.372 F1800.000
G1 X0.308 Y6.292 E1.26434 F1800.000
G1 X0.363 Y6.236 F1800.000
G1 X-1.144 Y4.728 E1.30699 F1800.000
G1 X-1.036 Y4.726 E1.30916
G1 X0.426 Y6.187 E1.35052
G1 X0.496 Y6.146 F1800.000
G1 X-0.855 Y4.795 E1.38874 F1800.000
G1 X-0.719 Y4.820 E1.39150
G1 X0.562 Y6.101 E1.42776
G1 X0.261 Y6.356 F1800.000
G1 X-0.637 Y5.458 E1.45318 F1800.000
G1 X-0.687 Y5.519 F1800.000
G1 X0.225 Y6.431 E1.47898 F1800.000
G1 X0.346 Y6.774 F1800.000
G1 X-0.311 Y6.117 E1.49756 F1800.000
G1 X-0.333 Y6.206 F1800.000
G1 X0.260 Y6.799 E1.51434 F1800.000
G1 X0.193 Y6.844 F1800.000
G1 X-0.390 Y6.260 E1.53086 F1800.000
G1 X-0.482 Y6.280 F1800.000
G1 X0.154 Y6.915 E1.54885 F1800.000
G1 X0.165 Y7.037 F1800.000
G1 X-0.588 Y6.285 E1.57013 F1800.000
G1 X-0.697 Y6.287 E1.57232
G1 X-0.520 Y6.463 E1.57733
G1 X-0.422 Y6.006 F1800.000
G1 X-0.871 Y5.557 E1.59003 F1800.000
G1 X-0.990 Y5.550 E1.59241
G1 X-0.589 Y5.950 E1.60375
G1 X-0.759 Y5.558 F1800.000
G1 X0.439 Y6.756 E1.63764 F1800.000
G1 X0.215 Y7.199 F1800.000
G1 X-0.182 Y6.801 E1.64889 F1800.000
G1 X-0.207 Y6.887 F1800.000
G1 X0.140 Y7.234 E1.65871 F1800.000
G1 X0.088 Y7.294 F1800.000
G1 X-0.265 Y6.941 E1.66870 F1800.000
G1 X-0.329 Y6.988 F1800.000
G1 X0.056 Y7.373 E1.67959 F1800.000
G1 X0.033 Y7.461 F1800.000
G1 X-0.139 Y7.289 E1.68445 F1800.000
G1 X-0.101 Y7.438 F1800.000
G1 X0.010 Y7.550 E1.68762 F1800.000
G1 X-0.336 Y7.092 F1800.000
G1 X-0.392 Y7.036 E1.68919 F1800.000
G1 X0.595 Y5.579 F1800.000
G1 X-1.714 Y3.269 E1.75452 F1800.000
G1 X-1.596 Y3.276 E1.75689
G1 X0.675 Y5.548 E1.82115
G1 X0.748 Y5.509 F1800.000
G1 X-1.455 Y3.306 E1.88348 F1800.000
G1 X-1.307 Y3.344 E1.88653
G1 X0.815 Y5.465 E1.94656
G1 X0.874 Y5.413 F1800.000
G1 X0.691 Y5.230 E1.95172 F1800.000
G1 X0.800 Y5.228 F1800.000
G1 X0.929 Y5.357 E1.95537 F1800.000
G1 X0.977 Y5.294 F1800.000
G1 X0.898 Y5.215 E1.95761 F1800.000
G92 E0
G1 X3.453 Y2.162 F1800.000
G1 X2.360 Y-0.277 F1800.000
