; generated by Slic3r 1.3.0 on 2020-01-15 at 15:44:19

; external perimeters extrusion width = 0.23mm (0.41mm^3/s)
; perimeters extrusion width = 0.29mm (0.53mm^3/s)
; infill extrusion width = 0.26mm (0.47mm^3/s)
; solid infill extrusion width = 0.29mm (0.93mm^3/s)
; top infill extrusion width = 0.29mm (0.93mm^3/s)

T0
G92 X0 Y0 Z0 E0
G1 E0.09
G92 E0
T0
M302 P1
; Filament gcode

G21 ; set units to millimeters
G90 ; use absolute coordinates
M83 ; use relative distances for extrusion
G1 Z0.084 F2400.000
G1 X-1.044 Y0.352 F2400.000
G1 F1380
G1 X-0.845 Y0.153 E0.00008
G1 X-0.852 Y0.126 E0.00001
G1 X-0.886 Y0.076 E0.00002
G1 X-1.208 Y-0.175 E0.00011
G1 X-1.606 Y0.223 E0.00015
G1 X-2.097 Y0.317 E0.00014
G1 X-1.898 Y0.515 E0.00008
G1 X-1.843 Y0.460 F2400.000
G1 F1380
G1 X-2.214 Y0.831 E0.00014
G1 X-2.082 Y0.959 E0.00005
G1 X-1.870 Y1.072 E0.00007
G1 X-1.784 Y1.093 E0.00002
G1 X-1.443 Y0.751 E0.00013
G1 X-1.153 Y0.871 E0.00008
G1 X-1.017 Y0.991 E0.00005
G1 X-1.007 Y1.007 E0.00001
G1 X-1.177 Y1.177 E0.00006
G1 X-1.014 Y3.089 F2400.000
G1 F1380
G1 X-0.905 Y2.980 E0.00004
G1 X-0.915 Y2.881 E0.00003
G1 X-1.060 Y2.636 E0.00008
G1 X-1.151 Y2.534 E0.00004
G1 X-1.510 Y2.893 E0.00014
G1 X-1.684 Y2.873 E0.00005
G1 X-1.936 Y2.898 E0.00007
G1 X-2.135 Y2.826 E0.00006
G1 X-1.571 Y2.262 E0.00022
G1 X-1.831 Y2.128 E0.00008
G1 X-1.994 Y1.994 E0.00006
G1 X-5.622 Y5.622 E0.00139
G1 X-5.622 Y4.931 E0.00019
G1 X-2.281 Y1.589 E0.00128
G1 X-2.363 Y1.361 E0.00007
G1 X-2.412 Y1.029 E0.00009
G1 X-5.622 Y4.239 E0.00123
G1 X-5.622 Y3.548 E0.00019
G1 X-1.651 Y-0.423 E0.00152
G1 X-1.812 Y-0.518 E0.00005
G1 X-2.043 Y-0.723 E0.00008
G1 X-5.622 Y2.857 E0.00137
G1 X-5.622 Y2.165 E0.00019
G1 X-1.754 Y-1.703 E0.00148
G1 X-2.206 Y-1.943 E0.00014
G1 X-5.622 Y1.474 E0.00131
G1 X-5.622 Y0.782 E0.00019
G1 X-2.665 Y-2.175 E0.00113
G1 X-3.357 Y-2.175 E0.00019
G1 X-5.622 Y0.091 E0.00087
G1 X-5.622 Y-0.060 E0.00004
G1 X-3.533 Y-2.120 E0.00080
G1 X-3.412 Y-2.120 E0.00003
G1 X-2.547 Y-2.294 F2400.000
G1 F1380
G1 X-2.458 Y-2.382 E0.00003
G1 X-2.342 Y-2.498 F2400.000
G1 F1380
G1 X-2.280 Y-2.561 E0.00002
G1 X-2.121 Y-2.561 E0.00004
G1 X-2.046 Y-2.794 E0.00007
G1 X-2.052 Y-2.789 F2400.000
G1 F1380
G1 X-2.228 Y-2.854 E0.00005
G1 X-2.102 Y-2.739 E0.00005
G1 X-1.996 Y-2.844 E0.00004
G1 X-1.524 Y-2.714 E0.00013
G1 X-1.467 Y-2.681 E0.00002
G1 X-1.755 Y-2.394 E0.00011
G1 X-1.754 Y-1.703 F2400.000
G1 F1380
G1 X-1.282 Y-1.484 E0.00014
G1 X-1.686 Y-1.080 E0.00015
G1 X-2.441 Y-3.091 F2400.000
G1 F1380
G1 X-2.019 Y-3.512 E0.00016
G1 X-2.060 Y-3.580 E0.00002
G1 X-2.336 Y-3.698 E0.00008
G1 X-2.448 Y-3.775 E0.00004
G1 X-3.132 Y-3.091 E0.00026
G1 X-3.824 Y-3.091 E0.00019
G1 X-2.755 Y-4.160 E0.00041
G1 X-2.830 Y-4.316 E0.00005
G1 X-2.933 Y-4.674 E0.00010
G1 X-4.515 Y-3.091 E0.00061
G1 X-5.207 Y-3.091 E0.00019
G1 X-4.805 Y-6.951 F2400.000
G1 F1380
G1 X-5.624 Y-6.131 E0.00031
G1 X-5.624 Y-5.440 E0.00019
G1 X-2.545 Y-8.518 E0.00118
G1 X-1.854 Y-8.518 E0.00019
G1 X-5.624 Y-4.748 E0.00144
G1 X-5.624 Y-4.057 E0.00019
G1 X-1.823 Y-7.858 E0.00146
G1 X-1.853 Y-7.882 E0.00001
G1 X-1.781 Y-8.115 E0.00007
G1 X-1.563 Y-8.118 E0.00006
G1 X-1.162 Y-8.518 E0.00015
G1 X-0.471 Y-8.518 E0.00019
G1 X-0.863 Y-8.126 E0.00015
G1 X-0.166 Y-8.132 E0.00019
G1 X0.221 Y-8.518 E0.00015
G1 X0.912 Y-8.518 E0.00019
G1 X0.530 Y-8.136 E0.00015
G1 X1.222 Y-8.137 E0.00019
G1 X1.604 Y-8.518 E0.00015
G1 X2.295 Y-8.518 E0.00019
G1 X1.824 Y-8.047 E0.00018
G1 X1.854 Y-7.950 E0.00003
G1 X1.656 Y-7.813 E0.00007
G1 X1.441 Y-7.581 E0.00009
G1 X1.146 Y-7.370 E0.00010
G1 X0.624 Y-6.847 E0.00020
G1 X0.543 Y-6.574 E0.00008
G1 X0.512 Y-6.044 E0.00014
G1 X2.987 Y-8.518 E0.00095
G1 X3.235 Y-8.518 E0.00007
G1 X3.461 Y-8.301 E0.00008
G1 X0.498 Y-5.339 E0.00114
G1 X0.508 Y-4.657 E0.00018
G1 X3.814 Y-7.962 E0.00127
G1 X4.166 Y-7.623 E0.00013
G1 X1.363 Y-4.820 E0.00107
G1 X1.495 Y-4.801 E0.00004
G1 X1.702 Y-4.834 E0.00006
G1 X1.792 Y-4.872 E0.00003
G1 X2.633 Y-5.399 E0.00027
G1 X4.518 Y-7.284 E0.00072
G1 X4.871 Y-6.945 E0.00013
G1 X2.962 Y-5.036 E0.00073
G1 X2.910 Y-4.794 E0.00007
G1 X2.845 Y-4.618 E0.00005
G1 X2.758 Y-4.451 E0.00005
G1 X2.585 Y-4.199 E0.00008
G1 X2.387 Y-4.020 E0.00007
G1 X2.184 Y-3.920 E0.00006
G1 X2.137 Y-3.866 E0.00002
G1 X2.119 Y-3.790 E0.00002
G1 X2.130 Y-3.740 E0.00001
G1 X2.234 Y-3.617 E0.00004
G1 X5.223 Y-6.606 E0.00115
G1 X5.576 Y-6.267 E0.00013
G1 X2.134 Y-2.826 E0.00132
G1 X2.529 Y-2.868 E0.00011
G1 X2.349 Y-2.468 E0.00012
G1 X2.171 Y-2.239 E0.00008
G1 X1.933 Y-2.078 E0.00008
G1 X1.379 Y-1.841 E0.00016
G1 X1.315 Y-1.798 E0.00002
G1 X1.226 Y-1.672 E0.00004
G1 X1.205 Y-1.594 E0.00002
G1 X1.211 Y-1.487 E0.00003
G1 X1.373 Y-1.627 E0.00006
G1 X1.495 Y-1.683 E0.00004
G1 X1.717 Y-1.717 E0.00006
G1 X5.624 Y-5.624 E0.00150
G1 X5.624 Y-4.932 E0.00019
G1 X2.383 Y-1.691 E0.00124
G1 X2.320 Y-1.468 E0.00006
G1 X2.248 Y-1.301 E0.00005
G1 X2.040 Y-1.003 E0.00010
G1 X1.762 Y-0.770 E0.00010
G1 X1.288 Y-0.539 E0.00014
G1 X1.147 Y-0.440 E0.00005
G1 X0.895 Y-0.183 E0.00010
G1 X0.817 Y-0.052 E0.00004
G1 X1.060 Y-0.168 E0.00007
G1 X1.204 Y-0.202 E0.00004
G1 X1.349 Y-0.209 E0.00004
G1 X1.556 Y-0.173 E0.00006
G1 X5.624 Y-4.241 E0.00156
G1 X5.624 Y-3.549 E0.00019
G1 X1.103 Y0.971 E0.00173
G1 X1.746 Y0.736 E0.00019
G1 X1.861 Y0.710 E0.00003
G1 X2.070 Y0.591 E0.00006
G1 X2.196 Y0.570 E0.00003
G1 X5.624 Y-2.858 E0.00131
G1 X5.624 Y-2.166 E0.00019
G1 X2.348 Y1.109 E0.00126
G1 X2.266 Y1.327 E0.00006
G1 X2.167 Y1.495 E0.00005
G1 X2.045 Y1.646 E0.00005
G1 X1.902 Y1.778 E0.00005
G1 X1.711 Y1.903 E0.00006
G1 X2.245 Y1.903 E0.00014
G1 X5.624 Y-1.475 E0.00129
G1 X5.624 Y-0.783 E0.00019
G1 X2.937 Y1.903 E0.00103
G1 X1.053 Y2.404 F2400.000
G1 F1380
G1 X0.965 Y2.548 E0.00005
G1 X0.901 Y2.704 E0.00005
G1 X1.197 Y2.589 E0.00009
G1 X1.061 Y2.401 E0.00006
G1 X1.077 Y2.380 E0.00001
G1 X0.998 Y2.460 E0.00003
G1 X1.164 Y3.676 F2400.000
G1 F1380
G1 X0.918 Y3.922 E0.00009
G1 X1.049 Y3.933 E0.00004
G1 X1.321 Y3.890 E0.00007
G1 X1.458 Y3.923 E0.00004
G1 X1.531 Y4.001 E0.00003
G1 X2.760 Y2.772 E0.00047
G1 X3.452 Y2.772 E0.00019
G1 X0.709 Y5.514 E0.00105
G1 X0.800 Y5.610 E0.00004
G1 X0.811 Y5.699 E0.00002
G1 X0.778 Y5.782 E0.00002
G1 X0.665 Y5.897 E0.00004
G1 X0.420 Y6.064 E0.00008
G1 X0.336 Y6.186 E0.00004
G1 X0.544 Y6.371 E0.00008
G1 X4.143 Y2.772 E0.00138
G1 X4.835 Y2.772 E0.00019
G1 X-0.912 Y8.518 E0.00220
G1 X-0.221 Y8.518 E0.00019
G1 X5.526 Y2.772 E0.00220
G1 X5.604 Y2.772 E0.00002
G1 X5.604 Y3.385 E0.00017
G1 X0.471 Y8.518 E0.00197
G1 X1.162 Y8.518 E0.00019
G1 X5.604 Y4.076 E0.00170
G1 X5.604 Y4.768 E0.00019
G1 X1.854 Y8.518 E0.00144
G1 X2.545 Y8.518 E0.00019
G1 X5.604 Y5.459 E0.00117
G1 X5.604 Y6.151 E0.00019
G1 X5.172 Y6.583 E0.00017
G1 X1.586 Y3.946 F2400.000
G1 F1380
G1 X1.610 Y4.039 E0.00003
G1 X1.603 Y4.090 E0.00001
G1 X1.553 Y4.178 E0.00003
G1 X1.347 Y4.326 E0.00007
G1 X1.048 Y4.484 E0.00009
G1 X0.708 Y4.824 E0.00013
G1 X-0.910 Y4.367 F2400.000
G1 F1380
G1 X-0.694 Y4.151 E0.00008
G1 X-1.141 Y3.907 E0.00014
G1 X-1.578 Y4.344 E0.00017
G1 X-1.720 Y4.347 E0.00004
G1 X-1.653 Y4.419 E0.00003
G1 X-1.598 Y4.364 F2400.000
G1 F1380
G1 X-4.504 Y7.270 E0.00111
G1 X-4.146 Y7.604 E0.00013
G1 X-1.245 Y4.703 E0.00111
G1 X-0.784 Y4.933 E0.00014
G1 X-1.008 Y5.157 E0.00009
G1 X-1.141 Y5.290 F2400.000
G1 F1380
G1 X-3.789 Y7.938 E0.00101
G1 X-3.432 Y8.272 E0.00013
G1 X-0.791 Y5.631 E0.00101
G1 X-0.680 Y5.708 E0.00004
G1 X-0.402 Y5.814 E0.00008
G1 X-0.407 Y5.829 E0.00000
G1 X-0.728 Y5.841 E0.00009
G1 X-0.802 Y6.075 E0.00007
G1 X-0.654 Y6.186 E0.00005
G1 X-2.987 Y8.518 E0.00089
G1 X-2.295 Y8.518 E0.00019
G1 X-0.463 Y6.686 E0.00070
G1 X-0.401 Y6.890 E0.00006
G1 X-0.285 Y6.902 E0.00003
G1 X-0.226 Y6.985 E0.00003
G1 X-0.198 Y7.113 E0.00004
G1 X-1.604 Y8.518 E0.00054
G1 X-0.335 Y6.559 F2400.000
G1 F1380
G1 X-0.276 Y6.500 E0.00002
G1 X-0.417 Y6.363 E0.00005
G1 X-0.654 Y6.186 E0.00008
G1 X-2.331 Y3.022 F2400.000
G1 F1380
G1 X-5.576 Y6.267 E0.00124
G1 X-5.218 Y6.601 E0.00013
G1 X-1.973 Y3.356 E0.00124
G1 X-1.569 Y3.643 E0.00013
G1 X-4.861 Y6.935 E0.00126
G1 E-0.07500 F60.00000
G1 Z0.234 F2400.000
G1 X-4.717 Y5.815 F2400.000
G1 X3.204 Y-2.218 F2400.000
G1 X1.247 Y-2.630 F2400.000
G1 Z0.084 F2400.000
G1 E0.07500 F60.00000
G1 F1380
G1 X1.740 Y-3.123 E0.00019
G1 X2.155 Y-3.218 E0.00012
G1 X2.265 Y-3.281 E0.00003
G1 X2.337 Y-3.388 E0.00004
G1 X2.357 Y-3.467 E0.00002
G1 X2.289 Y-3.672 E0.00006
G1 X-0.715 Y-4.125 F2400.000
G1 F1380
G1 X-0.524 Y-4.316 E0.00007
G1 X-0.522 Y-5.010 E0.00019
G1 X-1.161 Y-4.371 E0.00024
G1 X-1.394 Y-4.419 E0.00006
G1 X-1.692 Y-4.407 E0.00008
G1 X-1.785 Y-4.438 E0.00003
G1 X-0.522 Y-5.701 E0.00048
G1 X-0.525 Y-6.150 E0.00012
G1 X-0.560 Y-6.355 E0.00006
G1 X-2.258 Y-4.657 E0.00065
G1 X-2.497 Y-4.824 E0.00008
G1 X-2.643 Y-4.963 E0.00005
G1 X-0.809 Y-6.797 E0.00070
G1 X-0.940 Y-6.890 E0.00004
G1 X-1.175 Y-7.123 E0.00009
G1 X-5.207 Y-3.091 E0.00155
G1 X-5.624 Y-3.091 E0.00011
G1 X-5.624 Y-3.366 E0.00007
G1 X-1.449 Y-7.541 E0.00160
G1 X-1.582 Y-7.759 E0.00007
G1 X-1.768 Y-7.913 E0.00007
G1 Z0.168 F2400.000
G1 X0.493 Y-5.039 F2400.000
G1 F1380
G1 X0.803 Y-4.728 E0.00012
G1 X0.993 Y-4.810 E0.00006
G1 X1.149 Y-4.838 E0.00004
G1 X1.401 Y-4.823 E0.00007
G1 X0.503 Y-5.721 E0.00034
G1 X0.523 Y-6.391 E0.00018
G1 X1.968 Y-4.947 E0.00055
G1 X2.393 Y-5.214 E0.00014
G1 X0.654 Y-6.952 E0.00067
G1 X0.690 Y-7.036 E0.00002
G1 X0.855 Y-7.253 E0.00007
G1 X0.986 Y-7.312 E0.00004
G1 X2.855 Y-5.442 E0.00072
G1 X5.624 Y-6.131 F2400.000
G1 F1380
G1 X4.660 Y-7.096 E0.00037
G1 X3.180 Y-8.518 E0.00056
G1 X2.545 Y-8.518 E0.00017
G1 X5.624 Y-5.440 E0.00118
G1 X5.624 Y-4.748 E0.00019
G1 X1.854 Y-8.518 E0.00144
G1 X1.162 Y-8.518 E0.00019
G1 X1.544 Y-8.137 E0.00015
G1 X0.852 Y-8.137 E0.00019
G1 X0.471 Y-8.518 E0.00015
G1 X-0.221 Y-8.518 E0.00019
G1 X0.164 Y-8.134 E0.00015
G1 X-0.523 Y-8.130 E0.00019
G1 X-0.912 Y-8.518 E0.00015
G1 X-1.604 Y-8.518 E0.00019
G1 X-1.207 Y-8.121 E0.00015
G1 X-1.726 Y-8.115 E0.00014
G1 X-1.765 Y-7.988 E0.00004
G1 X-2.295 Y-8.518 E0.00020
G1 X-2.987 Y-8.518 E0.00019
G1 X-0.525 Y-6.057 E0.00094
G1 X-0.520 Y-5.361 E0.00019
G1 X-3.453 Y-8.294 E0.00112
G1 X-3.807 Y-7.956 E0.00013
G1 X-0.523 Y-4.671 E0.00126
G1 X-0.525 Y-3.987 E0.00019
G1 X-4.161 Y-7.618 E0.00139
G1 X-4.514 Y-7.280 E0.00013
G1 X-1.644 Y-4.410 E0.00110
G1 X-2.053 Y-4.569 E0.00012
G1 X-2.254 Y-4.687 E0.00006
G1 X-2.441 Y-4.824 E0.00006
G1 X-2.679 Y-5.044 E0.00009
G1 X-2.725 Y-5.061 E0.00001
G1 X-2.824 Y-5.058 E0.00003
G1 X-2.918 Y-4.993 E0.00003
G1 X-4.868 Y-6.943 E0.00075
G1 X-5.222 Y-6.605 E0.00013
G1 X-2.786 Y-4.169 E0.00093
G1 X-2.668 Y-3.950 E0.00007
G1 X-2.575 Y-3.833 E0.00004
G1 X-2.334 Y-3.642 E0.00008
G1 X-2.195 Y-3.578 E0.00004
G1 X-2.017 Y-3.389 E0.00007
G1 X-2.066 Y-3.319 E0.00002
G1 X-2.260 Y-3.146 E0.00007
G1 X-2.297 Y-3.066 E0.00002
G1 X-2.295 Y-2.988 E0.00002
G1 X-2.362 Y-3.091 E0.00003
G1 X-2.399 Y-3.091 E0.00001
G1 X-5.576 Y-6.267 E0.00122
G1 X-5.624 Y-6.221 E0.00002
G1 X-5.624 Y-5.624 E0.00016
G1 X-3.091 Y-3.091 E0.00097
G1 X-3.782 Y-3.091 E0.00019
G1 X-5.624 Y-4.932 E0.00071
G1 X-5.624 Y-4.241 E0.00019
G1 X-4.474 Y-3.091 E0.00044
G1 X-5.165 Y-3.091 E0.00019
G1 X-5.624 Y-3.549 E0.00018
G1 X-1.761 Y-2.453 F2400.000
G1 F1380
G1 X-1.451 Y-2.287 E0.00010
G1 X-1.378 Y-2.299 E0.00002
G1 X-1.315 Y-2.345 E0.00002
G1 X-1.288 Y-2.427 E0.00002
G1 X-1.398 Y-2.586 E0.00005
G1 X-1.579 Y-2.714 E0.00006
G1 X-2.047 Y-2.842 E0.00013
G1 X-2.215 Y-2.906 E0.00005
G1 X-1.706 Y-2.397 E0.00020
G1 X-1.272 Y-1.272 F2400.000
G1 F1380
G1 X-1.273 Y-1.399 E0.00003
G1 X-1.292 Y-1.434 E0.00001
G1 X-1.383 Y-1.514 E0.00003
G1 X-1.611 Y-1.611 E0.00007
G1 X-1.217 Y-1.217 E0.00015
G1 X-1.758 Y-1.066 F2400.000
G1 F1380
G1 X-2.866 Y-2.175 E0.00042
G1 X-3.545 Y-2.162 E0.00018
G1 X-1.066 Y0.317 E0.00095
G1 X-1.290 Y0.241 E0.00006
G1 X-1.445 Y0.219 E0.00004
G1 X-1.604 Y0.225 E0.00004
G1 X-1.807 Y0.267 E0.00006
G1 X-3.894 Y-1.819 E0.00080
G1 X-4.242 Y-1.476 E0.00013
G1 X-1.669 Y1.097 E0.00099
G1 X-1.815 Y1.072 E0.00004
G1 X-2.027 Y0.959 E0.00007
G1 X-2.196 Y0.794 E0.00006
G1 X-2.419 Y0.877 E0.00006
G1 X-2.413 Y1.044 E0.00005
G1 X-4.590 Y-1.133 E0.00083
G1 X-4.938 Y-0.789 E0.00013
G1 X-1.200 Y2.949 E0.00143
G1 X-1.490 Y2.886 E0.00008
G1 X-1.629 Y2.873 E0.00004
G1 X-1.880 Y2.898 E0.00007
G1 X-1.971 Y2.869 E0.00003
G1 X-5.286 Y-0.446 E0.00127
G1 X-5.622 Y-0.115 E0.00013
G1 X-5.622 Y-0.091 E0.00001
G1 X-1.195 Y4.337 E0.00170
G1 X-1.665 Y4.347 E0.00013
G1 X-1.302 Y4.721 E0.00014
G1 X-0.764 Y4.997 E0.00016
G1 X-0.718 Y5.043 E0.00002
G1 X-0.699 Y5.120 E0.00002
G1 X-0.725 Y5.160 E0.00001
G1 X-0.892 Y5.151 E0.00005
G1 X-1.056 Y5.168 E0.00004
G1 X-5.622 Y0.601 E0.00175
G1 X-5.622 Y1.292 E0.00019
G1 X-0.798 Y6.117 E0.00185
G1 X-0.802 Y6.130 E0.00000
G1 X-0.322 Y6.593 E0.00018
G1 X-0.472 Y6.712 E0.00005
G1 X-0.401 Y6.945 E0.00007
G1 X-0.300 Y6.947 E0.00003
G1 X-0.228 Y7.037 E0.00003
G1 X-0.136 Y7.443 E0.00011
G1 X0.142 Y7.446 E0.00008
G1 X0.218 Y7.133 E0.00009
G1 X1.604 Y8.518 E0.00053
G1 X0.912 Y8.518 E0.00019
G1 X-5.622 Y1.984 E0.00250
G1 X-5.622 Y2.675 E0.00019
G1 X0.221 Y8.518 E0.00224
G1 X-0.471 Y8.518 E0.00019
G1 X-5.622 Y3.367 E0.00197
G1 X-5.622 Y4.058 E0.00019
G1 X-1.162 Y8.518 E0.00171
G1 X-1.854 Y8.518 E0.00019
G1 X-5.622 Y4.750 E0.00144
G1 X-5.622 Y5.441 E0.00019
G1 X-2.545 Y8.518 E0.00118
G1 X-3.113 Y8.518 E0.00015
G1 X-5.019 Y6.736 E0.00071
G1 X-5.622 Y6.133 E0.00023
G1 E-0.07500 F60.00000
G1 Z0.318 F2400.000
G1 X-4.717 Y5.815 F2400.000
G1 X0.748 Y6.548 F2400.000
G1 X0.163 Y7.078 F2400.000
G1 Z0.168 F2400.000
G1 E0.07500 F60.00000
G1 F1380
G1 X0.217 Y6.996 E0.00003
G1 X0.577 Y6.924 E0.00010
G1 X0.306 Y6.688 E0.00010
G1 X0.266 Y6.631 E0.00002
G1 X0.265 Y6.612 E0.00001
G1 X0.304 Y6.584 E0.00001
G1 X0.352 Y6.575 E0.00001
G1 X2.295 Y8.518 E0.00074
G1 X2.987 Y8.518 E0.00019
G1 X0.454 Y5.986 E0.00097
G1 X0.661 Y5.846 E0.00007
G1 X0.778 Y5.727 E0.00005
G1 X0.809 Y5.650 E0.00002
G1 X3.446 Y8.286 E0.00101
G1 X3.799 Y7.948 E0.00013
G1 X0.986 Y5.135 E0.00108
G1 X1.301 Y4.759 E0.00013
G1 X4.153 Y7.610 E0.00109
G1 X1.071 Y4.529 F2400.000
G1 F1380
G1 X0.831 Y4.617 E0.00007
G1 X0.770 Y4.681 E0.00002
G1 X0.746 Y4.764 E0.00002
G1 X0.768 Y4.833 E0.00002
G1 X0.892 Y4.831 E0.00003
G1 X1.295 Y4.752 E0.00011
G1 X1.016 Y4.473 E0.00011
G1 X1.291 Y4.326 E0.00008
G1 X1.449 Y4.215 E0.00005
G1 X4.506 Y7.272 E0.00117
G1 X4.860 Y6.934 E0.00013
G1 X1.437 Y3.511 E0.00131
G1 X1.618 Y3.395 E0.00006
G1 X1.836 Y3.219 E0.00008
G1 X5.213 Y6.596 E0.00129
G1 X5.567 Y6.258 E0.00013
G1 X2.173 Y2.865 E0.00130
G1 X2.322 Y2.663 E0.00007
G1 X2.323 Y2.772 E0.00003
G1 X2.772 Y2.772 E0.00012
G1 X5.604 Y5.604 E0.00109
G1 X5.604 Y4.913 E0.00019
G1 X3.463 Y2.772 E0.00082
G1 X4.154 Y2.772 E0.00019
G1 X5.604 Y4.221 E0.00056
G1 X5.604 Y3.530 E0.00019
G1 X4.846 Y2.772 E0.00029
G1 X5.537 Y2.772 E0.00019
G1 X5.604 Y2.838 E0.00003
G1 X3.761 Y1.686 F2400.000
G1 F1380
G1 X2.045 Y-0.030 E0.00066
G1 X1.664 Y0.282 E0.00013
G1 X2.032 Y0.649 E0.00014
G1 X1.916 Y0.710 E0.00004
G1 X1.530 Y0.838 E0.00011
G1 X1.203 Y0.511 E0.00013
G1 X1.019 Y-0.364 F2400.000
G1 F1380
G1 X1.196 Y-0.187 E0.00007
G1 X1.404 Y-0.209 E0.00006
G1 X1.706 Y-0.155 E0.00008
G1 X1.871 Y-0.203 E0.00005
G1 X1.417 Y-0.657 E0.00017
G1 X1.762 Y-0.825 E0.00010
G1 X1.865 Y-0.901 E0.00003
G1 X4.107 Y1.341 E0.00086
G1 X4.454 Y0.997 E0.00013
G1 X2.193 Y-1.265 E0.00087
G1 X2.314 Y-1.501 E0.00007
G1 X2.387 Y-1.762 E0.00007
G1 X4.801 Y0.652 E0.00092
G1 X5.147 Y0.307 F2400.000
G1 F1380
G1 X2.336 Y-2.504 E0.00108
G1 X2.171 Y-2.295 E0.00007
G1 X1.986 Y-2.163 E0.00006
G1 X2.310 Y-1.839 E0.00012
G1 X2.253 Y-1.877 E0.00002
G1 X2.012 Y-1.729 E0.00008
G1 X1.742 Y-1.715 E0.00007
G1 X1.513 Y-1.944 E0.00009
G1 X1.379 Y-1.897 E0.00004
G1 X1.262 Y-1.795 E0.00004
G1 X1.205 Y-1.649 E0.00004
G1 X1.204 Y-1.571 E0.00002
G1 X1.266 Y-1.487 E0.00003
G1 X1.262 Y-1.504 E0.00000
G1 X1.293 Y-2.856 F2400.000
G1 F1380
G1 X1.516 Y-2.633 E0.00009
G1 X1.813 Y-2.745 E0.00009
G1 X2.037 Y-2.804 E0.00006
G1 X1.711 Y-3.129 E0.00012
G1 X2.125 Y-3.223 E0.00012
G1 X2.229 Y-3.303 E0.00004
G1 X5.494 Y-0.038 E0.00125
G1 X5.624 Y-0.166 E0.00005
G1 X5.624 Y-0.600 E0.00012
G1 X2.230 Y-3.993 E0.00130
G1 X2.387 Y-4.075 E0.00005
G1 X2.489 Y-4.154 E0.00003
