; generated by Slic3r 1.2.9 on 2019-11-11 at 16:19:52

; external perimeters extrusion width = 0.20mm
; perimeters extrusion width = 0.34mm
; infill extrusion width = 0.34mm
; solid infill extrusion width = 0.34mm
; top infill extrusion width = 0.34mm

M104 S200 ; set temperature
G28 ; home all axes
M109 S200 ; wait for temperature to be reached
G21 ; set units to millimeters
G90 ; use absolute coordinates
M82 ; use absolute distances for extrusion
G92 E0
G1 Z0.100 F1200.000
G1 X-1.444 Y0.332 F1200.000
G1 X-0.624 Y1.151 E0.02337 F1200.000
G1 X-0.507 Y1.156 E0.02573
G1 X-2.062 Y-0.399 E0.07008
G1 X-2.183 Y-0.631 F1200.000
G1 X-0.407 Y1.144 E0.12072 F1200.000
G1 X-0.312 Y1.127 E0.12268
G1 X-2.230 Y-0.790 E0.17739
G1 X-2.200 Y-0.873 F1200.000
G1 X-0.216 Y1.111 E0.23398 F1200.000
G1 X-0.121 Y1.094 E0.23593
G1 X-2.170 Y-0.955 E0.29440
G1 X-2.104 Y-1.001 F1200.000
G1 X-0.025 Y1.078 E0.35371 F1200.000
G1 X0.070 Y1.062 E0.35567
G1 X-2.051 Y-1.060 E0.41620
G1 X-2.242 Y-1.363 F1200.000
G1 X0.166 Y1.045 E0.48488 F1200.000
G1 X0.262 Y1.029 E0.48684
G1 X-2.440 Y-1.673 E0.56391
G1 X-2.452 Y-1.797 E0.56642
G1 X0.357 Y1.012 E0.64656
G1 X0.453 Y0.996 E0.64852
G1 X-2.392 Y-1.849 E0.72966
G1 X-2.305 Y-1.874 F1200.000
G1 X0.548 Y0.979 E0.81104 F1200.000
G1 X0.644 Y0.963 E0.81300
G1 X-2.218 Y-1.899 E0.89463
G1 X-2.131 Y-1.924 F1200.000
G1 X0.739 Y0.946 E0.97651 F1200.000
G1 X0.835 Y0.930 E0.97847
G1 X-2.044 Y-1.949 E1.06059
G1 X-1.957 Y-1.974 F1200.000
G1 X0.931 Y0.914 E1.14297 F1200.000
G1 X1.026 Y0.897 E1.14492
G1 X-1.870 Y-1.999 E1.22754
G1 X-1.783 Y-2.024 F1200.000
G1 X1.122 Y0.881 E1.31041 F1200.000
G1 X1.217 Y0.864 E1.31237
G1 X-1.696 Y-2.049 E1.39548
G1 X-1.609 Y-2.074 F1200.000
G1 X1.313 Y0.848 E1.47884 F1200.000
G1 X1.408 Y0.831 E1.48080
G1 X-1.522 Y-2.100 E1.56441
G1 X-1.435 Y-2.125 F1200.000
G1 X1.504 Y0.815 E1.64826 F1200.000
G1 X1.600 Y0.798 E1.65022
G1 X-1.292 Y-2.093 E1.73270
G1 X-1.204 Y-2.117 F1200.000
G1 X1.692 Y0.779 E1.81531 F1200.000
G1 X1.732 Y0.707 E1.81697
G1 X-1.156 Y-2.182 E1.89937
G1 X-1.109 Y-2.246 F1200.000
G1 X1.733 Y0.596 E1.98043 F1200.000
G1 X1.733 Y0.484 E1.98267
G1 X-1.061 Y-2.310 E2.06240
G1 X-0.966 Y-2.327 F1200.000
G1 X1.734 Y0.373 E2.13942 F1200.000
G1 X1.735 Y0.262 E2.14166
G1 X-0.866 Y-2.339 E2.21585
G1 X-0.766 Y-2.351 E2.21789
G1 X1.736 Y0.150 E2.28924
G1 X1.736 Y0.039 E2.29148
G1 X-0.665 Y-2.363 E2.35999
G1 X-0.565 Y-2.375 E2.36203
G1 X1.737 Y-0.072 E2.42771
G1 X1.789 Y-0.133 F1200.000
G1 X-0.465 Y-2.386 E2.49199 F1200.000
G1 X-0.365 Y-2.398 E2.49403
G1 X1.869 Y-0.165 E2.55774
G1 X1.952 Y-0.193 F1200.000
G1 X-0.265 Y-2.410 E2.62099 F1200.000
G1 X-0.164 Y-2.422 E2.62302
G1 X2.036 Y-0.221 E2.68579
G1 X2.120 Y-0.250 F1200.000
G1 X-0.064 Y-2.434 E2.74809 F1200.000
G1 X0.036 Y-2.446 E2.75013
G1 X2.203 Y-0.278 E2.81196
G1 X2.287 Y-0.306 F1200.000
G1 X0.136 Y-2.457 E2.87332 F1200.000
G1 X0.236 Y-2.469 E2.87536
G1 X2.371 Y-0.335 E2.93624
G1 X2.454 Y-0.363 F1200.000
G1 X0.337 Y-2.481 E2.99666 F1200.000
G1 X0.437 Y-2.493 E2.99870
G1 X2.538 Y-0.391 E3.05864
G1 X2.622 Y-0.420 F1200.000
G1 X0.556 Y-2.486 E3.11757 F1200.000
G1 X0.693 Y-2.460 E3.12039
G1 X2.705 Y-0.448 E3.17779
G1 X2.789 Y-0.477 F1200.000
G1 X0.831 Y-2.435 E3.23365 F1200.000
G1 X0.968 Y-2.409 E3.23647
G1 X2.853 Y-0.525 E3.29024
G1 X2.882 Y-0.608 F1200.000
G1 X1.095 Y-2.395 E3.34122 F1200.000
G1 X1.266 Y-2.336 F1200.000
G1 X2.911 Y-0.691 E3.38813 F1200.000
G1 X2.940 Y-0.774 F1200.000
G1 X1.428 Y-2.286 E3.43124 F1200.000
G1 X1.590 Y-2.236 E3.43466
G1 X2.968 Y-0.857 E3.47397
G1 X2.997 Y-0.941 F1200.000
G1 X1.752 Y-2.186 E3.50948 F1200.000
G1 X1.914 Y-2.136 E3.51290
G1 X3.026 Y-1.024 E3.54461
G1 X3.055 Y-1.107 F1200.000
G1 X2.076 Y-2.086 E3.57252 F1200.000
G1 X2.238 Y-2.036 E3.57594
G1 X3.083 Y-1.190 E3.60005
G1 X3.112 Y-1.274 F1200.000
G1 X2.400 Y-1.986 E3.62036 F1200.000
G1 X2.556 Y-1.942 E3.62363
G1 X2.749 Y-1.749 E3.62912
G1 X-1.556 Y0.219 F1200.000
G1 X-1.941 Y-0.166 E3.64010 F1200.000
G1 X-1.820 Y0.067 F1200.000
G1 X-1.712 Y0.176 E3.64321 F1200.000
G92 E0
G1 Z0.200 F1200.000
G1 X-1.516 Y0.185 F1200.000
G1 X1.021 Y-2.352 E0.28791 F761.637
G1 X0.638 Y-2.414 E0.31910
G1 X-1.833 Y0.056 E0.59942
G1 X-2.212 Y-0.010 E0.63034
G1 X0.261 Y-2.483 E0.91105
G1 X-0.115 Y-2.553 E0.94174
G1 X-2.251 Y-0.417 E1.18410
G1 X-1.916 Y-1.198 F1200.000
G1 X-0.491 Y-2.622 E1.34578 F761.637
G1 X-1.511 Y-2.048 F1200.000
G1 X-2.094 Y-1.465 E1.41199 F761.637
G1 X-2.178 Y-1.826 E1.44178
G1 X-1.952 Y-2.052 E1.46739
G92 E0
G1 X-1.342 Y0.457 F1200.000
G1 X1.368 Y-2.253 E0.30751 F761.637
G1 X1.708 Y-2.148 E0.33611
G1 X-1.212 Y0.772 E0.66749
G1 X-0.986 Y0.992 E0.69278
G1 X2.049 Y-2.043 E1.03714
G1 X2.389 Y-1.938 E1.06574
G1 X-0.616 Y1.068 E1.40682
G1 X-0.113 Y1.010 E1.44747
G1 X2.705 Y-1.808 E1.76727
G1 X2.919 Y-1.576 E1.79257
G1 X0.426 Y0.917 E2.07542
G1 X0.966 Y0.823 E2.11934
G1 X1.683 Y0.106 E2.20070
G1 X1.683 Y0.552 E2.23644
G1 X1.505 Y0.729 E2.25664
G1 X2.043 Y-0.254 F1200.000
G1 X3.082 Y-1.293 E2.37456 F761.637
G92 E0
G1 Z0.300 F1200.000
G1 X2.912 Y-1.524 F1200.000
G1 X2.622 Y-1.814 E0.03428 F730.627
G1 X1.939 Y-2.032 F1200.000
G1 X3.060 Y-0.911 E0.16682 F730.627
G1 X2.938 Y-0.568 E0.19724
G1 X1.268 Y-2.239 E0.39485
G1 X0.658 Y-2.383 E0.44722
G1 X2.676 Y-0.365 E0.68594
G1 X2.340 Y-0.237 E0.71605
G1 X0.089 Y-2.489 E0.98239
G1 X-0.481 Y-2.594 E1.03085
G1 X2.014 Y-0.098 E1.32604
G1 X1.781 Y0.133 E1.35351
G1 X-0.820 Y-2.469 E1.66126
G1 X-1.018 Y-2.201 E1.68904
G1 X1.702 Y0.518 E2.01078
G1 X1.476 Y0.757 E2.03827
G1 X-1.266 Y-1.986 E2.36266
G1 X-1.780 Y-2.035 E2.40586
G1 X1.081 Y0.826 E2.74431
G1 X0.685 Y0.895 E2.77787
G1 X-2.102 Y-1.892 E3.10758
G1 X-1.949 Y-0.810 F1200.000
G1 X-0.105 Y1.034 E3.32573 F730.627
G1 X0.290 Y0.965 E3.35930
G1 X-1.552 Y-0.878 E3.57724
G1 X-2.218 Y-0.615 F1200.000
G1 X-0.558 Y1.046 E3.77368 F730.627
G1 X-2.073 Y-0.005 F1200.000
G1 X-2.259 Y-0.190 E3.79566 F730.627
G92 E0
G1 Z0.400 F1200.000
G1 X-1.595 Y0.170 F1200.000
G1 X0.986 Y-2.411 E0.30527 F730.665
G1 X0.539 Y-2.428 E0.34270
G1 X-1.958 Y0.068 E0.63800
G1 X-2.081 Y-0.274 E0.66838
G1 X-1.582 Y-0.772 E0.72733
G1 X-1.400 Y-0.954 F1200.000
G1 X0.146 Y-2.501 E0.91024 F730.665
G1 X-0.246 Y-2.573 E0.94359
G1 X-1.601 Y-1.218 E1.10385
G1 X-1.801 Y-1.482 E1.13158
G1 X-1.362 Y-1.921 E1.18356
G1 X-1.737 Y-2.011 E1.21582
G1 X-1.957 Y-1.790 E1.24189
G92 E0
G1 X-0.485 Y-1.332 F1200.000
G1 X0.666 Y-0.849 F1200.000
G1 X0.407 Y-0.093 F1200.000
G1 X-0.380 Y0.031 F1200.000
G1 X-0.480 Y-0.029 F1200.000
G1 X-1.342 Y0.381 F1200.000
G1 X1.344 Y-2.304 E0.31770 F730.665
G1 X1.659 Y-2.155 E0.34688
G1 X-1.205 Y0.709 E0.68577
G1 X-1.001 Y0.970 E0.71344
G1 X2.014 Y-2.046 E1.07015
G1 X2.408 Y-1.975 E1.10358
G1 X-0.598 Y1.031 E1.45908
G1 X-0.117 Y1.014 E1.49935
G1 X2.705 Y-1.807 E1.83307
G1 X2.993 Y-1.630 E1.86132
G1 X0.448 Y0.914 E2.16233
G1 X1.719 Y0.572 F1200.000
G1 X1.577 Y0.714 E2.17912 F730.665
G1 X1.012 Y0.814 E2.22707
G1 X3.184 Y-1.357 E2.48393
G1 X3.021 Y-0.730 E2.53813
G1 X2.830 Y-0.538 E2.56079
G92 E0
G1 Z0.500 F1200.000
G1 X3.056 Y-1.491 F1200.000
G1 X2.767 Y-1.781 E0.03324 F753.443
G1 X2.082 Y-2.016 F1200.000
G1 X3.190 Y-0.907 E0.16036 F753.443
G1 X3.069 Y-0.578 E0.18884
G1 X1.481 Y-2.165 E0.37097
G1 X0.758 Y-2.438 F1200.000
G1 X2.791 Y-0.406 E0.60411 F753.443
G1 X2.558 Y-0.188 E0.62997
G1 X0.300 Y-2.445 E0.88888
G1 X-0.252 Y-2.547 E0.93445
G1 X2.269 Y-0.027 E1.22363
G1 X2.043 Y0.198 E1.24947
G1 X-0.640 Y-2.485 E1.55721
G1 X-0.891 Y-2.286 E1.58322
G1 X1.817 Y0.422 E1.89387
G1 X1.665 Y0.721 E1.92104
G1 X-1.126 Y-2.070 E2.24120
G1 X-1.368 Y-1.862 E2.26712
G1 X1.283 Y0.789 E2.57124
G1 X0.901 Y0.858 E2.60272
G1 X-1.846 Y-1.889 E2.91785
G1 X-1.385 Y-0.977 F1200.000
G1 X0.519 Y0.926 E3.13621 F753.443
G1 X0.137 Y0.995 E3.16769
G1 X-1.564 Y-0.706 E3.36274
G1 X-1.955 Y-0.647 E3.39485
G1 X-0.289 Y1.019 E3.58594
G1 X-1.047 Y0.712 F1200.000
G1 X-1.236 Y0.523 E3.60766 F753.443
G1 X-1.634 Y0.125 F1200.000
G1 X-1.820 Y-0.061 E3.62897 F753.443
G92 E0
G1 Z0.600 F1200.000
G1 X-1.660 Y-1.698 F1200.000
G1 X-1.495 Y-1.862 E0.01862 F762.150
G1 X-0.488 Y-2.424 F1200.000
G1 X-1.467 Y-1.445 E0.12967 F762.150
G1 X-1.352 Y-1.115 E0.15771
G1 X0.048 Y-2.515 E0.31649
G1 X0.433 Y-2.454 E0.34773
G1 X-1.671 Y-0.350 E0.58634
G1 X-1.615 Y0.039 E0.61783
G1 X0.916 Y-2.492 E0.90482
G1 X1.305 Y-2.435 E0.93630
G1 X-1.370 Y0.240 E1.23964
G1 X-1.215 Y0.529 E1.26602
G1 X1.544 Y-2.229 E1.57886
G1 X1.849 Y-2.089 E1.60580
G1 X-0.924 Y0.684 E1.92035
G1 X-0.633 Y0.838 E1.94677
G1 X2.245 Y-2.040 E2.27313
G1 X2.579 Y-1.928 E2.30136
G1 X-0.342 Y0.992 E2.63253
G1 X0.120 Y0.976 E2.66960
G1 X2.846 Y-1.750 E2.97867
G1 X3.138 Y-1.597 E3.00513
G1 X0.664 Y0.877 E3.28570
G1 X1.208 Y0.779 E3.33003
G1 X3.289 Y-1.303 E3.56606
G1 X3.128 Y-0.696 E3.61644
G1 X2.940 Y-0.508 E3.63773
G92 E0
G1 Z0.700 F1200.000
G1 X3.201 Y-1.459 F1200.000
G1 X2.911 Y-1.749 E0.03481 F719.506
G1 X2.124 Y-2.065 F1200.000
G1 X3.316 Y-0.872 E0.17809 F719.506
G1 X3.180 Y-0.537 E0.20884
G1 X1.501 Y-2.216 E0.41052
G1 X0.706 Y-2.539 F1200.000
G1 X2.850 Y-0.395 E0.66815 F719.506
G1 X2.606 Y-0.167 E0.69650
G1 X0.283 Y-2.490 E0.97550
G1 X-0.175 Y-2.476 E1.01442
G1 X2.403 Y0.102 E1.32404
G1 X2.178 Y0.348 E1.35240
G1 X-0.548 Y-2.378 E1.67986
G1 X-0.870 Y-2.228 E1.71000
G1 X1.950 Y0.592 E2.04869
G1 X1.641 Y0.755 E2.07834
G1 X-1.156 Y-2.042 E2.41428
G1 X-1.461 Y-1.875 E2.44380
G1 X1.216 Y0.802 E2.76539
G1 X0.818 Y0.875 E2.79982
G1 X-1.439 Y-1.382 E3.07087
G1 X-1.508 Y-0.979 E3.10554
G1 X0.419 Y0.948 E3.33704
G1 X-0.130 Y0.871 E3.38410
G1 X-1.573 Y-0.573 E3.55752
G1 X-1.377 Y0.096 E3.61669
G1 X-1.130 Y0.342 E3.64631
G1 X-1.343 Y0.129 E3.67191
G92 E0
G1 Z0.800 F1200.000
G1 X-1.290 Y-1.894 F1200.000
G1 X-1.513 Y-1.672 E0.02723 F706.650
G1 X-1.453 Y-1.251 E0.06395
G1 X-0.384 Y-2.320 E0.19470
G1 X0.309 Y-2.533 F1200.000
G1 X-1.580 Y-0.644 E0.42579 F706.650
G1 X-1.543 Y-0.201 E0.46425
G1 X0.854 Y-2.597 E0.75736
G1 X1.255 Y-2.518 E0.79275
G1 X-1.419 Y0.156 E1.11983
G1 X-1.150 Y0.367 E1.14943
G1 X1.561 Y-2.344 E1.48093
G1 X1.852 Y-2.155 E1.51097
G1 X-0.832 Y0.529 E1.83922
G1 X-0.514 Y0.691 E1.87010
G1 X2.268 Y-2.090 E2.21030
G1 X2.589 Y-1.931 E2.24132
G1 X-0.196 Y0.853 E2.58194
G1 X0.166 Y0.972 E2.61488
G1 X2.847 Y-1.709 E2.94277
G1 X3.234 Y-1.616 E2.97719
G1 X0.549 Y1.070 E3.30564
G1 X1.164 Y0.935 E3.36013
G1 X3.384 Y-1.286 E3.63169
G1 X3.245 Y-0.666 E3.68659
G1 X3.057 Y-0.478 E3.70965
G92 E0
G1 Z0.900 F1200.000
G1 X3.446 Y-0.881 F1200.000
G1 X2.204 Y-2.123 E0.14098 F761.447
G1 X1.647 Y-2.234 E0.18660
G1 X3.321 Y-0.560 E0.37659
G1 X2.983 Y-0.452 E0.40504
G1 X0.808 Y-2.627 E0.65194
G1 X0.376 Y-2.613 E0.68660
G1 X2.752 Y-0.237 E0.95630
G1 X2.558 Y0.015 E0.98181
G1 X-0.006 Y-2.549 E1.27282
G1 X-0.317 Y-2.415 E1.30005
G1 X2.395 Y0.297 E1.60790
G1 X2.196 Y0.544 E1.63335
G1 X-0.629 Y-2.281 E1.95400
G1 X-0.920 Y-2.126 E1.98046
G1 X1.959 Y0.753 E2.30727
G1 X1.626 Y0.865 E2.33552
G1 X-1.188 Y-1.948 E2.65484
G1 X-1.450 Y-1.765 E2.68053
G1 X1.293 Y0.978 E2.99183
G1 X0.959 Y1.090 E3.02008
G1 X-1.497 Y-1.366 E3.29887
G1 X-1.565 Y-0.988 E3.32970
G1 X0.625 Y1.202 E3.57830
G1 X-0.259 Y0.763 F1200.000
G1 X-1.586 Y-0.563 E3.72892 F761.447
G1 X-1.485 Y-0.017 E3.77350
G1 X-1.182 Y0.286 E3.80795
G1 X3.056 Y-1.716 F1200.000
G1 X3.346 Y-1.426 E3.84084 F761.447
G92 E0
G1 Z1.000 F1200.000
G1 X3.173 Y-0.447 F1200.000
G1 X3.363 Y-0.637 E0.02294 F713.986
G1 X3.488 Y-1.237 E0.07544
G1 X1.262 Y0.989 E0.34489
G1 X0.548 Y1.228 F1200.000
G1 X3.369 Y-1.593 E0.68635 F713.986
G1 X2.964 Y-1.664 E0.72152
G1 X0.134 Y1.166 E1.06413
G1 X-0.083 Y0.908 E1.09301
G1 X2.686 Y-1.861 E1.42819
G1 X2.433 Y-2.083 E1.45703
G1 X-0.421 Y0.770 E1.80241
G1 X-0.726 Y0.600 E1.83232
G1 X2.112 Y-2.238 E2.17588
G1 X1.728 Y-2.329 E2.20970
G1 X-1.035 Y0.433 E2.54410
G1 X-1.349 Y0.273 E2.57435
G1 X1.432 Y-2.509 E2.91108
G1 X1.092 Y-2.644 E2.94240
G1 X-1.571 Y0.019 E3.26480
G1 X-1.580 Y-0.447 E3.30472
G1 X0.660 Y-2.687 E3.57585
G1 X0.085 Y-2.588 E3.62578
G1 X-1.555 Y-0.947 E3.82433
G1 X-1.511 Y-1.467 E3.86896
G1 X-1.289 Y-1.689 E3.89591
G92 E0
G1 Z1.100 F1200.000
G1 X-1.601 Y-0.064 F1200.000
G1 X-1.305 Y0.231 E0.03453 F739.995
G1 X-0.284 Y0.794 F1200.000
G1 X-1.579 Y-0.501 E0.18588 F739.995
G1 X-1.558 Y-0.938 E0.22202
G1 X0.644 Y1.264 E0.47923
G1 X1.007 Y1.168 E0.51020
G1 X-1.579 Y-1.419 E0.81226
G1 X-1.390 Y-1.688 E0.83946
G1 X1.347 Y1.049 E1.15924
G1 X1.688 Y0.931 E1.18901
G1 X-1.161 Y-1.918 E1.52179
G1 X-0.929 Y-2.145 E1.54858
G1 X2.034 Y0.818 E1.89465
G1 X2.304 Y0.630 E1.92186
G1 X-0.673 Y-2.347 E2.26951
G1 X-0.372 Y-2.505 E2.29755
G1 X2.474 Y0.342 E2.63006
G1 X2.642 Y0.051 E2.65779
G1 X-0.052 Y-2.643 E2.97247
G1 X0.330 Y-2.720 E3.00462
G1 X2.810 Y-0.240 E3.29435
G1 X3.082 Y-0.426 E3.32159
G1 X0.809 Y-2.700 E3.58719
G1 X1.513 Y-2.454 F1200.000
G1 X3.438 Y-0.529 E3.81203 F739.995
G1 X3.571 Y-0.855 E3.84110
G1 X2.599 Y-1.827 E3.95461
G1 X3.201 Y-1.684 F1200.000
G1 X3.434 Y-1.450 E3.98187 F739.995
G92 E0
G1 Z1.200 F1200.000
G1 X3.301 Y-0.417 F1200.000
G1 X3.474 Y-0.589 E0.02052 F725.869
G1 X3.595 Y-1.178 E0.07113
G1 X1.381 Y1.036 E0.33470
G1 X0.689 Y1.260 F1200.000
G1 X3.491 Y-1.542 E0.66833 F725.869
G1 X3.113 Y-1.632 E0.70102
G1 X0.183 Y1.298 E1.04992
G1 X-0.072 Y1.086 E1.07787
G1 X2.794 Y-1.780 E1.41909
G1 X2.549 Y-2.002 E1.44697
G1 X-0.323 Y0.869 E1.78888
G1 X-0.623 Y0.702 E1.81782
G1 X2.299 Y-2.220 E2.16572
G1 X1.965 Y-2.354 E2.19598
G1 X-0.924 Y0.535 E2.53993
G1 X-1.224 Y0.368 E2.56887
G1 X1.632 Y-2.488 E2.90888
G1 X1.298 Y-2.622 E2.93914
G1 X-1.521 Y0.197 E3.27485
G1 X-1.705 Y-0.087 E3.30333
G1 X0.945 Y-2.736 E3.61881
G1 X0.518 Y-2.777 E3.65491
G1 X-1.791 Y-0.468 E3.92985
G1 X-1.877 Y-0.849 E3.96276
G1 X-0.108 Y-2.618 E4.17342
G92 E0
G1 X-1.746 Y-1.449 F1200.000
G1 X-1.964 Y-1.230 E0.02596 F725.869
G92 E0
G1 X2.080 Y0.805 F1200.000
G1 X2.301 Y0.584 E0.02630 F725.869
G92 E0
G1 Z1.300 F1200.000
G1 X2.909 Y-0.229 F1200.000
G1 X0.319 Y-2.820 E0.30515 F733.800
G1 X-0.072 Y-2.748 E0.33825
G1 X2.740 Y0.064 E0.66949
G1 X2.571 Y0.357 E0.69769
G1 X-0.380 Y-2.594 E1.04524
G1 X-0.647 Y-2.398 E1.07281
G1 X2.392 Y0.641 E1.43081
G1 X2.156 Y0.868 E1.45805
G1 X-0.912 Y-2.201 E1.81947
G1 X-1.147 Y-1.972 E1.84672
G1 X1.808 Y0.982 E2.19471
G1 X1.461 Y1.098 E2.22514
G1 X-1.388 Y-1.752 E2.56079
G1 X-1.712 Y-1.613 E2.59012
G1 X1.118 Y1.217 E2.92342
G1 X0.742 Y1.304 E2.95553
G1 X-2.024 Y-1.462 E3.28132
G1 X-2.294 Y-1.270 E3.30894
G1 X0.339 Y1.364 E3.61910
G1 X-1.105 Y0.382 F1200.000
G1 X-2.210 Y-0.724 E3.74932 F733.800
G1 X-2.068 Y-0.119 E3.80108
G1 X-1.859 Y0.090 E3.82568
G92 E0
G1 X0.830 Y-2.771 F1200.000
G1 X3.205 Y-0.396 E0.27976 F733.800
G1 X3.519 Y-1.470 F1200.000
G1 X3.339 Y-1.650 E0.30100 F733.800
G1 X2.926 Y-1.600 E0.33562
G1 X3.693 Y-0.834 E0.42592
G1 X3.529 Y-0.535 E0.45431
G1 X1.584 Y-2.479 E0.68338
G92 E0
G1 Z1.400 F1200.000
G1 X-1.381 Y-1.771 F1200.000
G1 X-2.564 Y-0.588 E0.14141 F722.839
G1 X-2.500 Y-0.182 E0.17615
G1 X0.170 Y-2.852 E0.49542
G1 X0.627 Y-2.840 E0.53409
G1 X-2.283 Y0.070 E0.88199
G1 X-1.976 Y0.233 E0.91133
G1 X1.042 Y-2.785 E1.27224
G1 X1.374 Y-2.648 E1.30263
G1 X-1.598 Y0.324 E1.65796
G1 X-1.415 Y0.141 E1.67987
G1 X-1.219 Y0.415 E1.70834
G1 X1.706 Y-2.510 E2.05808
G1 X2.037 Y-2.371 E2.08840
G1 X-0.917 Y0.583 E2.44160
G1 X-0.616 Y0.751 E2.47079
G1 X2.361 Y-2.226 E2.82677
G1 X2.596 Y-1.991 E2.85484
G1 X-0.306 Y0.910 E3.20173
G1 X-0.113 Y1.187 E3.23026
G1 X2.833 Y-1.759 E3.58252
G1 X3.127 Y-1.583 E3.61148
G1 X0.140 Y1.404 E3.96863
G1 X0.696 Y1.317 E4.01619
G1 X3.576 Y-1.562 E4.36048
G1 X3.662 Y-1.180 E4.39366
G1 X1.348 Y1.135 E4.67045
G1 X2.098 Y0.854 F1200.000
G1 X2.339 Y0.614 E4.69921 F722.839
G1 X-2.352 Y-1.269 F1200.000
G1 X-2.576 Y-1.045 E4.72603 F722.839
G92 E0
G1 Z1.500 F1200.000
G1 X-2.625 Y-0.182 F1200.000
G1 X-2.340 Y0.102 E0.03377 F728.327
G1 X-1.536 Y0.440 F1200.000
G1 X-2.638 Y-0.661 E0.16446 F728.327
G1 X-2.637 Y-1.127 E0.20352
G1 X-1.057 Y0.453 E0.39099
G1 X0.385 Y1.429 F1200.000
G1 X-2.446 Y-1.402 E0.72698 F728.327
G1 X-2.149 Y-1.571 E0.75566
G1 X0.778 Y1.356 E1.10299
G1 X1.170 Y1.283 E1.13651
G1 X-1.823 Y-1.711 E1.49177
G1 X-1.498 Y-1.851 E1.52153
G1 X1.520 Y1.166 E1.87958
G1 X1.866 Y1.047 E1.91035
G1 X-1.172 Y-1.991 E2.27087
